; generated by PrusaSlicer 2.5.0+MacOS-arm64 on 2023-01-16 at 20:49:23 UTC


;
;
; 

; external perimeters extrusion width = 0.45mm
; perimeters extrusion width = 0.45mm
; infill extrusion width = 0.45mm
; solid infill extrusion width = 0.45mm
; top infill extrusion width = 0.40mm
; first layer extrusion width = 0.42mm

M73 P0 R8
M73 Q0 S8
M201 X1000 Y1000 Z200 E5000 ; sets maximum accelerations, mm/sec^2
M203 X200 Y200 Z12 E120 ; sets maximum feedrates, mm / sec
M204 P1250 R1250 T1250 ; sets acceleration (P, T) and retract acceleration (R), mm/sec^2
M205 X8.00 Y8.00 Z0.40 E4.50 ; sets the jerk limits, mm/sec
M205 S0 T0 ; sets the minimum extruding and travel feed rate, mm/sec
M107
;TYPE:Custom
M862.3 P "MK3S" ; printer model check
M862.1 P0.4 ; nozzle diameter check
M115 U3.11.0 ; tell printer latest fw version
G90 ; use absolute coordinates
M83 ; extruder relative mode
M104 S215 ; set extruder temp
M140 S60 ; set bed temp
M190 S60 ; wait for bed temp
M109 S215 ; wait for extruder temp
G28 W ; home all without mesh bed level
G80 ; mesh bed leveling

G1 Z0.2 F720
G1 Y-3 F1000 ; go outside print area
G92 E0
G1 X60 E9 F1000 ; intro line
G1 X100 E12.5 F1000 ; intro line

G92 E0
M221 S95

; Don't change E values below. Excessive value can damage the printer.
M907 E430 ; set extruder motor current
G21 ; set units to millimeters
G90 ; use absolute coordinates
M83 ; use relative distances for extrusion
M900 K0.05 ; Filament gcode LA 1.5
M900 K30 ; Filament gcode LA 1.0
M107
;LAYER_CHANGE
;Z:0.2
;HEIGHT:0.2
;BEFORE_LAYER_CHANGE
G92 E0.0
;0.2


M73 P0 R7
M73 Q0 S7
G1 E-.8 F2100
M73 P1 R7
M73 Q1 S7
G1 Z.4 F720
;AFTER_LAYER_CHANGE
;0.2
G1 X115.815 Y97.506 F10800
G1 Z.2 F720
G1 E.8 F2100
M204 S800
;TYPE:Skirt/Brim
;WIDTH:0.42
G1 F1200
G1 X116.765 Y96.474 E.04397
G1 X117.573 Y95.761 E.03379
G1 X118.581 Y95.034 E.03895
G1 X119.803 Y94.346 E.04397
G1 X120.711 Y93.949 E.03108
G1 X121.891 Y93.561 E.03895
G1 X122.857 Y93.341 E.03108
G1 X124.09 Y93.181 E.03895
G1 X125.167 Y93.147 E.03379
G1 X126.565 Y93.249 E.04397
G1 X127.786 Y93.478 E.03895
G1 X128.821 Y93.779 E.03379
G1 X129.896 Y94.204 E.03624
G1 X130.856 Y94.694 E.03379
G1 X131.903 Y95.363 E.03895
G1 X133.526 Y96.765 E.06725
G1 X134.239 Y97.573 E.03379
G1 X134.966 Y98.581 E.03895
G1 X135.467 Y99.436 E.03108
G1 X135.992 Y100.562 E.03895
G1 X136.439 Y101.891 E.04397
G1 X136.659 Y102.857 E.03108
G1 X136.819 Y104.089 E.03895
G1 X136.854 Y105.08 E.03108
G1 X136.78 Y106.32 E.03895
G1 X136.629 Y107.3 E.03108
G1 X136.324 Y108.504 E.03895
G1 X135.959 Y109.518 E.03379
G1 X135.426 Y110.641 E.03895
G1 X134.687 Y111.832 E.04397
G1 X134.026 Y112.684 E.03379
G1 X133.235 Y113.526 E.03624
G1 X132.427 Y114.239 E.03379
G1 X131.419 Y114.966 E.03895
G1 X130.564 Y115.467 E.03108
G1 X129.438 Y115.992 E.03895
G1 X128.109 Y116.439 E.04397
M73 Q2 S7
G1 X127.143 Y116.659 E.03108
G1 X125.911 Y116.819 E.03895
G1 X124.92 Y116.854 E.03108
G1 X123.68 Y116.78 E.03895
G1 X122.7 Y116.629 E.03108
G1 X121.496 Y116.324 E.03895
M73 P2 R7
G1 X120.482 Y115.959 E.03379
G1 X119.359 Y115.426 E.03895
G1 X118.168 Y114.687 E.04397
G1 X117.316 Y114.026 E.03379
G1 X116.474 Y113.235 E.03624
G1 X115.761 Y112.427 E.03379
G1 X115.034 Y111.419 E.03895
G1 X114.533 Y110.564 E.03108
G1 X114.008 Y109.438 E.03895
G1 X113.561 Y108.109 E.04397
G1 X113.341 Y107.143 E.03108
G1 X113.181 Y105.911 E.03895
G1 X113.146 Y104.92 E.03108
G1 X113.22 Y103.68 E.03895
G1 X113.371 Y102.7 E.03108
G1 X113.676 Y101.496 E.03895
G1 X114.041 Y100.482 E.03379
G1 X114.533 Y99.436 E.03624
G1 X115.082 Y98.508 E.03379
G1 X115.78 Y97.554 E.03707
M204 S1000
G1 X116.084 Y97.776 F10800
M204 S800
G1 F1200
G1 X117.031 Y96.74 E.04402
G1 X117.804 Y96.059 E.03231
G1 X118.783 Y95.353 E.03784
G1 X119.974 Y94.682 E.04285
G1 X120.85 Y94.299 E.02997
G1 X122.928 Y93.711 E.06773
G1 X124.125 Y93.557 E.03784
G1 X125.155 Y93.524 E.03231
G1 X126.518 Y93.624 E.04285
G1 X127.704 Y93.846 E.03784
G1 X128.693 Y94.134 E.03231
G1 X129.746 Y94.55 E.0355
G1 X130.664 Y95.018 E.03231
G1 X131.681 Y95.668 E.03784
G1 X133.26 Y97.031 E.0654
G1 X133.941 Y97.804 E.0323
G1 X134.647 Y98.783 E.03784
G1 X135.642 Y100.701 E.06773
G1 X136.077 Y101.996 E.04285
G1 X136.289 Y102.928 E.02997
G1 X136.477 Y105.08 E.06773
G1 X136.259 Y107.229 E.06773
G1 X135.962 Y108.399 E.03784
G1 X135.613 Y109.368 E.0323
G1 X135.096 Y110.459 E.03784
G1 X134.375 Y111.62 E.04285
G1 X133.744 Y112.434 E.03231
G1 X132.969 Y113.26 E.0355
G1 X132.196 Y113.941 E.03231
G1 X131.217 Y114.647 E.03784
G1 X129.299 Y115.642 E.06773
G1 X128.004 Y116.077 E.04285
G1 X127.072 Y116.289 E.02997
G1 X124.92 Y116.477 E.06773
G1 X122.771 Y116.259 E.06773
G1 X121.601 Y115.962 E.03784
G1 X120.632 Y115.613 E.0323
G1 X119.541 Y115.096 E.03784
G1 X118.38 Y114.375 E.04285
G1 X117.566 Y113.744 E.03231
G1 X116.74 Y112.969 E.0355
G1 X116.059 Y112.196 E.03231
G1 X115.353 Y111.217 E.03784
G1 X114.358 Y109.299 E.06773
G1 X113.923 Y108.004 E.04285
G1 X113.711 Y107.072 E.02997
G1 X113.523 Y104.92 E.06773
G1 X113.741 Y102.771 E.06773
M73 Q3 S7
G1 X114.038 Y101.601 E.03784
G1 X114.387 Y100.632 E.03231
G1 X114.869 Y99.607 E.0355
G1 X115.394 Y98.72 E.03231
G1 X116.048 Y97.825 E.03478
M204 S1000
;WIPE_START
M73 P3 R7
G1 F8640
G1 X117.031 Y96.74 E-.33795
G1 X117.804 Y96.059 E-.23791
G1 X118.451 Y95.592 E-.18415
;WIPE_END
G1 E-.04 F2100
G1 Z.6 F720
G1 X118.117 Y99.507 F10800
G1 Z.2 F720
G1 E.8 F2100
M204 S800
G1 F1200
G1 X118.371 Y99.195 E.01261
G1 X119.105 Y98.448 E.03283
G1 X119.809 Y97.878 E.02842
G1 X120.565 Y97.385 E.02829
G1 X121.299 Y97.002 E.02594
G1 X122.09 Y96.682 E.02675
G1 X122.914 Y96.438 E.02697
G1 X123.776 Y96.272 E.02749
G1 X124.592 Y96.197 E.0257
G1 X125.399 Y96.196 E.02532
G1 X126.298 Y96.284 E.02831
G1 X127.181 Y96.461 E.02823
G1 X127.941 Y96.693 E.02492
G1 X128.817 Y97.055 E.02974
G1 X129.447 Y97.392 E.02239
G1 X130.255 Y97.924 E.03032
G1 X130.805 Y98.371 E.02224
G1 X131.552 Y99.105 E.03283
G1 X132.122 Y99.809 E.02842
G1 X132.615 Y100.565 E.02829
G1 X132.998 Y101.299 E.02594
G1 X133.318 Y102.09 E.02677
G1 X133.568 Y102.94 E.02778
G1 X133.737 Y103.845 E.02886
G1 X133.806 Y104.67 E.02596
G1 X133.799 Y105.504 E.02616
G1 X133.711 Y106.332 E.0261
G1 X133.514 Y107.279 E.03033
G1 X133.306 Y107.942 E.0218
G1 X132.937 Y108.834 E.03026
G1 X132.608 Y109.447 E.02181
G1 X132.076 Y110.255 E.03032
G1 X131.63 Y110.804 E.02218
G1 X130.909 Y111.54 E.03231
G1 X130.283 Y112.053 E.02538
G1 X129.62 Y112.505 E.02517
G1 X128.851 Y112.927 E.0275
G1 X128.06 Y113.265 E.02697
G1 X127.245 Y113.522 E.0268
G1 X126.424 Y113.696 E.0263
G1 X125.464 Y113.801 E.03028
G1 X124.503 Y113.799 E.03012
G1 X123.668 Y113.711 E.02633
G1 X122.739 Y113.519 E.02975
G1 X122.058 Y113.306 E.02239
G1 X121.166 Y112.937 E.03026
G1 X120.553 Y112.608 E.0218
G1 X119.745 Y112.076 E.03032
G1 X119.196 Y111.63 E.02219
G1 X118.46 Y110.909 E.03231
G1 X117.947 Y110.283 E.02538
G1 X117.495 Y109.62 E.02517
G1 X117.072 Y108.849 E.02755
G1 X116.73 Y108.043 E.02747
G1 X116.461 Y107.181 E.02831
G1 X116.283 Y106.295 E.02832
G1 X116.197 Y105.4 E.02819
G1 X116.201 Y104.498 E.0283
G1 X116.289 Y103.668 E.02615
G1 X116.481 Y102.739 E.02975
G1 X116.694 Y102.058 E.02239
G1 X117.063 Y101.166 E.03026
G1 X117.392 Y100.553 E.02181
G1 X117.924 Y99.745 E.03032
G1 X118.079 Y99.553 E.00774
M204 S1000
G1 X118.372 Y99.791 F10800
M204 S800
G1 F1200
G1 X118.647 Y99.452 E.01367
G1 X119.351 Y98.734 E.03155
G1 X120.024 Y98.188 E.02716
G1 X120.763 Y97.706 E.02769
G1 X121.465 Y97.341 E.02478
G1 X122.222 Y97.035 E.02562
G1 X123.012 Y96.802 E.02582
G1 X123.837 Y96.645 E.02634
G1 X124.617 Y96.573 E.02457
G1 X125.39 Y96.573 E.02422
G1 X126.233 Y96.655 E.02656
G1 X127.097 Y96.828 E.02763
G1 X127.805 Y97.045 E.0232
G1 X128.664 Y97.4 E.02916
G1 X129.247 Y97.712 E.02072
G1 X130.025 Y98.223 E.02917
G1 X130.548 Y98.647 E.02111
G1 X131.266 Y99.351 E.03155
G1 X131.812 Y100.024 E.02715
G1 X132.294 Y100.763 E.02769
G1 X132.659 Y101.465 E.02478
G1 X132.965 Y102.222 E.02563
G1 X133.204 Y103.036 E.0266
G1 X133.365 Y103.904 E.02767
G1 X133.429 Y104.675 E.02426
G1 X133.422 Y105.492 E.0256
G1 X133.34 Y106.264 E.02437
G1 X133.152 Y107.175 E.02916
G1 X132.954 Y107.806 E.02072
G1 X132.6 Y108.664 E.02912
G1 X132.288 Y109.247 E.02072
M73 Q4 S7
G1 X131.777 Y110.025 E.02916
G1 X131.354 Y110.547 E.02106
G1 X130.661 Y111.255 E.03108
G1 X130.064 Y111.747 E.02427
G1 X129.43 Y112.179 E.02405
G1 X128.694 Y112.584 E.02634
G1 X127.937 Y112.908 E.02582
M73 P4 R7
G1 X127.157 Y113.155 E.02565
G1 X126.373 Y113.323 E.02513
G1 X125.454 Y113.424 E.02899
G1 X124.514 Y113.422 E.02948
G1 X123.736 Y113.34 E.02454
G1 X122.825 Y113.152 E.02916
G1 X122.194 Y112.954 E.02072
G1 X121.336 Y112.6 E.02912
G1 X120.753 Y112.288 E.02072
G1 X119.975 Y111.778 E.02916
G1 X119.453 Y111.354 E.02106
G1 X118.745 Y110.661 E.03108
G1 X118.253 Y110.064 E.02427
G1 X117.821 Y109.43 E.02405
G1 X117.416 Y108.692 E.02639
G1 X117.087 Y107.921 E.02629
G1 X116.829 Y107.097 E.02709
G1 X116.657 Y106.249 E.02711
G1 X116.574 Y105.392 E.02698
G1 X116.578 Y104.509 E.0277
G1 X116.66 Y103.736 E.02439
G1 X116.848 Y102.825 E.02916
G1 X117.046 Y102.194 E.02072
G1 X117.4 Y101.336 E.02912
G1 X117.712 Y100.753 E.02073
G1 X118.223 Y99.975 E.02917
G1 X118.334 Y99.837 E.00556
M204 S1000
G1 X118.627 Y100.075 F10800
M204 S800
G1 F1200
G1 X118.923 Y99.71 E.01472
G1 X119.597 Y99.02 E.03025
G1 X120.253 Y98.487 E.0265
G1 X120.961 Y98.027 E.02646
G1 X121.63 Y97.68 E.02364
G1 X122.354 Y97.388 E.02448
G1 X123.109 Y97.167 E.02467
G1 X123.898 Y97.017 E.02519
G1 X124.626 Y96.95 E.02292
G1 X125.363 Y96.95 E.02311
G1 X126.169 Y97.027 E.02538
G1 X126.996 Y97.192 E.02645
G1 X127.67 Y97.397 E.02207
G1 X128.495 Y97.737 E.028
G1 X129.048 Y98.033 E.01964
G1 X129.795 Y98.522 E.02801
G1 X130.291 Y98.923 E.01998
G1 X130.98 Y99.597 E.03025
G1 X131.513 Y100.253 E.0265
G1 X131.973 Y100.961 E.02646
G1 X132.32 Y101.63 E.02363
G1 X132.612 Y102.354 E.02448
G1 X132.839 Y103.133 E.02542
G1 X132.992 Y103.963 E.02648
G1 X133.052 Y104.681 E.02257
G1 X133.045 Y105.479 E.02504
G1 X132.968 Y106.198 E.02265
G1 X132.789 Y107.072 E.028
G1 X132.603 Y107.67 E.01964
G1 X132.263 Y108.495 E.02797
G1 X131.967 Y109.048 E.01964
G1 X131.478 Y109.795 E.02801
G1 X131.078 Y110.29 E.01994
G1 X130.414 Y110.971 E.02984
G1 X129.844 Y111.44 E.02316
G1 X129.24 Y111.853 E.02293
G1 X128.536 Y112.241 E.02519
G1 X127.813 Y112.552 E.02467
G1 X127.069 Y112.789 E.02451
G1 X126.322 Y112.949 E.02394
G1 X125.423 Y113.048 E.02835
G1 X124.525 Y113.045 E.02817
G1 X123.802 Y112.968 E.02278
G1 X122.928 Y112.789 E.028
G1 X122.33 Y112.602 E.01964
G1 X121.505 Y112.263 E.02797
G1 X120.952 Y111.967 E.01964
G1 X120.205 Y111.478 E.02801
G1 X119.71 Y111.078 E.01994
G1 X119.029 Y110.413 E.02984
G1 X118.56 Y109.844 E.02316
G1 X118.147 Y109.24 E.02293
G1 X117.758 Y108.535 E.02522
G1 X117.444 Y107.799 E.0251
G1 X117.191 Y106.994 E.02648
G1 X117.029 Y106.184 E.02588
G1 X116.95 Y105.366 E.02578
G1 X116.955 Y104.521 E.0265
G1 X117.032 Y103.802 E.02266
G1 X117.211 Y102.928 E.028
G1 X117.397 Y102.33 E.01964
G1 X117.737 Y101.505 E.02797
G1 X118.033 Y100.952 E.01964
G1 X118.589 Y100.121 E.03137
M204 S1000
G1 X118.883 Y100.358 F10800
M204 S800
G1 F1200
G1 X119.199 Y99.966 E.01578
G1 X119.844 Y99.305 E.02896
G1 X120.467 Y98.798 E.02521
G1 X121.159 Y98.348 E.02585
G1 X121.795 Y98.019 E.02247
G1 X122.486 Y97.742 E.02334
G1 X123.206 Y97.531 E.02351
G1 X123.959 Y97.389 E.02403
G1 X124.652 Y97.327 E.0218
G1 X125.354 Y97.327 E.02202
G1 X126.123 Y97.401 E.02422
G1 X126.913 Y97.56 E.02527
G1 X127.535 Y97.749 E.02037
G1 X128.326 Y98.075 E.02684
G1 X128.849 Y98.353 E.01856
G1 X129.566 Y98.821 E.02686
G1 X130.034 Y99.199 E.01885
G1 X130.695 Y99.844 E.02896
G1 X131.202 Y100.467 E.02521
G1 X131.652 Y101.159 E.02585
G1 X131.981 Y101.795 E.02247
G1 X132.258 Y102.486 E.02334
G1 X132.474 Y103.229 E.02424
M73 Q5 S7
G1 X132.62 Y104.022 E.02529
G1 X132.674 Y104.686 E.02089
G1 X132.668 Y105.467 E.02448
G1 X132.597 Y106.131 E.02095
G1 X132.426 Y106.97 E.02684
G1 X132.25 Y107.535 E.01856
G1 X131.925 Y108.326 E.02683
M73 P5 R7
G1 X131.647 Y108.849 E.01856
G1 X131.179 Y109.566 E.02686
G1 X130.802 Y110.033 E.01882
G1 X130.165 Y110.687 E.0286
G1 X129.623 Y111.134 E.02205
G1 X129.049 Y111.528 E.02181
G1 X128.378 Y111.899 E.02404
G1 X127.69 Y112.195 E.02351
G1 X126.98 Y112.422 E.02336
G1 X126.271 Y112.575 E.02275
G1 X125.414 Y112.671 E.02703
G1 X124.536 Y112.668 E.02753
G1 X123.869 Y112.597 E.02103
G1 X123.03 Y112.426 E.02684
G1 X122.465 Y112.25 E.01856
G1 X121.674 Y111.925 E.02683
G1 X121.151 Y111.647 E.01856
G1 X120.434 Y111.179 E.02686
G1 X119.967 Y110.802 E.01882
G1 X119.313 Y110.165 E.0286
G1 X118.866 Y109.623 E.02205
G1 X118.472 Y109.049 E.02181
G1 X118.101 Y108.378 E.02406
G1 X117.8 Y107.677 E.02391
G1 X117.559 Y106.909 E.02523
G1 X117.401 Y106.12 E.02525
G1 X117.326 Y105.34 E.02456
G1 X117.332 Y104.533 E.0253
G1 X117.403 Y103.869 E.02094
G1 X117.574 Y103.03 E.02684
G1 X117.75 Y102.465 E.01856
G1 X118.075 Y101.674 E.02682
G1 X118.353 Y101.151 E.01856
G1 X118.845 Y100.405 E.02804
M204 S1000
G1 X119.139 Y100.641 F10800
M204 S800
G1 F1200
G1 X119.475 Y100.223 E.01683
G1 X120.09 Y99.591 E.02765
G1 X120.698 Y99.097 E.02454
G1 X121.356 Y98.67 E.02459
G1 X121.96 Y98.358 E.02131
G1 X122.617 Y98.095 E.02221
G1 X123.302 Y97.896 E.02236
G1 X124.02 Y97.761 E.02289
G1 X124.66 Y97.704 E.02018
G1 X125.327 Y97.703 E.02091
G1 X126.059 Y97.773 E.02304
G1 X126.813 Y97.923 E.0241
G1 X127.4 Y98.102 E.01925
G1 X128.158 Y98.412 E.02568
G1 X128.65 Y98.674 E.01747
G1 X129.337 Y99.121 E.02571
G1 X129.777 Y99.475 E.01772
G1 X130.409 Y100.09 E.02765
G1 X130.903 Y100.698 E.02454
G1 X131.33 Y101.356 E.0246
G1 X131.642 Y101.96 E.02131
G1 X131.905 Y102.617 E.02221
G1 X132.109 Y103.324 E.02306
G1 X132.247 Y104.08 E.0241
G1 X132.297 Y104.691 E.01923
G1 X132.291 Y105.454 E.02393
G1 X132.226 Y106.065 E.01925
G1 X132.063 Y106.868 E.02568
G1 X131.898 Y107.4 E.01747
G1 X131.588 Y108.158 E.02568
G1 X131.326 Y108.65 E.01747
G1 X130.879 Y109.337 E.0257
G1 X130.525 Y109.777 E.0177
G1 X129.917 Y110.403 E.02736
G1 X129.402 Y110.828 E.02094
G1 X128.859 Y111.202 E.0207
G1 X128.22 Y111.556 E.02288
G1 X127.565 Y111.839 E.02236
G1 X126.891 Y112.056 E.02222
G1 X126.219 Y112.202 E.02155
G1 X125.383 Y112.295 E.02638
G1 X124.547 Y112.291 E.0262
G1 X123.935 Y112.226 E.0193
G1 X123.132 Y112.063 E.02568
G1 X122.6 Y111.898 E.01747
G1 X121.842 Y111.588 E.02568
G1 X121.35 Y111.326 E.01747
G1 X120.663 Y110.879 E.0257
G1 X120.223 Y110.525 E.0177
G1 X119.597 Y109.917 E.02736
G1 X119.172 Y109.402 E.02094
G1 X118.798 Y108.859 E.0207
G1 X118.444 Y108.22 E.0229
G1 X118.157 Y107.555 E.0227
G1 X117.922 Y106.806 E.0246
G1 X117.772 Y106.056 E.02399
G1 X117.703 Y105.314 E.02335
G1 X117.709 Y104.546 E.02411
G1 X117.774 Y103.935 E.01925
G1 X117.937 Y103.132 E.02568
G1 X118.102 Y102.6 E.01747
G1 X118.412 Y101.842 E.02568
G1 X118.674 Y101.35 E.01748
G1 X119.104 Y100.69 E.02471
M204 S1000
G1 X119.419 Y100.895 F10800
M204 S800
G1 F1200
G1 X119.752 Y100.479 E.01671
G1 X120.337 Y99.876 E.02633
G1 X120.927 Y99.396 E.02386
G1 X121.552 Y98.992 E.02333
G1 X122.124 Y98.698 E.02015
G1 X122.748 Y98.449 E.02108
G1 X123.398 Y98.261 E.02121
G1 X124.08 Y98.134 E.02174
G1 X124.685 Y98.08 E.01907
G1 X125.318 Y98.08 E.01985
G1 X125.994 Y98.145 E.0213
G1 X126.73 Y98.291 E.02351
G1 X127.266 Y98.454 E.01756
G1 X127.99 Y98.75 E.02453
G1 X128.452 Y98.995 E.01639
G1 X129.109 Y99.421 E.02456
G1 X129.521 Y99.752 E.01659
G1 X130.124 Y100.337 E.02633
G1 X130.604 Y100.927 E.02386
G1 X131.008 Y101.552 E.02333
G1 X131.302 Y102.124 E.02015
G1 X131.551 Y102.748 E.02108
G1 X131.74 Y103.401 E.0213
G1 X131.874 Y104.139 E.02351
G1 X131.92 Y104.697 E.01756
G1 X131.914 Y105.442 E.02337
G1 X131.854 Y105.999 E.01756
M73 Q6 S7
G1 X131.7 Y106.766 E.02453
G1 X131.546 Y107.265 E.01639
G1 X131.25 Y107.99 E.02454
G1 X131.005 Y108.452 E.01639
G1 X130.579 Y109.109 E.02455
G1 X130.248 Y109.521 E.01657
G1 X129.669 Y110.119 E.02611
M73 P6 R7
G1 X129.168 Y110.533 E.02035
G1 X128.667 Y110.877 E.01907
G1 X128.061 Y111.214 E.02174
G1 X127.441 Y111.483 E.02121
G1 X126.801 Y111.689 E.02108
G1 X126.167 Y111.828 E.02036
G1 X125.373 Y111.918 E.02503
