; generated by PrusaSlicer 2.5.0+MacOS-arm64 on 2023-01-18 at 00:27:09 UTC


;
;
; 

; external perimeters extrusion width = 0.45mm
; perimeters extrusion width = 0.45mm
; infill extrusion width = 0.45mm
; solid infill extrusion width = 0.45mm
; top infill extrusion width = 0.40mm
; first layer extrusion width = 0.42mm

M73 P0 R3
M73 Q0 S3
M201 X1000 Y1000 Z200 E5000 ; sets maximum accelerations, mm/sec^2
M203 X200 Y200 Z12 E120 ; sets maximum feedrates, mm / sec
M204 P1250 R1250 T1250 ; sets acceleration (P, T) and retract acceleration (R), mm/sec^2
M205 X8.00 Y8.00 Z0.40 E4.50 ; sets the jerk limits, mm/sec
M205 S0 T0 ; sets the minimum extruding and travel feed rate, mm/sec
M107
;TYPE:Custom
M862.3 P "MK3S" ; printer model check
M862.1 P0.4 ; nozzle diameter check
M115 U3.11.0 ; tell printer latest fw version
G90 ; use absolute coordinates
M83 ; extruder relative mode
M104 S215 ; set extruder temp
M140 S60 ; set bed temp
M190 S60 ; wait for bed temp
M109 S215 ; wait for extruder temp
G28 W ; home all without mesh bed level
G80 ; mesh bed leveling

G1 Z0.2 F720
G1 Y-3 F1000 ; go outside print area
G92 E0
G1 X60 E9 F1000 ; intro line
G1 X100 E12.5 F1000 ; intro line

G92 E0
M221 S95

; Don't change E values below. Excessive value can damage the printer.
M907 E430 ; set extruder motor current
G21 ; set units to millimeters
G90 ; use absolute coordinates
M83 ; use relative distances for extrusion
M900 K0.05 ; Filament gcode LA 1.5
M900 K30 ; Filament gcode LA 1.0
M107
;LAYER_CHANGE
;Z:0.2
;HEIGHT:0.2
;BEFORE_LAYER_CHANGE
G92 E0.0
;0.2


M73 P1 R3
M73 Q1 S3
G1 E-.8 F2100
M73 P2 R3
M73 Q2 S3
G1 Z.4 F720
;AFTER_LAYER_CHANGE
;0.2
G1 X119.599 Y100.939 F10800
G1 Z.2 F720
M73 P3 R3
M73 Q3 S3
G1 E.8 F2100
M204 S800
;TYPE:Skirt/Brim
;WIDTH:0.42
G1 F1027
G1 X120.455 Y99.999 E.03988
G1 X121.473 Y99.236 E.03988
G1 X122.807 Y98.608 E.04625
G1 X124.044 Y98.31 E.03988
G1 X125.314 Y98.25 E.03988
G1 X126.574 Y98.428 E.03988
G1 X127.777 Y98.84 E.03988
G1 X129.061 Y99.599 E.04675
G1 X130.001 Y100.455 E.03988
G1 X130.764 Y101.473 E.03988
G1 X131.346 Y102.679 E.042
G1 X131.689 Y104.044 E.04412
G1 X131.75 Y105.314 E.03988
G1 X131.572 Y106.574 E.03988
G1 X131.16 Y107.777 E.03988
G1 X130.531 Y108.882 E.03988
G1 X129.545 Y110.001 E.04675
G1 X128.527 Y110.764 E.03988
G1 X127.193 Y111.392 E.04625
G1 X125.956 Y111.69 E.03988
G1 X124.686 Y111.75 E.03988
G1 X123.426 Y111.572 E.03988
G1 X122.223 Y111.16 E.03988
G1 X120.939 Y110.401 E.04675
M73 Q4 S3
G1 X119.999 Y109.545 E.03988
G1 X119.236 Y108.527 E.03988
G1 X118.677 Y107.385 E.03988
G1 X118.342 Y106.158 E.03988
M73 P4 R3
G1 X118.25 Y104.686 E.04625
G1 X118.483 Y103.213 E.04675
G1 X118.933 Y102.023 E.03988
G1 X119.567 Y100.991 E.038
M204 S1000
G1 X119.887 Y101.186 F10800
M204 S800
G1 F1027
G1 X120.704 Y100.282 E.03822
G1 X121.665 Y99.561 E.03765
G1 X122.935 Y98.963 E.04402
G1 X124.103 Y98.683 E.03766
G1 X125.302 Y98.627 E.03765
G1 X126.491 Y98.796 E.03765
G1 X127.627 Y99.186 E.03765
G1 X128.829 Y99.897 E.04379
G1 X129.718 Y100.704 E.03765
G1 X130.439 Y101.665 E.03765
G1 X130.991 Y102.807 E.03978
G1 X131.317 Y104.103 E.0419
G1 X131.373 Y105.302 E.03765
G1 X131.204 Y106.491 E.03765
G1 X130.814 Y107.627 E.03765
G1 X130.219 Y108.67 E.03765
G1 X129.296 Y109.718 E.04379
G1 X128.335 Y110.439 E.03765
G1 X127.065 Y111.037 E.04402
G1 X125.897 Y111.317 E.03766
G1 X124.698 Y111.373 E.03765
G1 X123.509 Y111.204 E.03765
M73 Q5 S3
G1 X122.373 Y110.814 E.03765
G1 X121.171 Y110.103 E.04379
G1 X120.282 Y109.296 E.03765
G1 X119.561 Y108.335 E.03765
M73 P5 R3
G1 X119.032 Y107.257 E.03765
G1 X118.715 Y106.099 E.03765
G1 X118.627 Y104.698 E.04402
G1 X118.845 Y103.318 E.04379
G1 X119.269 Y102.195 E.03765
G1 X119.856 Y101.238 E.03519
M204 S1000
G1 X120.179 Y101.429 F10800
M204 S800
G1 F1027
G1 X120.954 Y100.565 E.03639
G1 X121.857 Y99.885 E.03543
G1 X123.063 Y99.318 E.0418
G1 X124.162 Y99.055 E.03543
G1 X125.291 Y99.004 E.03543
G1 X126.409 Y99.164 E.03543
G1 X127.478 Y99.532 E.03543
G1 X128.458 Y100.093 E.03543
G1 X129.435 Y100.954 E.04082
G1 X130.115 Y101.857 E.03543
G1 X130.636 Y102.935 E.03755
G1 X130.945 Y104.162 E.03967
G1 X130.996 Y105.291 E.03543
G1 X130.836 Y106.409 E.03543
G1 X130.468 Y107.478 E.03543
G1 X129.806 Y108.598 E.04082
G1 X129.046 Y109.435 E.03543
G1 X128.143 Y110.115 E.03543
G1 X126.937 Y110.682 E.0418
G1 X125.838 Y110.945 E.03543
G1 X124.709 Y110.996 E.03543
G1 X123.591 Y110.836 E.03543
G1 X122.522 Y110.468 E.03543
M73 Q6 S3
G1 X121.402 Y109.806 E.04082
G1 X120.565 Y109.046 E.03543
G1 X119.885 Y108.143 E.03543
G1 X119.387 Y107.129 E.03543
M73 P6 R3
G1 X119.087 Y106.04 E.03543
G1 X119.004 Y104.709 E.0418
G1 X119.164 Y103.591 E.03543
G1 X119.532 Y102.522 E.03543
G1 X120.148 Y101.48 E.03796
M204 S1000
G1 X120.467 Y101.675 F10800
M204 S800
G1 F1027
G1 X121.203 Y100.848 E.03471
G1 X122.049 Y100.21 E.0332
G1 X123.126 Y99.696 E.03745
G1 X124.221 Y99.428 E.03533
G1 X125.279 Y99.381 E.0332
G1 X126.327 Y99.532 E.0332
G1 X127.328 Y99.878 E.0332
G1 X128.367 Y100.492 E.03786
G1 X129.152 Y101.203 E.0332
G1 X129.79 Y102.049 E.0332
G1 X130.281 Y103.062 E.03533
G1 X130.572 Y104.221 E.03745
G1 X130.619 Y105.279 E.0332
G1 X130.468 Y106.327 E.0332
G1 X130.122 Y107.328 E.0332
G1 X129.595 Y108.246 E.0332
G1 X128.797 Y109.152 E.03786
G1 X127.951 Y109.79 E.0332
G1 X126.874 Y110.304 E.03745
G1 X125.779 Y110.572 E.03533
G1 X124.721 Y110.619 E.0332
G1 X123.673 Y110.468 E.0332
G1 X122.672 Y110.122 E.0332
G1 X121.633 Y109.508 E.03786
G1 X120.848 Y108.797 E.0332
G1 X120.21 Y107.951 E.0332
M73 Q7 S3
G1 X119.742 Y107.002 E.0332
G1 X119.46 Y105.981 E.0332
G1 X119.381 Y104.721 E.03957
G1 X119.569 Y103.529 E.03786
M73 P7 R3
G1 X119.941 Y102.537 E.0332
G1 X120.436 Y101.726 E.02979
M204 S1000
; printing object LEDLightTube.stl id:0 copy 0
;WIPE_START
G1 F8640
G1 X121.203 Y100.848 E-.26927
G1 X122.049 Y100.21 E-.24453
G1 X123.011 Y99.751 E-.2462
;WIPE_END
G1 E-.04 F2100
G1 Z.6 F720
G1 X125.888 Y102.715 F10800
G1 Z.2 F720
G1 E.8 F2100
M204 S800
;TYPE:Perimeter
;WIDTH:0.419999
G1 F1027
G1 X126.185 Y102.844 E.01017
G1 X126.568 Y103.104 E.01452
G1 X126.896 Y103.432 E.01452
G1 X127.156 Y103.815 E.01452
G1 X127.34 Y104.24 E.01452
G1 X127.441 Y104.692 E.01452
G1 X127.455 Y105.154 E.01452
G1 X127.384 Y105.603 E.01425
G1 X127.151 Y106.192 E.01986
G1 X126.896 Y106.568 E.01425
G1 X126.568 Y106.896 E.01452
G1 X126.185 Y107.156 E.01452
G1 X125.76 Y107.34 E.01452
G1 X125.308 Y107.441 E.01452
G1 X124.846 Y107.455 E.01452
G1 X124.397 Y107.384 E.01425
G1 X123.808 Y107.151 E.01986
G1 X123.432 Y106.896 E.01425
G1 X123.104 Y106.568 E.01452
G1 X122.844 Y106.185 E.01452
G1 X122.66 Y105.76 E.01452
G1 X122.559 Y105.308 E.01452
G1 X122.545 Y104.846 E.01452
G1 X122.616 Y104.397 E.01425
G1 X122.849 Y103.808 E.01986
G1 X123.104 Y103.432 E.01425
G1 X123.432 Y103.104 E.01452
G1 X123.815 Y102.844 E.01452
G1 X124.24 Y102.66 E.01452
G1 X124.692 Y102.559 E.01452
G1 X125.146 Y102.545 E.01425
G1 X125.768 Y102.664 E.01986
G1 X125.833 Y102.691 E.0022
M204 S1000
G1 X126.037 Y102.369 F10800
M204 S800
;TYPE:External perimeter
G1 F1027
G1 X126.368 Y102.512 E.01129
G1 X126.81 Y102.813 E.01675
G1 X127.187 Y103.19 E.01675
G1 X127.488 Y103.632 E.01675
G1 X127.7 Y104.123 E.01675
G1 X127.817 Y104.644 E.01675
G1 X127.833 Y105.178 E.01675
G1 X127.75 Y105.703 E.01667
G1 X127.486 Y106.37 E.02248
G1 X127.187 Y106.81 E.01667
G1 X126.81 Y107.187 E.01675
G1 X126.368 Y107.488 E.01675
G1 X125.877 Y107.7 E.01675
G1 X125.356 Y107.817 E.01675
G1 X124.822 Y107.833 E.01675
G1 X124.297 Y107.75 E.01667
G1 X123.63 Y107.486 E.02248
M73 Q8 S3
G1 X123.19 Y107.187 E.01667
G1 X122.813 Y106.81 E.01675
G1 X122.512 Y106.368 E.01675
G1 X122.3 Y105.877 E.01675
G1 X122.183 Y105.356 E.01675
G1 X122.167 Y104.822 E.01675
M73 P8 R3
G1 X122.25 Y104.297 E.01667
G1 X122.514 Y103.63 E.02247
G1 X122.813 Y103.19 E.01667
G1 X123.19 Y102.813 E.01675
G1 X123.632 Y102.512 E.01675
G1 X124.123 Y102.3 E.01675
G1 X124.644 Y102.183 E.01675
G1 X125.176 Y102.167 E.01667
G1 X125.88 Y102.301 E.02247
G1 X125.982 Y102.345 E.0035
M204 S1000
G1 X126.1 Y102.724 F10800
;WIPE_START
G1 F8640
G1 X126.368 Y102.512 E-.09697
G1 X126.81 Y102.813 E-.12338
G1 X127.187 Y103.19 E-.12338
G1 X127.488 Y103.632 E-.12338
G1 X127.7 Y104.123 E-.12338
G1 X127.817 Y104.644 E-.12338
G1 X127.823 Y104.844 E-.04613
;WIPE_END
G1 E-.04 F2100
G1 Z.6 F720
G1 X127.158 Y104.106 F10800
G1 Z.2 F720
G1 E.8 F2100
M204 S800
;TYPE:Solid infill
;WIDTH:0.435424
G1 F1027
G1 X126.353 Y103.3 E.03718
G1 X126.048 Y103.093 E.01202
G1 X125.685 Y102.936 E.01294
G1 X125.374 Y102.876 E.01031
G1 X127.14 Y104.642 E.0815
G1 X127.159 Y104.727 E.00285
G1 X127.172 Y105.137 E.01337
G1 X127.159 Y105.216 E.00264
G1 X124.782 Y102.839 E.10972
G1 X124.321 Y102.933 E.01536
G1 X127.055 Y105.667 E.12619
G1 X126.896 Y106.064 E.01394
G1 X123.936 Y103.104 E.13663
G1 X123.613 Y103.323 E.01276
G1 X126.671 Y106.393 E.14141
G1 X126.393 Y106.671 E.01281
G1 X123.329 Y103.607 E.14141
G1 X123.104 Y103.936 E.01303
M73 P9 R3
M73 Q9 S3
G1 X126.064 Y106.896 E.13663
G1 X125.679 Y107.067 E.01373
G1 X122.945 Y104.333 E.12618
G1 X122.89 Y104.472 E.00487
G1 X122.841 Y104.784 E.01031
G1 X125.218 Y107.161 E.10971
G1 X124.863 Y107.172 E.01158
G1 X124.638 Y107.136 E.00744
G1 X122.86 Y105.358 E.08207
G1 X122.93 Y105.672 E.01052
G1 X123.093 Y106.048 E.01337
G1 X123.3 Y106.353 E.01203
G1 X124.087 Y107.14 E.03631
M204 S1000
; stop printing object LEDLightTube.stl id:0 copy 0
M106 S84.15
;LAYER_CHANGE
;Z:0.35
;HEIGHT:0.15
;BEFORE_LAYER_CHANGE
G92 E0.0
;0.35


;WIPE_START
G1 F8640
G1 X123.3 Y106.353 E-.25689
G1 X123.093 Y106.048 E-.08513
G1 X122.93 Y105.672 E-.09457
G1 X122.86 Y105.358 E-.0744
G1 X123.623 Y106.121 E-.24902
;WIPE_END
G1 E-.04 F2100
G1 Z.6 F720
;AFTER_LAYER_CHANGE
;0.35
G1 X119.66 Y109.092 F10800
G1 Z.35 F720
G1 E.8 F2100
;TYPE:Skirt/Brim
;WIDTH:0.42
G1 F900
G1 X119.236 Y108.527 E.01708
G1 X118.677 Y107.385 E.03076
G1 X118.342 Y106.158 E.03076
G1 X118.25 Y104.686 E.03567
G1 X118.483 Y103.213 E.03606
G1 X118.933 Y102.023 E.03076
G1 X119.599 Y100.939 E.03076
G1 X120.455 Y99.999 E.03076
M73 Q10 S3
G1 X121.473 Y99.236 E.03076
G1 X122.807 Y98.608 E.03567
M73 P10 R3
G1 X124.044 Y98.31 E.03076
G1 X125.314 Y98.25 E.03076
G1 X126.574 Y98.428 E.03076
G1 X127.777 Y98.84 E.03076
G1 X129.061 Y99.599 E.03606
G1 X130.001 Y100.455 E.03076
G1 X130.764 Y101.473 E.03076
G1 X131.346 Y102.679 E.0324
G1 X131.689 Y104.044 E.03403
G1 X131.75 Y105.314 E.03076
G1 X131.572 Y106.574 E.03076
G1 X131.16 Y107.777 E.03076
G1 X130.531 Y108.882 E.03076
G1 X129.545 Y110.001 E.03606
G1 X128.527 Y110.764 E.03076
G1 X127.193 Y111.392 E.03567
G1 X125.956 Y111.69 E.03076
G1 X124.686 Y111.75 E.03076
G1 X123.426 Y111.572 E.03076
G1 X122.223 Y111.16 E.03076
G1 X120.939 Y110.401 E.03606
G1 X119.999 Y109.545 E.03076
G1 X119.696 Y109.14 E.01223
G1 X119.996 Y108.915 F10800
G1 F900
G1 X119.561 Y108.335 E.01753
G1 X119.032 Y107.257 E.02904
M73 Q11 S3
G1 X118.715 Y106.099 E.02904
G1 X118.627 Y104.698 E.03396
M73 P11 R3
G1 X118.845 Y103.318 E.03378
G1 X119.269 Y102.195 E.02904
G1 X119.897 Y101.171 E.02904
G1 X120.704 Y100.282 E.02904
G1 X121.665 Y99.561 E.02904
G1 X122.935 Y98.963 E.03396
G1 X124.103 Y98.683 E.02904
G1 X125.302 Y98.627 E.02904
G1 X126.491 Y98.796 E.02904
G1 X127.627 Y99.186 E.02904
G1 X128.829 Y99.897 E.03378
G1 X129.718 Y100.704 E.02904
G1 X130.439 Y101.665 E.02904
G1 X130.991 Y102.807 E.03068
G1 X131.317 Y104.103 E.03232
G1 X131.373 Y105.302 E.02904
G1 X131.204 Y106.491 E.02904
G1 X130.814 Y107.627 E.02904
G1 X130.219 Y108.67 E.02904
G1 X129.296 Y109.718 E.03378
G1 X128.335 Y110.439 E.02904
G1 X127.065 Y111.037 E.03396
G1 X125.897 Y111.317 E.02904
G1 X124.698 Y111.373 E.02904
G1 X123.509 Y111.204 E.02904
G1 X122.373 Y110.814 E.02904
M73 Q12 S3
G1 X121.171 Y110.103 E.03378
M73 P12 R3
G1 X120.282 Y109.296 E.02904
G1 X120.032 Y108.963 E.01007
G1 X120.332 Y108.737 F10800
G1 F900
G1 X119.885 Y108.143 E.01796
G1 X119.387 Y107.129 E.02733
G1 X119.087 Y106.04 E.02733
G1 X119.004 Y104.709 E.03224
G1 X119.164 Y103.591 E.02733
G1 X119.532 Y102.522 E.02733
G1 X120.194 Y101.402 E.03149
G1 X120.954 Y100.565 E.02733
G1 X121.857 Y99.885 E.02733
G1 X123.063 Y99.318 E.03224
G1 X124.162 Y99.055 E.02733
G1 X125.291 Y99.004 E.02733
G1 X126.409 Y99.164 E.02733
G1 X127.478 Y99.532 E.02733
G1 X128.458 Y100.093 E.02733
G1 X129.435 Y100.954 E.03149
G1 X130.115 Y101.857 E.02733
G1 X130.636 Y102.935 E.02896
G1 X130.945 Y104.162 E.0306
G1 X130.996 Y105.291 E.02733
G1 X130.836 Y106.409 E.02733
G1 X130.468 Y107.478 E.02733
G1 X129.806 Y108.598 E.03149
G1 X129.046 Y109.435 E.02733
G1 X128.143 Y110.115 E.02733
G1 X126.937 Y110.682 E.03224
G1 X125.838 Y110.945 E.02733
M73 Q13 S3
G1 X124.709 Y110.996 E.02733
M73 P13 R3
G1 X123.591 Y110.836 E.02733
G1 X122.522 Y110.468 E.02733
G1 X121.402 Y109.806 E.03149
G1 X120.565 Y109.046 E.02733
G1 X120.368 Y108.785 E.00791
G1 X120.668 Y108.559 F10800
G1 F900
G1 X120.21 Y107.951 E.01839
G1 X119.742 Y107.002 E.02561
G1 X119.46 Y105.981 E.02561
G1 X119.381 Y104.721 E.03052
G1 X119.569 Y103.529 E.0292
G1 X119.941 Y102.537 E.02561
G1 X120.492 Y101.633 E.02561
G1 X121.203 Y100.848 E.02561
G1 X122.049 Y100.21 E.02561
G1 X123.126 Y99.696 E.02888
G1 X124.221 Y99.428 E.02725
G1 X125.279 Y99.381 E.02561
G1 X126.327 Y99.532 E.02561
G1 X127.328 Y99.878 E.02561
G1 X128.367 Y100.492 E.0292
G1 X129.152 Y101.203 E.02561
G1 X129.79 Y102.049 E.02561
G1 X130.281 Y103.062 E.02725
G1 X130.572 Y104.221 E.02889
G1 X130.619 Y105.279 E.02561
G1 X130.468 Y106.327 E.02561
G1 X130.122 Y107.328 E.02561
G1 X129.595 Y108.246 E.02561
G1 X128.797 Y109.152 E.0292
G1 X127.951 Y109.79 E.02561
M73 Q14 S3
G1 X126.874 Y110.304 E.02888
G1 X125.779 Y110.572 E.02725
M73 P14 R3
G1 X124.721 Y110.619 E.02561
G1 X123.673 Y110.468 E.02561
G1 X122.672 Y110.122 E.02561
G1 X121.633 Y109.508 E.0292
G1 X120.848 Y108.797 E.02561
G1 X120.704 Y108.606 E.00577
; printing object LEDLightTube.stl id:0 copy 0
;WIPE_START
G1 F8640
G1 X120.21 Y107.951 E-.18945
G1 X119.742 Y107.002 E-.24453
G1 X119.46 Y105.981 E-.24452
G1 X119.438 Y105.629 E-.0815
;WIPE_END
G1 E-.04 F2100
G1 Z.75 F720
G1 X125.698 Y103.031 F10800
G1 Z.35 F720
G1 E.8 F2100
M204 S800
;TYPE:External perimeter
;WIDTH:0.37219
G1 F900
G1 X126.25 Y103.315 E.01316
G1 X126.682 Y103.752 E.01304
G1 X126.89 Y104.097 E.00853
G1 X127.033 Y104.491 E.00888
G1 X127.092 Y105 E.01087
G1 X127.021 Y105.54 E.01154
G1 X126.779 Y106.105 E.01304
G1 X126.536 Y106.425 E.00853
G1 X126.241 Y106.688 E.00836
G1 X125.903 Y106.891 E.00836
G1 X125.533 Y107.026 E.00836
G1 X125.144 Y107.09 E.00836
G1 X124.75 Y107.076 E.00836
G1 X124.333 Y106.986 E.00903
G1 X123.75 Y106.685 E.01392
G1 X123.318 Y106.248 E.01304
G1 X123.11 Y105.903 E.00853
G1 X122.967 Y105.509 E.00888
G1 X122.908 Y105 E.01087
G1 X122.979 Y104.46 E.01154
G1 X123.221 Y103.895 E.01304
G1 X123.464 Y103.575 E.00853
G1 X123.759 Y103.312 E.00836
G1 X124.097 Y103.109 E.00836
G1 X124.467 Y102.974 E.00836
G1 X124.856 Y102.91 E.00836
G1 X125.25 Y102.924 E.00836
G1 X125.643 Y103.009 E.00851
M204 S1000
G1 X125.762 Y103.426 F10800
; stop printing object LEDLightTube.stl id:0 copy 0
M106 S170.85
;LAYER_CHANGE
;Z:0.5
;HEIGHT:0.15
;BEFORE_LAYER_CHANGE
G92 E0.0
;0.5


;WIPE_START
G1 F8640
G1 X126.25 Y103.315 E-.15699
G1 X126.682 Y103.752 E-.14204
G1 X126.89 Y104.097 E-.09291
G1 X127.033 Y104.491 E-.09667
G1 X127.092 Y105 E-.1184
G1 X127.021 Y105.54 E-.12565
G1 X126.975 Y105.648 E-.02734
;WIPE_END
G1 E-.04 F2100
G1 Z.75 F720
;AFTER_LAYER_CHANGE
;0.5
G1 X131.374 Y107.152 F10800
G1 Z.5 F720
G1 E.8 F2100
;TYPE:Skirt/Brim
;WIDTH:0.42
M73 Q15 S3
G1 F900
G1 X131.16 Y107.777 E.01598
G1 X130.531 Y108.882 E.03076
M73 P15 R3
G1 X129.545 Y110.001 E.03606
G1 X128.527 Y110.764 E.03076
G1 X127.193 Y111.392 E.03567
G1 X125.956 Y111.69 E.03076
G1 X124.686 Y111.75 E.03076
G1 X123.426 Y111.572 E.03076
G1 X122.223 Y111.16 E.03076
G1 X120.939 Y110.401 E.03606
G1 X119.999 Y109.545 E.03076
G1 X119.236 Y108.527 E.03076
G1 X118.677 Y107.385 E.03076
G1 X118.342 Y106.158 E.03076
G1 X118.25 Y104.686 E.03567
G1 X118.483 Y103.213 E.03606
G1 X118.933 Y102.023 E.03076
G1 X119.599 Y100.939 E.03076
G1 X120.455 Y99.999 E.03076
