; generated by PrusaSlicer 2.2.0+ on 2022-12-31 at 15:59:24 UTC

; 

; external perimeters extrusion width = 0.45mm
; perimeters extrusion width = 0.45mm
; infill extrusion width = 0.45mm
; solid infill extrusion width = 0.45mm
; top infill extrusion width = 0.40mm
; first layer extrusion width = 0.42mm

M73 P0 R362
M73 Q0 S364
M201 X1000 Y1000 Z200 E5000 ; sets maximum accelerations, mm/sec^2
M203 X200 Y200 Z12 E120 ; sets maximum feedrates, mm/sec
M204 P1250 R1250 T1250 ; sets acceleration (P, T) and retract acceleration (R), mm/sec^2
M205 X8.00 Y8.00 Z0.40 E4.50 ; sets the jerk limits, mm/sec
M205 S0 T0 ; sets the minimum extruding and travel feed rate, mm/sec
M107
M862.3 P "MK3S" ; printer model check
M862.1 P0.4 ; nozzle diameter check
M115 U3.11.0 ; tell printer latest fw version
G90 ; use absolute coordinates
M83 ; extruder relative mode
M104 S215 ; set extruder temp
M140 S60 ; set bed temp
M190 S60 ; wait for bed temp
M109 S215 ; wait for extruder temp
G28 W ; home all without mesh bed level
G80 ; mesh bed leveling
G1 Y-3.0 F1000.0 ; go outside print area
G92 E0.0
G1 X60.0 E9.0 F1000.0 ; intro line
M73 Q0 S364
M73 P0 R362
G1 X100.0 E12.5 F1000.0 ; intro line
G92 E0.0
M221 S95

; Don't change E values below. Excessive value can damage the printer.
M907 E430 ; set extruder motor current
G21 ; set units to millimeters
G90 ; use absolute coordinates
M83 ; use relative distances for extrusion
M900 K0.05 ; Filament gcode LA 1.5
M900 K30 ; Filament gcode LA 1.0
;BEFORE_LAYER_CHANGE
G92 E0.0
;0.2


G1 E-0.80000 F2100.00000
G1 Z0.400 F10800.000
;AFTER_LAYER_CHANGE
;0.2
G1 X73.749 Y41.237
G1 Z0.200
G1 E0.80000 F2100.00000
M204 S1000
G1 F1200.000
G1 X74.111 Y40.557 E0.02414
G1 X74.485 Y40.168 E0.01692
G1 X74.937 Y39.874 E0.01692
G1 X75.444 Y39.689 E0.01692
G1 X75.976 Y39.623 E0.01680
G1 X174.004 Y39.623 E3.07359
G1 X174.906 Y39.802 E0.02884
G1 X175.670 Y40.308 E0.02872
G1 X176.185 Y41.065 E0.02872
G1 X176.377 Y41.965 E0.02884
G1 X176.377 Y168.008 E3.95199
G1 X176.251 Y168.763 E0.02402
G1 X175.889 Y169.443 E0.02414
G1 X175.512 Y169.834 E0.01704
G1 X175.056 Y170.130 E0.01704
G1 X174.545 Y170.314 E0.01704
G1 X174.009 Y170.377 E0.01692
G1 X75.989 Y170.377 E3.07335
G1 X75.233 Y170.250 E0.02402
G1 X74.557 Y169.889 E0.02402
G1 X74.166 Y169.512 E0.01704
G1 X73.870 Y169.056 E0.01704
G1 X73.686 Y168.545 E0.01704
G1 X73.623 Y168.009 E0.01692
G1 X73.623 Y41.992 E3.95115
G1 X73.739 Y41.296 E0.02214
; printing object ROM Emulator.stl id:0 copy 0
G1 F8640.000
G1 X74.111 Y40.557 E-0.19094
G1 X74.485 Y40.168 E-0.12462
G1 X74.937 Y39.874 E-0.12462
G1 X75.444 Y39.689 E-0.12462
G1 X75.976 Y39.623 E-0.12375
G1 X76.286 Y39.623 E-0.07145
G1 E-0.04000 F2100.00000
G1 Z0.600 F10800.000
G1 X76.787 Y42.787
G1 Z0.200
G1 E0.80000 F2100.00000
G1 F1200.000
G1 X173.213 Y42.787 E3.02336
G1 X173.213 Y167.213 E3.90128
G1 X76.787 Y167.213 E3.02336
G1 X76.787 Y42.847 E3.89940
G1 X76.410 Y42.410 F10800.000
G1 F1200.000
G1 X173.590 Y42.410 E3.04701
G1 X173.590 Y167.590 E3.92493
M73 Q0 S363
G1 X76.410 Y167.590 E3.04701
M73 P0 R361
G1 X76.410 Y42.470 E3.92305
G1 X76.792 Y42.530 F10800.000
G1 F8640.000
G1 X79.701 Y42.468 E-0.76000
G1 E-0.04000 F2100.00000
G1 Z0.600 F10800.000
G1 X76.900 Y166.336
G1 Z0.200
G1 E0.80000 F2100.00000
G1 F1200.000
G1 X77.494 Y166.930 E0.02635
G1 X78.028 Y166.930 E0.01676
G1 X77.070 Y165.972 E0.04252
G1 X77.070 Y165.438 E0.01676
G1 X78.562 Y166.930 E0.06621
G1 X79.095 Y166.930 E0.01676
G1 X77.070 Y164.905 E0.08991
G1 X77.070 Y164.371 E0.01676
G1 X79.629 Y166.930 E0.11361
G1 X80.163 Y166.930 E0.01676
G1 X77.070 Y163.837 E0.13730
G1 X77.070 Y163.303 E0.01676
G1 X80.697 Y166.930 E0.16100
G1 X81.231 Y166.930 E0.01676
G1 X77.070 Y162.769 E0.18470
G1 X77.070 Y162.235 E0.01676
G1 X81.765 Y166.930 E0.20839
G1 X82.298 Y166.930 E0.01676
G1 X77.070 Y161.702 E0.23209
G1 X77.070 Y161.168 E0.01676
G1 X82.832 Y166.930 E0.25578
G1 X83.366 Y166.930 E0.01676
G1 X77.070 Y160.634 E0.27948
G1 X77.070 Y160.100 E0.01676
G1 X83.900 Y166.930 E0.30318
G1 X84.434 Y166.930 E0.01676
G1 X77.070 Y159.566 E0.32687
G1 X77.070 Y159.032 E0.01676
G1 X84.968 Y166.930 E0.35057
G1 X85.501 Y166.930 E0.01676
G1 X77.070 Y158.499 E0.37427
G1 X77.070 Y157.965 E0.01676
G1 X86.035 Y166.930 E0.39796
G1 X86.569 Y166.930 E0.01676
G1 X77.070 Y157.431 E0.42166
G1 X77.070 Y156.897 E0.01676
G1 X87.103 Y166.930 E0.44535
G1 X87.637 Y166.930 E0.01676
G1 X77.070 Y156.363 E0.46905
G1 X77.070 Y155.829 E0.01676
G1 X88.171 Y166.930 E0.49275
G1 X88.704 Y166.930 E0.01676
G1 X77.070 Y155.296 E0.51644
G1 X77.070 Y154.762 E0.01676
G1 X89.238 Y166.930 E0.54014
G1 X89.772 Y166.930 E0.01676
G1 X77.070 Y154.228 E0.56384
G1 X77.070 Y153.694 E0.01676
G1 X90.306 Y166.930 E0.58753
G1 X90.840 Y166.930 E0.01676
G1 X77.070 Y153.160 E0.61123
G1 X77.070 Y152.626 E0.01676
G1 X91.374 Y166.930 E0.63492
G1 X91.907 Y166.930 E0.01676
G1 X77.070 Y152.093 E0.65862
G1 X77.070 Y151.559 E0.01676
G1 X92.441 Y166.930 E0.68232
G1 X92.975 Y166.930 E0.01676
G1 X77.070 Y151.025 E0.70601
G1 X77.070 Y150.491 E0.01676
G1 X93.509 Y166.930 E0.72971
G1 X94.043 Y166.930 E0.01676
G1 X77.070 Y149.957 E0.75341
G1 X77.070 Y149.423 E0.01676
G1 X94.577 Y166.930 E0.77710
G1 X95.110 Y166.930 E0.01676
G1 X77.070 Y148.890 E0.80080
G1 X77.070 Y148.356 E0.01676
G1 X95.644 Y166.930 E0.82449
G1 X96.178 Y166.930 E0.01676
G1 X77.070 Y147.822 E0.84819
G1 X77.070 Y147.288 E0.01676
G1 X96.712 Y166.930 E0.87189
G1 X97.246 Y166.930 E0.01676
G1 X77.070 Y146.754 E0.89558
G1 X77.070 Y146.220 E0.01676
G1 X97.780 Y166.930 E0.91928
G1 X98.313 Y166.930 E0.01676
G1 X77.070 Y145.687 E0.94298
G1 X77.070 Y145.153 E0.01676
G1 X98.847 Y166.930 E0.96667
G1 X99.381 Y166.930 E0.01676
G1 X77.070 Y144.619 E0.99037
G1 X77.070 Y144.085 E0.01676
G1 X99.915 Y166.930 E1.01406
G1 X100.449 Y166.930 E0.01676
G1 X77.070 Y143.551 E1.03776
G1 X77.070 Y143.017 E0.01676
G1 X100.983 Y166.930 E1.06146
G1 X101.517 Y166.930 E0.01676
G1 X77.070 Y142.483 E1.08515
G1 X77.070 Y141.950 E0.01676
G1 X102.050 Y166.930 E1.10885
G1 X102.584 Y166.930 E0.01676
G1 X77.070 Y141.416 E1.13255
G1 X77.070 Y140.882 E0.01676
G1 X103.118 Y166.930 E1.15624
M73 Q0 S362
G1 X103.652 Y166.930 E0.01676
G1 X77.070 Y140.348 E1.17994
G1 X77.070 Y139.814 E0.01676
G1 X104.186 Y166.930 E1.20363
G1 X104.720 Y166.930 E0.01676
G1 X77.070 Y139.280 E1.22733
M73 P0 R360
G1 X77.070 Y138.747 E0.01676
G1 X105.253 Y166.930 E1.25103
G1 X105.787 Y166.930 E0.01676
G1 X77.070 Y138.213 E1.27472
G1 X77.070 Y137.679 E0.01676
G1 X106.321 Y166.930 E1.29842
G1 X106.855 Y166.930 E0.01676
G1 X77.070 Y137.145 E1.32212
G1 X77.070 Y136.611 E0.01676
G1 X107.389 Y166.930 E1.34581
G1 X107.923 Y166.930 E0.01676
G1 X77.070 Y136.077 E1.36951
G1 X77.070 Y135.544 E0.01676
G1 X108.456 Y166.930 E1.39320
G1 X108.990 Y166.930 E0.01676
G1 X77.070 Y135.010 E1.41690
G1 X77.070 Y134.476 E0.01676
G1 X109.524 Y166.930 E1.44060
G1 X110.058 Y166.930 E0.01676
G1 X77.070 Y133.942 E1.46429
G1 X77.070 Y133.408 E0.01676
G1 X110.592 Y166.930 E1.48799
G1 X111.126 Y166.930 E0.01676
G1 X77.070 Y132.874 E1.51169
G1 X77.070 Y132.341 E0.01676
G1 X111.659 Y166.930 E1.53538
G1 X112.193 Y166.930 E0.01676
G1 X77.070 Y131.807 E1.55908
G1 X77.070 Y131.273 E0.01676
G1 X112.727 Y166.930 E1.58277
G1 X113.261 Y166.930 E0.01676
G1 X77.070 Y130.739 E1.60647
G1 X77.070 Y130.205 E0.01676
G1 X113.795 Y166.930 E1.63017
G1 X114.329 Y166.930 E0.01676
G1 X77.070 Y129.671 E1.65386
G1 X77.070 Y129.138 E0.01676
G1 X114.862 Y166.930 E1.67756
G1 X115.396 Y166.930 E0.01676
G1 X77.070 Y128.604 E1.70126
G1 X77.070 Y128.070 E0.01676
G1 X115.930 Y166.930 E1.72495
G1 X116.464 Y166.930 E0.01676
G1 X77.070 Y127.536 E1.74865
G1 X77.070 Y127.002 E0.01676
G1 X116.998 Y166.930 E1.77234
M73 Q0 S361
G1 X117.532 Y166.930 E0.01676
G1 X77.070 Y126.468 E1.79604
G1 X77.070 Y125.935 E0.01676
G1 X118.065 Y166.930 E1.81974
M73 P0 R359
G1 X118.599 Y166.930 E0.01676
G1 X77.070 Y125.401 E1.84343
G1 X77.070 Y124.867 E0.01676
G1 X119.133 Y166.930 E1.86713
G1 X119.667 Y166.930 E0.01676
G1 X77.070 Y124.333 E1.89083
G1 X77.070 Y123.799 E0.01676
G1 X120.201 Y166.930 E1.91452
G1 X120.735 Y166.930 E0.01676
G1 X77.070 Y123.265 E1.93822
G1 X77.070 Y122.732 E0.01676
G1 X121.268 Y166.930 E1.96191
G1 X121.802 Y166.930 E0.01676
G1 X77.070 Y122.198 E1.98561
G1 X77.070 Y121.664 E0.01676
G1 X122.336 Y166.930 E2.00931
G1 X122.870 Y166.930 E0.01676
G1 X77.070 Y121.130 E2.03300
G1 X77.070 Y120.596 E0.01676
G1 X123.404 Y166.930 E2.05670
G1 X123.938 Y166.930 E0.01676
G1 X77.070 Y120.062 E2.08040
G1 X77.070 Y119.529 E0.01676
G1 X124.471 Y166.930 E2.10409
G1 X125.005 Y166.930 E0.01676
G1 X77.070 Y118.995 E2.12779
G1 X77.070 Y118.461 E0.01676
G1 X125.539 Y166.930 E2.15148
G1 X126.073 Y166.930 E0.01676
G1 X77.070 Y117.927 E2.17518
G1 X77.070 Y117.393 E0.01676
G1 X126.607 Y166.930 E2.19888
G1 X127.141 Y166.930 E0.01676
G1 X77.070 Y116.859 E2.22257
M73 Q1 S360
G1 X77.070 Y116.326 E0.01676
G1 X127.674 Y166.930 E2.24627
G1 X128.208 Y166.930 E0.01676
G1 X77.070 Y115.792 E2.26997
M73 P1 R358
G1 X77.070 Y115.258 E0.01676
G1 X128.742 Y166.930 E2.29366
G1 X129.276 Y166.930 E0.01676
G1 X77.070 Y114.724 E2.31736
G1 X77.070 Y114.190 E0.01676
G1 X129.810 Y166.930 E2.34105
G1 X130.344 Y166.930 E0.01676
G1 X77.070 Y113.656 E2.36475
G1 X77.070 Y113.123 E0.01676
G1 X130.877 Y166.930 E2.38845
G1 X131.411 Y166.930 E0.01676
G1 X77.070 Y112.589 E2.41214
G1 X77.070 Y112.055 E0.01676
G1 X131.945 Y166.930 E2.43584
G1 X132.479 Y166.930 E0.01676
G1 X77.070 Y111.521 E2.45954
G1 X77.070 Y110.987 E0.01676
G1 X133.013 Y166.930 E2.48323
G1 X133.547 Y166.930 E0.01676
G1 X77.070 Y110.453 E2.50693
G1 X77.070 Y109.919 E0.01676
G1 X134.080 Y166.930 E2.53062
G1 X134.614 Y166.930 E0.01676
G1 X77.070 Y109.386 E2.55432
G1 X77.070 Y108.852 E0.01676
G1 X135.148 Y166.930 E2.57802
G1 X135.682 Y166.930 E0.01676
G1 X77.070 Y108.318 E2.60171
M73 Q1 S359
G1 X77.070 Y107.784 E0.01676
G1 X136.216 Y166.930 E2.62541
G1 X136.750 Y166.930 E0.01676
G1 X77.070 Y107.250 E2.64911
M73 P1 R356
G1 X77.070 Y106.716 E0.01676
G1 X137.284 Y166.930 E2.67280
G1 X137.817 Y166.930 E0.01676
G1 X77.070 Y106.183 E2.69650
G1 X77.070 Y105.649 E0.01676
G1 X138.351 Y166.930 E2.72019
G1 X138.885 Y166.930 E0.01676
G1 X77.070 Y105.115 E2.74389
G1 X77.070 Y104.581 E0.01676
G1 X139.419 Y166.930 E2.76759
G1 X139.953 Y166.930 E0.01676
G1 X77.070 Y104.047 E2.79128
G1 X77.070 Y103.513 E0.01676
G1 X140.487 Y166.930 E2.81498
G1 X141.020 Y166.930 E0.01676
G1 X77.070 Y102.980 E2.83868
G1 X77.070 Y102.446 E0.01676
G1 X141.554 Y166.930 E2.86237
G1 X142.088 Y166.930 E0.01676
G1 X77.070 Y101.912 E2.88607
G1 X77.070 Y101.378 E0.01676
G1 X142.622 Y166.930 E2.90976
G1 X143.156 Y166.930 E0.01676
G1 X77.070 Y100.844 E2.93346
M73 Q1 S358
G1 X77.070 Y100.310 E0.01676
G1 X143.690 Y166.930 E2.95716
G1 X144.223 Y166.930 E0.01676
G1 X77.070 Y99.777 E2.98085
M73 P1 R355
G1 X77.070 Y99.243 E0.01676
G1 X144.757 Y166.930 E3.00455
G1 X145.291 Y166.930 E0.01676
G1 X77.070 Y98.709 E3.02825
G1 X77.070 Y98.175 E0.01676
G1 X145.825 Y166.930 E3.05194
G1 X146.359 Y166.930 E0.01676
G1 X77.070 Y97.641 E3.07564
G1 X77.070 Y97.107 E0.01676
G1 X146.893 Y166.930 E3.09933
G1 X147.426 Y166.930 E0.01676
G1 X77.070 Y96.574 E3.12303
G1 X77.070 Y96.040 E0.01676
G1 X147.960 Y166.930 E3.14673
G1 X148.494 Y166.930 E0.01676
G1 X77.070 Y95.506 E3.17042
G1 X77.070 Y94.972 E0.01676
G1 X149.028 Y166.930 E3.19412
G1 X149.562 Y166.930 E0.01676
G1 X77.070 Y94.438 E3.21782
G1 X77.070 Y93.904 E0.01676
G1 X150.096 Y166.930 E3.24151
M73 Q2 S357
G1 X150.629 Y166.930 E0.01676
G1 X77.070 Y93.371 E3.26521
M73 P2 R354
G1 X77.070 Y92.837 E0.01676
G1 X151.163 Y166.930 E3.28890
G1 X151.697 Y166.930 E0.01676
G1 X77.070 Y92.303 E3.31260
G1 X77.070 Y91.769 E0.01676
G1 X152.231 Y166.930 E3.33630
G1 X152.765 Y166.930 E0.01676
G1 X77.070 Y91.235 E3.35999
G1 X77.070 Y90.701 E0.01676
G1 X153.299 Y166.930 E3.38369
G1 X153.832 Y166.930 E0.01676
G1 X77.070 Y90.168 E3.40739
G1 X77.070 Y89.634 E0.01676
G1 X154.366 Y166.930 E3.43108
G1 X154.900 Y166.930 E0.01676
G1 X77.070 Y89.100 E3.45478
G1 X77.070 Y88.566 E0.01676
G1 X155.434 Y166.930 E3.47847
G1 X155.968 Y166.930 E0.01676
G1 X77.070 Y88.032 E3.50217
G1 X77.070 Y87.498 E0.01676
G1 X156.502 Y166.930 E3.52587
M73 Q2 S356
M73 P2 R353
G1 X157.035 Y166.930 E0.01676
G1 X77.070 Y86.965 E3.54956
G1 X77.070 Y86.431 E0.01676
G1 X157.569 Y166.930 E3.57326
G1 X158.103 Y166.930 E0.01676
G1 X77.070 Y85.897 E3.59696
G1 X77.070 Y85.363 E0.01676
G1 X158.637 Y166.930 E3.62065
G1 X159.171 Y166.930 E0.01676
G1 X77.070 Y84.829 E3.64435
G1 X77.070 Y84.295 E0.01676
G1 X159.705 Y166.930 E3.66804
G1 X160.238 Y166.930 E0.01676
G1 X77.070 Y83.762 E3.69174
G1 X77.070 Y83.228 E0.01676
G1 X160.772 Y166.930 E3.71544
G1 X161.306 Y166.930 E0.01676
G1 X77.070 Y82.694 E3.73913
G1 X77.070 Y82.160 E0.01676
G1 X161.840 Y166.930 E3.76283
G1 X162.374 Y166.930 E0.01676
G1 X77.070 Y81.626 E3.78653
M73 Q2 S355
M73 P2 R352
G1 X77.070 Y81.092 E0.01676
G1 X162.908 Y166.930 E3.81022
G1 X163.441 Y166.930 E0.01676
G1 X77.070 Y80.559 E3.83392
G1 X77.070 Y80.025 E0.01676
G1 X163.975 Y166.930 E3.85761
G1 X164.509 Y166.930 E0.01676
G1 X77.070 Y79.491 E3.88131
G1 X77.070 Y78.957 E0.01676
G1 X165.043 Y166.930 E3.90501
G1 X165.577 Y166.930 E0.01676
G1 X77.070 Y78.423 E3.92870
G1 X77.070 Y77.889 E0.01676
G1 X166.111 Y166.930 E3.95240
G1 X166.644 Y166.930 E0.01676
G1 X77.070 Y77.356 E3.97610
G1 X77.070 Y76.822 E0.01676
G1 X167.178 Y166.930 E3.99979
G1 X167.712 Y166.930 E0.01676
G1 X77.070 Y76.288 E4.02349
M73 Q2 S354
M73 P2 R351
G1 X77.070 Y75.754 E0.01676
G1 X168.246 Y166.930 E4.04718
G1 X168.780 Y166.930 E0.01676
G1 X77.070 Y75.220 E4.07088
G1 X77.070 Y74.686 E0.01676
G1 X169.314 Y166.930 E4.09458
G1 X169.848 Y166.930 E0.01676
G1 X77.070 Y74.152 E4.11827
G1 X77.070 Y73.619 E0.01676
G1 X170.381 Y166.930 E4.14197
G1 X170.915 Y166.930 E0.01676
G1 X77.070 Y73.085 E4.16567
G1 X77.070 Y72.551 E0.01676
G1 X171.449 Y166.930 E4.18936
G1 X171.983 Y166.930 E0.01676
G1 X77.070 Y72.017 E4.21306
G1 X77.070 Y71.483 E0.01676
G1 X172.517 Y166.930 E4.23675
G1 X172.930 Y166.930 E0.01298
G1 X172.930 Y166.810 E0.00378
G1 X77.070 Y70.949 E4.25511
M73 Q3 S353
M73 P3 R350
G1 X77.070 Y70.416 E0.01676
G1 X172.930 Y166.276 E4.25511
G1 X172.930 Y165.742 E0.01676
G1 X77.070 Y69.882 E4.25511
G1 X77.070 Y69.348 E0.01676
G1 X172.930 Y165.208 E4.25511
G1 X172.930 Y164.674 E0.01676
G1 X77.070 Y68.814 E4.25511
G1 X77.070 Y68.280 E0.01676
G1 X172.930 Y164.141 E4.25511
G1 X172.930 Y163.607 E0.01676
G1 X77.070 Y67.746 E4.25511
G1 X77.070 Y67.213 E0.01676
G1 X172.930 Y163.073 E4.25511
G1 X172.930 Y162.539 E0.01676
G1 X77.070 Y66.679 E4.25511
G1 X77.070 Y66.145 E0.01676
G1 X172.930 Y162.005 E4.25511
M73 Q3 S352
M73 P3 R349
G1 X172.930 Y161.471 E0.01676
G1 X77.070 Y65.611 E4.25511
G1 X77.070 Y65.077 E0.01676
G1 X172.930 Y160.938 E4.25511
G1 X172.930 Y160.404 E0.01676
G1 X77.070 Y64.543 E4.25511
G1 X77.070 Y64.010 E0.01676
G1 X172.930 Y159.870 E4.25511
G1 X172.930 Y159.336 E0.01676
G1 X77.070 Y63.476 E4.25511
G1 X77.070 Y62.942 E0.01676
G1 X172.930 Y158.802 E4.25511
G1 X172.930 Y158.268 E0.01676
G1 X77.070 Y62.408 E4.25511
G1 X77.070 Y61.874 E0.01676
G1 X172.930 Y157.735 E4.25511
G1 X172.930 Y157.201 E0.01676
G1 X77.070 Y61.340 E4.25511
M73 Q3 S351
M73 P3 R348
G1 X77.070 Y60.807 E0.01676
G1 X172.930 Y156.667 E4.25511
G1 X172.930 Y156.133 E0.01676
G1 X77.070 Y60.273 E4.25511
G1 X77.070 Y59.739 E0.01676
G1 X172.930 Y155.599 E4.25511
G1 X172.930 Y155.065 E0.01676
G1 X77.070 Y59.205 E4.25511
G1 X77.070 Y58.671 E0.01676
G1 X172.930 Y154.531 E4.25511
G1 X172.930 Y153.998 E0.01676
G1 X77.070 Y58.137 E4.25511
G1 X77.070 Y57.604 E0.01676
G1 X172.930 Y153.464 E4.25511
G1 X172.930 Y152.930 E0.01676
G1 X77.070 Y57.070 E4.25511
G1 X77.070 Y56.536 E0.01676
G1 X172.930 Y152.396 E4.25511
M73 Q4 S350
M73 P4 R347
G1 X172.930 Y151.862 E0.01676
G1 X77.070 Y56.002 E4.25511
G1 X77.070 Y55.468 E0.01676
G1 X172.930 Y151.328 E4.25511
G1 X172.930 Y150.795 E0.01676
G1 X77.070 Y54.934 E4.25511
G1 X77.070 Y54.401 E0.01676
G1 X172.930 Y150.261 E4.25511
G1 X172.930 Y149.727 E0.01676
G1 X77.070 Y53.867 E4.25511
G1 X77.070 Y53.333 E0.01676
