; generated by PrusaSlicer 2.5.0+MacOS-arm64 on 2023-01-24 at 01:12:27 UTC


;
;
; 

; external perimeters extrusion width = 0.45mm
; perimeters extrusion width = 0.45mm
; infill extrusion width = 0.45mm
; solid infill extrusion width = 0.45mm
; top infill extrusion width = 0.40mm
; first layer extrusion width = 0.42mm

M73 P0 R250
M73 Q0 S252
M201 X1000 Y1000 Z200 E5000 ; sets maximum accelerations, mm/sec^2
M203 X200 Y200 Z12 E120 ; sets maximum feedrates, mm / sec
M204 P1250 R1250 T1250 ; sets acceleration (P, T) and retract acceleration (R), mm/sec^2
M205 X8.00 Y8.00 Z0.40 E4.50 ; sets the jerk limits, mm/sec
M205 S0 T0 ; sets the minimum extruding and travel feed rate, mm/sec
M107
;TYPE:Custom
M862.3 P "MK3S" ; printer model check
M862.1 P0.4 ; nozzle diameter check
M115 U3.11.0 ; tell printer latest fw version
G90 ; use absolute coordinates
M83 ; extruder relative mode
M104 S215 ; set extruder temp
M140 S60 ; set bed temp
M190 S60 ; wait for bed temp
M109 S215 ; wait for extruder temp
G28 W ; home all without mesh bed level
G80 ; mesh bed leveling

G1 Z0.2 F720
G1 Y-3 F1000 ; go outside print area
G92 E0
G1 X60 E9 F1000 ; intro line
G1 X100 E12.5 F1000 ; intro line

G92 E0
M221 S95

; Don't change E values below. Excessive value can damage the printer.
M907 E430 ; set extruder motor current
G21 ; set units to millimeters
G90 ; use absolute coordinates
M83 ; use relative distances for extrusion
M900 K0.05 ; Filament gcode LA 1.5
M900 K30 ; Filament gcode LA 1.0
M107
;LAYER_CHANGE
;Z:0.2
;HEIGHT:0.2
;BEFORE_LAYER_CHANGE
G92 E0.0
;0.2


G1 E-.8 F2100
G1 Z.4 F720
;AFTER_LAYER_CHANGE
;0.2
G1 X74.015 Y40.693 F10800
G1 Z.2 F720
G1 E.8 F2100
M204 S800
;TYPE:Skirt/Brim
;WIDTH:0.42
G1 F1200
G1 X75.06 Y39.817 E.04278
G1 X76 Y39.623 E.03008
G1 X174 Y39.623 E3.07272
G1 X175.307 Y40.015 E.04278
G1 X176.183 Y41.06 E.04278
G1 X176.377 Y42 E.03008
G1 X176.377 Y168 E3.95064
G1 X175.985 Y169.307 E.04278
G1 X174.94 Y170.183 E.04278
G1 X174 Y170.377 E.03008
G1 X76 Y170.377 E3.07272
G1 X74.693 Y169.985 E.04278
G1 X73.817 Y168.94 E.04278
G1 X73.623 Y168 E.03008
G1 X73.623 Y42 E3.95064
G1 X73.997 Y40.75 E.0409
M204 S1000
; printing object ROM Emulator Lid.stl id:0 copy 0
;WIPE_START
G1 F8640
G1 X75.06 Y39.817 E-.32671
G1 X76 Y39.623 E-.22155
G1 X76.917 Y39.623 E-.21174
;WIPE_END
G1 E-.04 F2100
G1 Z.6 F720
G1 X171.869 Y167.701 F10800
G1 Z.2 F720
G1 E.8 F2100
M204 S800
;TYPE:External perimeter
;WIDTH:0.597386
G1 F1200
G1 X171.402 Y167.72 E.02154
;WIDTH:0.61037
G1 X171.086 Y167.695 E.01497
;WIDTH:0.66012
G1 X170.77 Y167.67 E.01629
M204 S1000
;WIPE_START
G1 F8640
G1 X171.086 Y167.695 E-.07327
G1 X171.402 Y167.72 E-.07327
G1 X171.869 Y167.701 E-.10787
;WIPE_END
G1 E-.54558 F2100
G1 Z.6 F720
G1 X173.625 Y166.177 F10800
G1 Z.2 F720
G1 E.8 F2100
M204 S800
;WIDTH:0.660914
G1 F1200
G1 X173.67 Y166.12 E.0037
G1 X173.691 Y166.19 E.00373
;WIDTH:0.618384
G1 X173.712 Y166.259 E.00348
;WIDTH:0.575854
G1 X173.733 Y166.329 E.00322
;WIDTH:0.533324
G1 X173.755 Y166.398 E.00296
;WIDTH:0.490794
G1 X173.776 Y166.468 E.00271
;WIDTH:0.448263
G1 X173.713 Y166.947 E.0163
;WIDTH:0.419999
G1 X173.618 Y167.618 E.02126
G1 X173.467 Y167.627 E.00476
G1 X172.467 Y167.79 E.03176
;WIDTH:0.464346
G1 X172.318 Y167.768 E.00529
;WIDTH:0.508693
G1 X172.168 Y167.746 E.00585
;WIDTH:0.55304
G1 X172.019 Y167.723 E.00641
;WIDTH:0.597386
G1 X171.869 Y167.701 E.00697
G1 X171.911 Y167.68 E.00215
;WIDTH:0.576429
G1 X172.034 Y167.615 E.00617
;WIDTH:0.537322
G1 X172.157 Y167.551 E.00572
;WIDTH:0.498214
G1 X172.28 Y167.486 E.00527
;WIDTH:0.459107
G1 X172.404 Y167.422 E.00481
;WIDTH:0.419999
G1 X172.727 Y167.307 E.01077
G1 X173.09 Y167.033 E.01424
G1 X173.284 Y166.772 E.01019
;WIDTH:0.448263
G1 X173.449 Y166.405 E.01356
;WIDTH:0.490794
G1 X173.493 Y166.348 E.00268
;WIDTH:0.533324
G1 X173.537 Y166.291 E.00294
;WIDTH:0.575854
G1 X173.581 Y166.234 E.00319
;WIDTH:0.618384
G1 X173.589 Y166.225 E.00058
M204 S1000
;WIPE_START
G1 F8640
G1 X173.67 Y166.12 E-.03049
G1 X173.691 Y166.19 E-.01678
G1 X173.712 Y166.259 E-.01678
G1 X173.733 Y166.329 E-.01678
G1 X173.755 Y166.398 E-.01678
G1 X173.776 Y166.468 E-.01678
G1 X173.713 Y166.947 E-.11168
G1 X173.618 Y167.618 E-.15653
G1 X173.467 Y167.627 E-.03504
G1 X172.467 Y167.79 E-.23392
G1 X172.318 Y167.768 E-.03489
G1 X172.168 Y167.746 E-.03489
G1 X172.019 Y167.723 E-.03489
G1 X172.002 Y167.721 E-.00379
;WIPE_END
G1 E-.04 F2100
G1 Z.6 F720
G1 X173.323 Y167.27 F10800
G1 Z.2 F720
G1 E.8 F2100
M204 S800
;TYPE:Perimeter
;WIDTH:0.356178
G1 F1200
G1 X173.265 Y167.304 E.00177
G1 X173.323 Y167.338 E.00177
G1 X173.343 Y167.304 E.00102
M204 S1000
;WIPE_START
G1 F8640
G1 X173.323 Y167.338 E-.00904
G1 X173.265 Y167.304 E-.01566
G1 X173.323 Y167.27 E-.01566
;WIPE_END
G1 E-.75964 F2100
G1 Z.6 F720
G1 X173.67 Y164.77 F10800
G1 Z.2 F720
G1 E.8 F2100
M204 S800
;TYPE:External perimeter
;WIDTH:0.660122
G1 F1200
G1 X173.695 Y165.086 E.01628
;WIDTH:0.610382
G1 X173.72 Y165.402 E.01497
G1 X173.695 Y165.759 E.01686
;WIDTH:0.660062
G1 X173.67 Y166.115 E.01834
;WIDTH:0.660914
G1 X173.67 Y166.12 E.00027
M204 S1000
;WIPE_START
G1 F8640
G1 X173.67 Y166.115 E-.00119
G1 X173.695 Y165.759 E-.08252
G1 X173.72 Y165.402 E-.08252
G1 X173.695 Y165.086 E-.07323
G1 X173.67 Y164.77 E-.07323
;WIPE_END
G1 E-.48729 F2100
G1 Z.6 F720
G1 X78.857 Y167.711 F10800
G1 Z.2 F720
G1 E.8 F2100
M204 S800
;WIDTH:0.593348
G1 F1200
G1 X78.17 Y167.703 E.03146
;WIDTH:0.604358
G1 X78.1 Y167.698 E.00326
M204 S1000
;WIPE_START
G1 F8640
G1 X78.17 Y167.703 E-.01615
G1 X78.857 Y167.711 E-.15871
;WIPE_END
G1 E-.62515 F2100
G1 Z.6 F720
G1 X76.33 Y166.12 F10800
G1 Z.2 F720
G1 E.8 F2100
M204 S800
;WIDTH:0.66092
G1 F1200
G1 X76.314 Y165.908 E.01095
;WIDTH:0.627495
G1 X76.297 Y165.695 E.01036
;WIDTH:0.59407
G1 X76.28 Y165.483 E.00977
;WIDTH:0.610379
G1 X76.305 Y165.126 E.01687
;WIDTH:0.660114
G1 X76.33 Y164.77 E.01835
M204 S1000
;WIPE_START
G1 F8640
G1 X76.305 Y165.126 E-.08255
G1 X76.28 Y165.483 E-.08255
G1 X76.297 Y165.695 E-.0492
G1 X76.314 Y165.908 E-.0492
G1 X76.33 Y166.12 E-.0492
;WIPE_END
G1 E-.4873 F2100
G1 Z.6 F720
G1 X76.33 Y166.12 F10800
G1 Z.2 F720
G1 E.8 F2100
M204 S800
;WIDTH:0.66092
G1 F1200
G1 X76.375 Y166.177 E.0037
;WIDTH:0.61839
G1 X76.419 Y166.234 E.00345
;WIDTH:0.57586
G1 X76.463 Y166.291 E.00319
;WIDTH:0.533329
G1 X76.507 Y166.348 E.00294
;WIDTH:0.490799
G1 X76.551 Y166.405 E.00268
;WIDTH:0.448268
G1 X76.696 Y166.734 E.01209
;WIDTH:0.419999
G1 X76.967 Y167.09 E.01404
G1 X77.235 Y167.288 E.01044
G1 X77.6 Y167.44 E.0124
;WIDTH:0.466089
G1 X77.725 Y167.504 E.00495
;WIDTH:0.512179
G1 X77.85 Y167.569 E.00549
;WIDTH:0.558269
G1 X77.975 Y167.633 E.00603
;WIDTH:0.604358
G1 X78.1 Y167.698 E.00657
G1 X77.997 Y167.721 E.00494
;WIDTH:0.558269
G1 X77.894 Y167.744 E.00453
;WIDTH:0.512179
G1 X77.791 Y167.767 E.00413
;WIDTH:0.466089
G1 X77.687 Y167.79 E.00372
;WIDTH:0.419999
G1 X76.382 Y167.618 E.0413
G1 X76.356 Y167.36 E.00813
;WIDTH:0.448268
G1 X76.226 Y166.495 E.02948
;WIDTH:0.490799
G1 X76.247 Y166.42 E.0029
;WIDTH:0.533329
G1 X76.268 Y166.345 E.00317
;WIDTH:0.57586
G1 X76.289 Y166.27 E.00345
;WIDTH:0.61839
G1 X76.31 Y166.195 E.00372
;WIDTH:0.66092
G1 X76.314 Y166.178 E.00092
M204 S1000
;WIPE_START
G1 F8640
G1 X76.375 Y166.177 E-.01387
G1 X76.419 Y166.234 E-.01664
G1 X76.463 Y166.291 E-.01664
G1 X76.507 Y166.348 E-.01664
G1 X76.551 Y166.405 E-.01664
G1 X76.696 Y166.734 E-.08283
G1 X76.967 Y167.09 E-.10343
G1 X77.235 Y167.288 E-.07686
G1 X77.6 Y167.44 E-.09134
G1 X77.725 Y167.504 E-.03251
G1 X77.85 Y167.569 E-.03251
G1 X77.975 Y167.633 E-.03251
G1 X78.1 Y167.698 E-.03251
G1 X77.997 Y167.721 E-.02443
G1 X77.894 Y167.744 E-.02443
G1 X77.791 Y167.767 E-.02443
G1 X77.687 Y167.79 E-.02443
G1 X77.269 Y167.735 E-.09738
;WIPE_END
G1 E-.04 F2100
G1 Z.6 F720
G1 X76.716 Y167.27 F10800
G1 Z.2 F720
G1 E.8 F2100
M204 S800
;TYPE:Perimeter
;WIDTH:0.356186
G1 F1200
G1 X76.657 Y167.304 E.00177
G1 X76.716 Y167.338 E.00177
G1 X76.735 Y167.304 E.00102
M204 S1000
;WIPE_START
G1 F8640
G1 X76.716 Y167.338 E-.00904
G1 X76.657 Y167.304 E-.01566
G1 X76.716 Y167.27 E-.01566
;WIPE_END
G1 E-.75964 F2100
G1 Z.6 F720
G1 X126.392 Y89.305 F10800
G1 Z.2 F720
G1 E.8 F2100
M204 S800
;WIDTH:0.419999
G1 F1200
G1 X125.787 Y89.673 E.02222
G1 X125.296 Y89.875 E.01664
G1 X124.801 Y90.007 E.01608
G1 X124.053 Y90.085 E.02357
G1 X123.287 Y90.022 E.02412
G1 X122.546 Y89.817 E.0241
G1 X121.856 Y89.477 E.02411
G1 X121.242 Y89.014 E.02412
G1 X120.727 Y88.444 E.0241
G1 X120.327 Y87.787 E.0241
G1 X120.125 Y87.296 E.01664
G1 X119.993 Y86.801 E.01608
G1 X119.915 Y86.046 E.02379
G1 X119.978 Y85.287 E.0239
G1 X120.183 Y84.546 E.0241
G1 X120.523 Y83.856 E.02411
G1 X120.986 Y83.242 E.02412
G1 X121.456 Y82.815 E.01989
G1 X121.953 Y82.48 E.0188
G1 X122.292 Y82.288 E.01224
G1 X122.788 Y82.099 E.01663
G1 X123.435 Y81.954 E.02079
G1 X123.934 Y81.915 E.01569
G1 X124.818 Y81.998 E.02782
G1 X125.454 Y82.183 E.02078
G1 X126.114 Y82.508 E.02308
G1 X126.835 Y83.059 E.02845
G1 X127.273 Y83.556 E.02078
G1 X127.673 Y84.213 E.0241
G1 X127.875 Y84.704 E.01664
G1 X128.007 Y85.199 E.01608
G1 X128.085 Y85.947 E.02357
G1 X128.022 Y86.713 E.02412
G1 X127.817 Y87.454 E.0241
G1 X127.477 Y88.144 E.02411
G1 X127.014 Y88.758 E.02412
G1 X126.444 Y89.273 E.0241
M204 S1000
G1 X126.194 Y88.991 F10800
M204 S800
;TYPE:External perimeter
G1 F1200
G1 X125.595 Y89.349 E.02189
G1 X125.135 Y89.532 E.01553
G1 X124.678 Y89.647 E.01478
G1 X124.018 Y89.709 E.02079
G1 X123.322 Y89.647 E.0219
G1 X122.651 Y89.455 E.02188
G1 X122.027 Y89.141 E.02189
G1 X121.474 Y88.716 E.0219
G1 X121.009 Y88.194 E.02188
G1 X120.651 Y87.595 E.02189
G1 X120.409 Y86.904 E.02297
G1 X120.343 Y86.567 E.01076
G1 X120.29 Y86.015 E.01738
G1 X120.353 Y85.322 E.02182
G1 X120.545 Y84.651 E.02188
G1 X120.859 Y84.027 E.02189
G1 X121.284 Y83.474 E.0219
G1 X121.705 Y83.098 E.01768
G1 X122.431 Y82.638 E.02696
G1 X122.959 Y82.447 E.01761
G1 X123.517 Y82.322 E.01794
G1 X124.022 Y82.295 E.01584
G1 X124.677 Y82.353 E.0206
G1 X125.164 Y82.491 E.01589
G1 X125.657 Y82.698 E.01675
G1 X126.059 Y82.921 E.01442
G1 X126.526 Y83.284 E.01856
G1 X126.991 Y83.806 E.02188
G1 X127.349 Y84.405 E.02189
G1 X127.532 Y84.865 E.01553
G1 X127.647 Y85.322 E.01478
G1 X127.709 Y85.982 E.02079
G1 X127.647 Y86.678 E.0219
G1 X127.455 Y87.349 E.02188
G1 X127.141 Y87.973 E.02189
G1 X126.716 Y88.526 E.0219
G1 X126.239 Y88.951 E.02
M204 S1000
G1 X126.238 Y89.388 F10800
;WIPE_START
G1 F8640
G1 X125.595 Y89.349 E-.17481
G1 X125.135 Y89.532 E-.11438
G1 X124.678 Y89.647 E-.10885
G1 X124.018 Y89.709 E-.15312
G1 X123.322 Y89.647 E-.16127
G1 X123.124 Y89.59 E-.04758
;WIPE_END
G1 E-.04 F2100
G1 Z.6 F720
G1 X124.582 Y81.025 F10800
G1 Z.2 F720
G1 E.8 F2100
M204 S800
;TYPE:Perimeter
G1 F1200
G1 X123.947 Y81.085 E.02
G1 X123.421 Y81.033 E.01657
G1 X122.914 Y80.888 E.01653
G1 X122.397 Y80.619 E.01826
G1 X122.143 Y80.464 E.00933
G1 X121.758 Y80.123 E.01614
G1 X121.424 Y79.698 E.01695
G1 X121.151 Y79.185 E.01821
G1 X120.98 Y78.63 E.01821
G1 X120.914 Y78.034 E.0188
G1 X120.96 Y77.474 E.01762
G1 X121.091 Y76.987 E.0158
G1 X121.367 Y76.392 E.02058
G1 X121.715 Y75.927 E.01821
G1 X122.143 Y75.536 E.0182
G1 X122.638 Y75.231 E.01822
G1 X123.181 Y75.026 E.0182
G1 X123.919 Y74.918 E.02339
G1 X124.524 Y74.96 E.01902
G1 X125.086 Y75.112 E.01825
G1 X125.608 Y75.367 E.01821
G1 X126.073 Y75.715 E.01821
G1 X126.47 Y76.152 E.01854
G1 X126.841 Y76.8 E.0234
G1 X127.02 Y77.37 E.01872
G1 X127.085 Y77.947 E.01821
G1 X127.04 Y78.526 E.01821
G1 X126.888 Y79.086 E.01821
G1 X126.633 Y79.608 E.01821
G1 X126.285 Y80.073 E.01821
G1 X125.881 Y80.443 E.01718
G1 X125.362 Y80.768 E.01921
G1 X124.64 Y81.009 E.02387
M204 S1000
G1 X124.575 Y80.639 F10800
M204 S800
;TYPE:External perimeter
G1 F1200
G1 X124.49 Y80.665 E.00278
G1 X123.982 Y80.709 E.01598
G1 X123.475 Y80.658 E.01599
G1 X122.981 Y80.51 E.01616
G1 X122.427 Y80.205 E.01984
G1 X122.037 Y79.868 E.01616
G1 X121.722 Y79.467 E.01599
G1 X121.487 Y79.014 E.01599
G1 X121.342 Y78.525 E.01599
G1 X121.29 Y78.011 E.01619
G1 X121.335 Y77.51 E.01579
G1 X121.474 Y77.019 E.01599
G1 X121.703 Y76.563 E.01599
G1 X122.013 Y76.158 E.01599
G1 X122.393 Y75.819 E.01598
G1 X122.83 Y75.556 E.016
G1 X123.309 Y75.38 E.01598
G1 X123.967 Y75.292 E.02082
G1 X124.49 Y75.335 E.01645
G1 X124.981 Y75.474 E.01601
G1 X125.437 Y75.703 E.01599
G1 X125.842 Y76.013 E.01599
G1 X126.187 Y76.401 E.01629
G1 X126.51 Y76.981 E.02082
G1 X126.658 Y77.475 E.01615
G1 X126.709 Y77.982 E.01599
G1 X126.665 Y78.49 E.01599
G1 X126.526 Y78.981 E.01599
G1 X126.297 Y79.437 E.01599
G1 X125.987 Y79.842 E.01599
G1 X125.607 Y80.181 E.01599
G1 X125.17 Y80.444 E.01598
G1 X124.632 Y80.622 E.01776
M204 S1000
G1 X124.558 Y80.726 F10800
;WIPE_START
G1 F8640
G1 X124.49 Y80.665 E-.03429
G1 X123.982 Y80.709 E-.11767
G1 X123.475 Y80.658 E-.11775
G1 X122.981 Y80.51 E-.11901
G1 X122.427 Y80.205 E-.14611
G1 X122.037 Y79.868 E-.11901
G1 X121.753 Y79.506 E-.10615
;WIPE_END
G1 E-.04 F2100
G1 Z.6 F720
G1 X124.005 Y74.078 F10800
G1 Z.2 F720
G1 E.8 F2100
M204 S800
;TYPE:Perimeter
G1 F1200
G1 X123.474 Y74.04 E.01667
G1 X122.914 Y73.888 E.0182
G1 X122.245 Y73.535 E.02371
G1 X121.788 Y73.15 E.01874
M73 P0 R249
G1 X121.424 Y72.698 E.01821
G1 X121.151 Y72.185 E.01821
G1 X120.98 Y71.63 E.01821
G1 X120.915 Y71.053 E.01821
G1 X120.96 Y70.474 E.01821
G1 X121.112 Y69.914 E.01821
G1 X121.367 Y69.392 E.01821
G1 X121.715 Y68.927 E.01821
G1 X122.144 Y68.536 E.01821
G1 X122.638 Y68.231 E.01821
G1 X123.181 Y68.026 E.0182
G1 X123.919 Y67.918 E.02339
G1 X124.524 Y67.96 E.01902
G1 X125.086 Y68.112 E.01825
G1 X125.608 Y68.367 E.01821
G1 X126.073 Y68.715 E.0182
G1 X126.565 Y69.289 E.02371
G1 X126.849 Y69.815 E.01874
G1 X127.02 Y70.37 E.01821
G1 X127.085 Y70.947 E.01821
G1 X127.04 Y71.526 E.01821
G1 X126.888 Y72.086 E.0182
G1 X126.633 Y72.608 E.01821
G1 X126.285 Y73.073 E.01821
G1 X125.856 Y73.464 E.01821
G1 X125.362 Y73.769 E.01821
G1 X124.819 Y73.974 E.0182
G1 X124.064 Y74.082 E.0239
M204 S1000
G1 X123.976 Y73.705 F10800
M204 S800
;TYPE:External perimeter
G1 F1200
G1 X123.51 Y73.665 E.01467
G1 X123.019 Y73.526 E.01598
G1 X122.427 Y73.205 E.02113
G1 X122.037 Y72.868 E.01616
G1 X121.722 Y72.467 E.01599
G1 X121.487 Y72.014 E.01599
G1 X121.342 Y71.525 E.01599
G1 X121.291 Y71.018 E.01599
G1 X121.335 Y70.51 E.01599
G1 X121.474 Y70.019 E.01599
G1 X121.703 Y69.563 E.01599
G1 X122.013 Y69.158 E.01599
G1 X122.393 Y68.819 E.01599
G1 X122.83 Y68.556 E.01599
G1 X123.309 Y68.38 E.01598
G1 X123.967 Y68.292 E.02082
G1 X124.49 Y68.335 E.01645
G1 X124.981 Y68.474 E.01601
G1 X125.437 Y68.703 E.01599
G1 X125.841 Y69.013 E.01598
G1 X126.275 Y69.529 E.02113
G1 X126.513 Y69.986 E.01616
G1 X126.658 Y70.475 E.01599
G1 X126.709 Y70.982 E.01599
G1 X126.665 Y71.49 E.01599
G1 X126.526 Y71.981 E.01598
G1 X126.297 Y72.437 E.016
G1 X125.987 Y72.842 E.01599
G1 X125.607 Y73.181 E.01599
G1 X125.17 Y73.444 E.01599
G1 X124.691 Y73.62 E.01598
G1 X124.036 Y73.707 E.02074
M204 S1000
G1 X123.781 Y74.054 F10800
;WIPE_START
G1 F8640
G1 X123.51 Y73.665 E-.12185
G1 X123.019 Y73.526 E-.11767
G1 X122.427 Y73.205 E-.15561
G1 X122.037 Y72.868 E-.11901
G1 X121.722 Y72.467 E-.11775
G1 X121.487 Y72.014 E-.11775
G1 X121.475 Y71.971 E-.01037
;WIPE_END
G1 E-.04 F2100
G1 Z.6 F720
G1 X110.071 Y75.997 F10800
G1 Z.2 F720
G1 E.8 F2100
M204 S800
;TYPE:Perimeter
G1 F1200
G1 X110.048 Y76.443 E.01399
G1 X110.002 Y76.818 E.01183
G1 X109.817 Y77.456 E.02083
G1 X109.431 Y78.219 E.02683
G1 X109.114 Y78.644 E.01663
G1 X108.645 Y79.113 E.0208
G1 X108.219 Y79.431 E.01664
G1 X107.553 Y79.778 E.02356
G1 X106.818 Y80.002 E.0241
G1 X106.053 Y80.085 E.02412
G1 X105.287 Y80.022 E.02412
G1 X104.546 Y79.817 E.0241
G1 X103.856 Y79.477 E.02411
G1 X103.423 Y79.171 E.01664
G1 X103.047 Y78.825 E.01601
G1 X102.582 Y78.236 E.02355
G1 X102.222 Y77.553 E.0242
G1 X101.998 Y76.818 E.02411
G1 X101.913 Y76.018 E.02522
G1 X101.978 Y75.287 E.023
G1 X102.183 Y74.546 E.02411
G1 X102.523 Y73.856 E.02411
G1 X102.829 Y73.423 E.01663
G1 X103.332 Y72.907 E.02259
G1 X103.983 Y72.448 E.02498
G1 X104.687 Y72.132 E.0242
G1 X105.435 Y71.954 E.02412
G1 X105.962 Y71.914 E.01658
G1 X106.71 Y71.977 E.02352
G1 X107.454 Y72.183 E.0242
