; generated by PrusaSlicer 2.5.2+MacOS-arm64 on 2023-04-30 at 22:00:54 UTC


;
;
; 

; external perimeters extrusion width = 0.45mm
; perimeters extrusion width = 0.45mm
; infill extrusion width = 0.45mm
; solid infill extrusion width = 0.45mm
; top infill extrusion width = 0.40mm
; support material extrusion width = 0.35mm
; first layer extrusion width = 0.42mm

M73 P0 R123
M73 Q0 S125
M201 X1000 Y1000 Z200 E5000 ; sets maximum accelerations, mm/sec^2
M203 X200 Y200 Z12 E120 ; sets maximum feedrates, mm / sec
M204 P1250 R1250 T1250 ; sets acceleration (P, T) and retract acceleration (R), mm/sec^2
M205 X8.00 Y8.00 Z0.40 E4.50 ; sets the jerk limits, mm/sec
M205 S0 T0 ; sets the minimum extruding and travel feed rate, mm/sec
M107
;TYPE:Custom
M862.3 P "MK3S" ; printer model check
M862.1 P0.4 ; nozzle diameter check
M115 U3.11.0 ; tell printer latest fw version
G90 ; use absolute coordinates
M83 ; extruder relative mode
M104 S215 ; set extruder temp
M140 S60 ; set bed temp
M190 S60 ; wait for bed temp
M109 S215 ; wait for extruder temp
G28 W ; home all without mesh bed level
G80 ; mesh bed leveling

G1 Z0.2 F720
G1 Y-3 F1000 ; go outside print area
G92 E0
G1 X60 E9 F1000 ; intro line
G1 X100 E12.5 F1000 ; intro line

G92 E0
M221 S95

; Don't change E values below. Excessive value can damage the printer.
M907 E430 ; set extruder motor current
G21 ; set units to millimeters
G90 ; use absolute coordinates
M83 ; use relative distances for extrusion
M900 K0.05 ; Filament gcode LA 1.5
M900 K30 ; Filament gcode LA 1.0
M107
;LAYER_CHANGE
;Z:0.2
;HEIGHT:0.2
;BEFORE_LAYER_CHANGE
G92 E0.0
;0.2


M73 Q0 S124
G1 E-.8 F2100
G1 Z.4 F720
;AFTER_LAYER_CHANGE
;0.2
G1 X48.341 Y11.226 F10800
G1 Z.2 F720
G1 E.8 F2100
M204 S800
;TYPE:Skirt/Brim
;WIDTH:0.42
G1 F1200
G1 X48.733 Y9.919 E.04278
G1 X49.973 Y8.968 E.049
G1 X50.841 Y8.84 E.0275
G1 X62.258 Y9.281 E.35823
G1 X63.229 Y9.53 E.03144
G1 X67.865 Y11.848 E.1625
G1 X68.482 Y12.294 E.02388
G1 X70.8 Y14.611 E.10278
G1 X71.496 Y16.292 E.05704
G1 X71.496 Y193.708 E5.56274
G1 X70.8 Y195.389 E.05704
G1 X68.482 Y197.706 E.10278
G1 X67.865 Y198.152 E.02388
G1 X63.229 Y200.469 E.1625
G1 X62.258 Y200.719 E.03144
G1 X50.841 Y201.16 E.35823
G1 X49.973 Y201.032 E.02749
G1 X48.855 Y200.25 E.04278
G1 X48.341 Y198.774 E.04901
G1 X48.341 Y11.286 E5.87857
M204 S1000
; printing object Full Edge Rib With Separate Side.stl id:0 copy 0
;WIPE_START
G1 F8640
G1 X48.733 Y9.919 E-.32835
G1 X49.973 Y8.968 E-.36087
G1 X50.277 Y8.924 E-.07079
;WIPE_END
G1 E-.04 F2100
G1 Z.6 F720
G1 X62.166 Y13.974 F10800
G1 Z.2 F720
G1 E.8 F2100
M204 S800
;TYPE:Support material
G1 F1200
G1 X66.802 Y13.974 E.14535
G1 X66.802 Y16.292 E.07267
G1 X69.119 Y16.292 E.07267
G1 X69.119 Y193.708 E5.56274
G1 X66.802 Y193.708 E.07267
M73 P0 R122
G1 X66.802 Y196.026 E.07267
G1 X62.166 Y196.026 E.14535
G1 X62.166 Y198.343 E.07267
G1 X53.629 Y198.343 E.26768
G1 X53.35 Y197.488 E.02821
G1 X64.236 Y189.579 E.42186
G1 X64.34 Y189.374 E.00723
G1 X64.34 Y20.626 E5.29098
G1 X64.236 Y20.421 E.00723
G1 X53.351 Y12.512 E.42186
G1 X53.629 Y11.657 E.02821
G1 X62.166 Y11.657 E.26768
G1 X62.166 Y13.918 E.0709
M204 S1000
;WIPE_START
G1 F8640
G1 X62.166 Y11.657 E-.52213
G1 X61.136 Y11.657 E-.23787
;WIPE_END
G1 E-.04 F2100
G1 Z.6 F720
G1 X68.631 Y193.538 F10800
G1 Z.2 F720
G1 E.8 F2100
M204 S800
G1 F1200
G1 X68.631 Y16.632 E5.54678
G1 X68.212 Y16.632 E.01314
G1 X68.212 Y193.368 E5.54146
G1 X67.793 Y193.368 E.01314
M73 Q0 S123
G1 X67.793 Y16.632 E5.54146
G1 X67.374 Y16.632 E.01314
M73 P1 R122
M73 Q1 S123
G1 X67.374 Y193.368 E5.54146
G1 X66.955 Y193.368 E.01314
G1 X66.955 Y16.632 E5.54146
G1 X66.536 Y16.632 E.01314
M73 P1 R121
G1 X66.536 Y193.368 E5.54146
G1 X66.462 Y193.368 E.00231
G1 X66.462 Y195.686 E.07267
G1 X66.117 Y195.686 E.01083
G1 X66.117 Y14.314 E5.68681
G1 X65.698 Y14.314 E.01314
G1 X65.698 Y195.686 E5.68681
G1 X65.279 Y195.686 E.01314
G1 X65.279 Y14.314 E5.68681
M73 Q1 S122
G1 X64.86 Y14.314 E.01314
G1 X64.86 Y195.686 E5.68681
G1 X64.441 Y195.686 E.01314
G1 X64.441 Y189.85 E.183
G1 X64.022 Y190.154 E.01624
G1 X64.022 Y195.686 E.17345
G1 X63.603 Y195.686 E.01314
G1 X63.603 Y190.459 E.16391
G1 X63.184 Y190.763 E.01624
G1 X63.184 Y195.686 E.15437
G1 X62.765 Y195.686 E.01314
G1 X62.765 Y191.067 E.14482
G1 X62.346 Y191.372 E.01624
G1 X62.346 Y195.686 E.13528
G1 X61.927 Y195.686 E.01314
G1 X61.927 Y191.676 E.12573
G1 X61.508 Y191.981 E.01624
G1 X61.508 Y198.004 E.18886
G1 X61.089 Y198.004 E.01314
G1 X61.089 Y192.285 E.17932
G1 X60.67 Y192.589 E.01624
G1 X60.67 Y198.004 E.16977
G1 X60.251 Y198.004 E.01314
G1 X60.251 Y192.894 E.16023
G1 X59.832 Y193.198 E.01624
G1 X59.832 Y198.004 E.15069
G1 X59.413 Y198.004 E.01314
G1 X59.413 Y193.502 E.14114
G1 X58.994 Y193.807 E.01624
G1 X58.994 Y198.004 E.1316
G1 X58.575 Y198.004 E.01314
G1 X58.575 Y194.111 E.12205
G1 X58.156 Y194.416 E.01624
G1 X58.156 Y198.004 E.11251
G1 X57.737 Y198.004 E.01314
G1 X57.737 Y194.72 E.10296
G1 X57.318 Y195.024 E.01624
G1 X57.318 Y198.004 E.09342
G1 X56.899 Y198.004 E.01314
G1 X56.899 Y195.329 E.08388
G1 X56.48 Y195.633 E.01624
G1 X56.48 Y198.004 E.07433
G1 X56.061 Y198.004 E.01314
G1 X56.061 Y195.938 E.06479
G1 X55.642 Y196.242 E.01624
G1 X55.642 Y198.004 E.05524
G1 X55.223 Y198.004 E.01314
G1 X55.223 Y196.546 E.0457
G1 X54.804 Y196.851 E.01624
G1 X54.804 Y198.004 E.03616
G1 X54.385 Y198.004 E.01314
G1 X54.385 Y197.155 E.02661
G1 X53.966 Y197.46 E.01624
G1 X53.966 Y198.174 E.02239
M204 S1000
;WIPE_START
G1 F8640
G1 X53.966 Y197.46 E-.16487
G1 X54.385 Y197.155 E-.11958
G1 X54.385 Y198.004 E-.19598
G1 X54.804 Y198.004 E-.09674
G1 X54.804 Y197.212 E-.18283
;WIPE_END
G1 E-.04 F2100
G1 Z.6 F720
G1 X64.441 Y20.45 F10800
G1 Z.2 F720
G1 E.8 F2100
M204 S800
G1 F1200
G1 X64.441 Y14.314 E.19238
G1 X64.022 Y14.314 E.01314
M73 P2 R121
G1 X64.022 Y19.846 E.17345
G1 X63.603 Y19.541 E.01624
M73 Q2 S122
G1 X63.603 Y14.314 E.16391
G1 X63.184 Y14.314 E.01314
G1 X63.184 Y19.237 E.15436
G1 X62.765 Y18.933 E.01624
G1 X62.765 Y14.314 E.14482
G1 X62.346 Y14.314 E.01314
G1 X62.346 Y18.628 E.13528
G1 X61.927 Y18.324 E.01624
G1 X61.927 Y14.314 E.12573
G1 X61.827 Y14.314 E.00315
G1 X61.827 Y11.996 E.07267
G1 X61.508 Y11.996 E.00999
G1 X61.508 Y18.019 E.18886
G1 X61.089 Y17.715 E.01624
G1 X61.089 Y11.996 E.17932
G1 X60.67 Y11.996 E.01314
G1 X60.67 Y17.411 E.16977
G1 X60.251 Y17.106 E.01624
G1 X60.251 Y11.996 E.16023
G1 X59.832 Y11.996 E.01314
G1 X59.832 Y16.802 E.15068
G1 X59.413 Y16.497 E.01624
G1 X59.413 Y11.996 E.14114
G1 X58.994 Y11.996 E.01314
G1 X58.994 Y16.193 E.1316
G1 X58.575 Y15.889 E.01624
G1 X58.575 Y11.996 E.12205
G1 X58.156 Y11.996 E.01314
M73 P2 R120
G1 X58.156 Y15.584 E.11251
G1 X57.737 Y15.28 E.01624
G1 X57.737 Y11.996 E.10296
G1 X57.318 Y11.996 E.01314
G1 X57.318 Y14.975 E.09342
G1 X56.899 Y14.671 E.01624
G1 X56.899 Y11.996 E.08388
G1 X56.48 Y11.996 E.01314
G1 X56.48 Y14.367 E.07433
G1 X56.061 Y14.062 E.01624
G1 X56.061 Y11.996 E.06479
G1 X55.642 Y11.996 E.01314
G1 X55.642 Y13.758 E.05524
G1 X55.223 Y13.453 E.01624
G1 X55.223 Y11.996 E.0457
G1 X54.804 Y11.996 E.01314
G1 X54.804 Y13.149 E.03615
G1 X54.385 Y12.845 E.01624
G1 X54.385 Y11.996 E.02661
G1 X53.966 Y11.996 E.01314
G1 X53.966 Y12.75 E.02364
M204 S1000
;WIPE_START
G1 F8640
G1 X53.966 Y11.996 E-.17411
G1 X54.385 Y11.996 E-.09674
G1 X54.385 Y12.845 E-.19597
G1 X54.804 Y13.149 E-.11958
G1 X54.804 Y12.397 E-.1736
;WIPE_END
G1 E-.04 F2100
G1 Z.6 F720
G1 X63.073 Y188.858 F10800
G1 Z.2 F720
G1 E.8 F2100
M204 S800
;TYPE:Perimeter
;WIDTH:0.419999
G1 F1200
G1 X52.273 Y196.705 E.41858
G1 X51.43 Y197.407 E.03441
G1 X51.495 Y196.786 E.01959
G1 X51.505 Y195.787 E.03132
G1 X51.505 Y14.218 E5.69294
G1 X51.492 Y13.163 E.0331
G1 X51.429 Y12.586 E.01818
G1 X52.309 Y13.321 E.03597
G1 X63.073 Y21.142 E.41717
G1 X63.073 Y188.798 E5.25671
M204 S1000
G1 X63.45 Y189.05 F10800
M204 S800
;TYPE:External perimeter
G1 F1200
G1 X52.486 Y197.017 E.42497
G1 X51.724 Y197.646 E.03097
G1 X51.408 Y198.02 E.01536
G1 X51.03 Y198.172 E.01278
G1 X50.951 Y197.781 E.01252
G1 X51.067 Y197.295 E.01565
G1 X51.118 Y196.782 E.01617
G1 X51.128 Y195.783 E.03132
G1 X51.128 Y14.218 E5.69283
G1 X51.123 Y13.683 E.01678
M73 Q2 S121
G1 X51.073 Y12.759 E.02903
G1 X50.952 Y12.223 E.01721
G1 X51.047 Y11.833 E.01259
G1 X51.382 Y11.995 E.01166
G1 X51.711 Y12.336 E.01487
G1 X52.531 Y13.016 E.0334
G1 X63.45 Y20.95 E.42319
G1 X63.45 Y188.99 E5.26876
M204 S1000
G1 X63.052 Y189.016 F10800
;WIPE_START
G1 F8640
G1 X60.795 Y190.934 E-.76
;WIPE_END
G1 E-.04 F2100
G1 Z.6 F720
G1 X60.135 Y19.147 F10800
G1 Z.2 F720
G1 E.8 F2100
M204 S800
;TYPE:Solid infill
;WIDTH:0.420401
G1 F1200
G1 X62.79 Y21.802 E.11786
G1 X62.79 Y22.336 E.01676
G1 X58.95 Y18.496 E.17048
G1 X56.997 Y17.077 E.07575
G1 X62.79 Y22.87 E.25715
G1 X62.79 Y23.404 E.01676
G1 X55.045 Y15.658 E.34382
G1 X53.092 Y14.24 E.07575
G1 X62.79 Y23.938 E.43048
G1 X62.79 Y24.472 E.01676
G1 X51.772 Y13.454 E.48907
G1 X51.784 Y13.999 E.0171
G1 X62.79 Y25.006 E.48859
G1 X62.79 Y25.539 E.01676
G1 X51.788 Y14.537 E.48839
G1 X51.788 Y15.071 E.01676
G1 X62.79 Y26.073 E.48839
G1 X62.79 Y26.607 E.01676
G1 X51.788 Y15.605 E.48839
G1 X51.788 Y16.138 E.01676
G1 X62.79 Y27.141 E.48839
G1 X62.79 Y27.675 E.01676
G1 X51.788 Y16.672 E.48839
G1 X51.788 Y17.206 E.01676
G1 X62.79 Y28.209 E.48839
G1 X62.79 Y28.742 E.01676
G1 X51.788 Y17.74 E.48839
G1 X51.788 Y18.274 E.01676
G1 X62.79 Y29.276 E.48839
G1 X62.79 Y29.81 E.01676
G1 X51.788 Y18.808 E.48839
G1 X51.788 Y19.341 E.01676
G1 X62.79 Y30.344 E.48839
G1 X62.79 Y30.878 E.01676
G1 X51.788 Y19.875 E.48839
G1 X51.788 Y20.409 E.01676
G1 X62.79 Y31.412 E.48839
G1 X62.79 Y31.945 E.01676
G1 X51.788 Y20.943 E.48839
G1 X51.788 Y21.477 E.01676
G1 X62.79 Y32.479 E.48839
G1 X62.79 Y33.013 E.01676
G1 X51.788 Y22.011 E.48839
G1 X51.788 Y22.544 E.01676
G1 X62.79 Y33.547 E.48839
G1 X62.79 Y34.081 E.01676
M73 P2 R119
G1 X51.788 Y23.078 E.48839
G1 X51.788 Y23.612 E.01676
G1 X62.79 Y34.615 E.48839
G1 X62.79 Y35.148 E.01676
G1 X51.788 Y24.146 E.48839
G1 X51.788 Y24.68 E.01676
G1 X62.79 Y35.682 E.48839
G1 X62.79 Y36.216 E.01676
G1 X51.788 Y25.214 E.48839
G1 X51.788 Y25.747 E.01676
G1 X62.79 Y36.75 E.48839
G1 X62.79 Y37.284 E.01676
G1 X51.788 Y26.281 E.48839
G1 X51.788 Y26.815 E.01676
G1 X62.79 Y37.818 E.48839
G1 X62.79 Y38.351 E.01676
G1 X51.788 Y27.349 E.48839
G1 X51.788 Y27.883 E.01676
G1 X62.79 Y38.885 E.48839
G1 X62.79 Y39.419 E.01676
G1 X51.788 Y28.417 E.48839
G1 X51.788 Y28.95 E.01676
G1 X62.79 Y39.953 E.48839
G1 X62.79 Y40.487 E.01676
M73 P3 R119
M73 Q3 S121
G1 X51.788 Y29.484 E.48839
G1 X51.788 Y30.018 E.01676
G1 X62.79 Y41.021 E.48839
G1 X62.79 Y41.555 E.01676
G1 X51.788 Y30.552 E.48839
G1 X51.788 Y31.086 E.01676
G1 X62.79 Y42.088 E.48839
G1 X62.79 Y42.622 E.01676
G1 X51.788 Y31.62 E.48839
G1 X51.788 Y32.154 E.01676
G1 X62.79 Y43.156 E.48839
G1 X62.79 Y43.69 E.01676
G1 X51.788 Y32.687 E.48839
G1 X51.788 Y33.221 E.01676
G1 X62.79 Y44.224 E.48839
G1 X62.79 Y44.758 E.01676
G1 X51.788 Y33.755 E.48839
G1 X51.788 Y34.289 E.01676
G1 X62.79 Y45.291 E.48839
G1 X62.79 Y45.825 E.01676
G1 X51.788 Y34.823 E.48839
G1 X51.788 Y35.357 E.01676
G1 X62.79 Y46.359 E.48839
G1 X62.79 Y46.893 E.01676
G1 X51.788 Y35.89 E.48839
G1 X51.788 Y36.424 E.01676
G1 X62.79 Y47.427 E.48839
G1 X62.79 Y47.961 E.01676
G1 X51.788 Y36.958 E.48839
G1 X51.788 Y37.492 E.01676
G1 X62.79 Y48.494 E.48839
G1 X62.79 Y49.028 E.01676
G1 X51.788 Y38.026 E.48839
G1 X51.788 Y38.56 E.01676
G1 X62.79 Y49.562 E.48839
G1 X62.79 Y50.096 E.01676
G1 X51.788 Y39.093 E.48839
G1 X51.788 Y39.627 E.01676
G1 X62.79 Y50.63 E.48839
G1 X62.79 Y51.164 E.01676
G1 X51.788 Y40.161 E.48839
G1 X51.788 Y40.695 E.01676
G1 X62.79 Y51.697 E.48839
G1 X62.79 Y52.231 E.01676
M73 Q3 S120
G1 X51.788 Y41.229 E.48839
G1 X51.788 Y41.763 E.01676
G1 X62.79 Y52.765 E.48839
G1 X62.79 Y53.299 E.01676
G1 X51.788 Y42.296 E.48839
G1 X51.788 Y42.83 E.01676
G1 X62.79 Y53.833 E.48839
G1 X62.79 Y54.367 E.01676
G1 X51.788 Y43.364 E.48839
G1 X51.788 Y43.898 E.01676
G1 X62.79 Y54.9 E.48839
G1 X62.79 Y55.434 E.01676
G1 X51.788 Y44.432 E.48839
G1 X51.788 Y44.966 E.01676
G1 X62.79 Y55.968 E.48839
G1 X62.79 Y56.502 E.01676
G1 X51.788 Y45.499 E.48839
G1 X51.788 Y46.033 E.01676
G1 X62.79 Y57.036 E.48839
G1 X62.79 Y57.57 E.01676
G1 X51.788 Y46.567 E.48839
G1 X51.788 Y47.101 E.01676
G1 X62.79 Y58.104 E.48839
G1 X62.79 Y58.637 E.01676
G1 X51.788 Y47.635 E.48839
G1 X51.788 Y48.169 E.01676
G1 X62.79 Y59.171 E.48839
G1 X62.79 Y59.705 E.01676
G1 X51.788 Y48.703 E.48839
G1 X51.788 Y49.236 E.01676
G1 X62.79 Y60.239 E.48839
G1 X62.79 Y60.773 E.01676
G1 X51.788 Y49.77 E.48839
G1 X51.788 Y50.304 E.01676
G1 X62.79 Y61.307 E.48839
G1 X62.79 Y61.84 E.01676
G1 X51.788 Y50.838 E.48839
G1 X51.788 Y51.372 E.01676
G1 X62.79 Y62.374 E.48839
G1 X62.79 Y62.908 E.01676
G1 X51.788 Y51.906 E.48839
G1 X51.788 Y52.439 E.01676
G1 X62.79 Y63.442 E.48839
G1 X62.79 Y63.976 E.01676
G1 X51.788 Y52.973 E.48839
G1 X51.788 Y53.507 E.01676
G1 X62.79 Y64.51 E.48839
G1 X62.79 Y65.043 E.01676
G1 X51.788 Y54.041 E.48839
G1 X51.788 Y54.575 E.01676
G1 X62.79 Y65.577 E.48839
G1 X62.79 Y66.111 E.01676
G1 X51.788 Y55.109 E.48839
G1 X51.788 Y55.642 E.01676
G1 X62.79 Y66.645 E.48839
G1 X62.79 Y67.179 E.01676
G1 X51.788 Y56.176 E.48839
G1 X51.788 Y56.71 E.01676
G1 X62.79 Y67.713 E.48839
G1 X62.79 Y68.246 E.01676
G1 X51.788 Y57.244 E.48839
G1 X51.788 Y57.778 E.01676
G1 X62.79 Y68.78 E.48839
G1 X62.79 Y69.314 E.01676
G1 X51.788 Y58.312 E.48839
G1 X51.788 Y58.845 E.01676
G1 X62.79 Y69.848 E.48839
G1 X62.79 Y70.382 E.01676
G1 X51.788 Y59.379 E.48839
G1 X51.788 Y59.913 E.01676
G1 X62.79 Y70.916 E.48839
G1 X62.79 Y71.449 E.01676
G1 X51.788 Y60.447 E.48839
G1 X51.788 Y60.981 E.01676
G1 X62.79 Y71.983 E.48839
G1 X62.79 Y72.517 E.01676
G1 X51.788 Y61.515 E.48839
G1 X51.788 Y62.048 E.01676
G1 X62.79 Y73.051 E.48839
G1 X62.79 Y73.585 E.01676
M73 P3 R118
G1 X51.788 Y62.582 E.48839
G1 X51.788 Y63.116 E.01676
G1 X62.79 Y74.119 E.48839
G1 X62.79 Y74.653 E.01676
G1 X51.788 Y63.65 E.48839
G1 X51.788 Y64.184 E.01676
G1 X62.79 Y75.186 E.48839
G1 X62.79 Y75.72 E.01676
G1 X51.788 Y64.718 E.48839
G1 X51.788 Y65.252 E.01676
G1 X62.79 Y76.254 E.48839
G1 X62.79 Y76.788 E.01676
G1 X51.788 Y65.785 E.48839
G1 X51.788 Y66.319 E.01676
G1 X62.79 Y77.322 E.48839
G1 X62.79 Y77.856 E.01676
G1 X51.788 Y66.853 E.48839
G1 X51.788 Y67.387 E.01676
G1 X62.79 Y78.389 E.48839
G1 X62.79 Y78.923 E.01676
G1 X51.788 Y67.921 E.48839
G1 X51.788 Y68.455 E.01676
G1 X62.79 Y79.457 E.48839
G1 X62.79 Y79.991 E.01676
G1 X51.788 Y68.988 E.48839
G1 X51.788 Y69.522 E.01676
G1 X62.79 Y80.525 E.48839
G1 X62.79 Y81.059 E.01676
G1 X51.788 Y70.056 E.48839
G1 X51.788 Y70.59 E.01676
G1 X62.79 Y81.592 E.48839
G1 X62.79 Y82.126 E.01676
G1 X51.788 Y71.124 E.48839
G1 X51.788 Y71.658 E.01676
G1 X62.79 Y82.66 E.48839
G1 X62.79 Y83.194 E.01676
G1 X51.788 Y72.191 E.48839
G1 X51.788 Y72.725 E.01676
G1 X62.79 Y83.728 E.48839
G1 X62.79 Y84.262 E.01676
G1 X51.788 Y73.259 E.48839
G1 X51.788 Y73.793 E.01676
G1 X62.79 Y84.795 E.48839
G1 X62.79 Y85.329 E.01676
G1 X51.788 Y74.327 E.48839
G1 X51.788 Y74.861 E.01676
G1 X62.79 Y85.863 E.48839
G1 X62.79 Y86.397 E.01676
G1 X51.788 Y75.394 E.48839
G1 X51.788 Y75.928 E.01676
G1 X62.79 Y86.931 E.48839
G1 X62.79 Y87.465 E.01676
G1 X51.788 Y76.462 E.48839
G1 X51.788 Y76.996 E.01676
G1 X62.79 Y87.998 E.48839
G1 X62.79 Y88.532 E.01676
G1 X51.788 Y77.53 E.48839
G1 X51.788 Y78.064 E.01676
M73 P4 R118
G1 X62.79 Y89.066 E.48839
G1 X62.79 Y89.6 E.01676
M73 Q4 S120
G1 X51.788 Y78.597 E.48839
G1 X51.788 Y79.131 E.01676
G1 X62.79 Y90.134 E.48839
G1 X62.79 Y90.668 E.01676
G1 X51.788 Y79.665 E.48839
G1 X51.788 Y80.199 E.01676
G1 X62.79 Y91.202 E.48839
G1 X62.79 Y91.735 E.01676
M73 Q4 S119
G1 X51.788 Y80.733 E.48839
G1 X51.788 Y81.267 E.01676
G1 X62.79 Y92.269 E.48839
G1 X62.79 Y92.803 E.01676
G1 X51.788 Y81.801 E.48839
G1 X51.788 Y82.334 E.01676
G1 X62.79 Y93.337 E.48839
G1 X62.79 Y93.871 E.01676
G1 X51.788 Y82.868 E.48839
G1 X51.788 Y83.402 E.01676
G1 X62.79 Y94.405 E.48839
G1 X62.79 Y94.938 E.01676
G1 X51.788 Y83.936 E.48839
G1 X51.788 Y84.47 E.01676
G1 X62.79 Y95.472 E.48839
G1 X62.79 Y96.006 E.01676
