; generated by PrusaSlicer 2.5.0+MacOS-arm64 on 2023-04-09 at 21:39:41 UTC


;
;
; 

; external perimeters extrusion width = 0.45mm
; perimeters extrusion width = 0.45mm
; infill extrusion width = 0.45mm
; solid infill extrusion width = 0.45mm
; top infill extrusion width = 0.40mm
; first layer extrusion width = 0.42mm

M73 P0 R37
M73 Q0 S37
M201 X1000 Y1000 Z200 E5000 ; sets maximum accelerations, mm/sec^2
M203 X200 Y200 Z12 E120 ; sets maximum feedrates, mm / sec
M204 P1250 R1250 T1250 ; sets acceleration (P, T) and retract acceleration (R), mm/sec^2
M205 X8.00 Y8.00 Z0.40 E4.50 ; sets the jerk limits, mm/sec
M205 S0 T0 ; sets the minimum extruding and travel feed rate, mm/sec
M107
;TYPE:Custom
M862.3 P "MK3S" ; printer model check
M862.1 P0.4 ; nozzle diameter check
M115 U3.11.0 ; tell printer latest fw version
G90 ; use absolute coordinates
M83 ; extruder relative mode
M104 S215 ; set extruder temp
M140 S60 ; set bed temp
M190 S60 ; wait for bed temp
M109 S215 ; wait for extruder temp
G28 W ; home all without mesh bed level
G80 ; mesh bed leveling

G1 Z0.2 F720
G1 Y-3 F1000 ; go outside print area
G92 E0
G1 X60 E9 F1000 ; intro line
G1 X100 E12.5 F1000 ; intro line

G92 E0
M221 S95

; Don't change E values below. Excessive value can damage the printer.
M907 E430 ; set extruder motor current
G21 ; set units to millimeters
G90 ; use absolute coordinates
M83 ; use relative distances for extrusion
M900 K0.05 ; Filament gcode LA 1.5
M900 K30 ; Filament gcode LA 1.0
M107
;LAYER_CHANGE
;Z:0.2
;HEIGHT:0.2
;BEFORE_LAYER_CHANGE
G92 E0.0
;0.2


G1 E-.8 F2100
G1 Z.4 F720
;AFTER_LAYER_CHANGE
;0.2
G1 X123.054 Y106.583 F10800
G1 Z.2 F720
G1 E.8 F2100
M204 S800
;TYPE:Skirt/Brim
;WIDTH:0.42
G1 F1200
G1 X124.12 Y105.569 E.04612
G1 X125.415 Y105.246 E.04186
G1 X143.415 Y105.246 E.56438
G1 X144.832 Y105.639 E.04612
G1 X145.878 Y106.768 E.04827
G1 X153.928 Y122.868 E.56438
G1 X154.211 Y124.311 E.04612
G1 X153.71 Y125.694 E.04612
G1 X152.697 Y126.563 E.04186
G1 X148.448 Y128.687 E.14893
G1 X147.005 Y128.97 E.04612
G1 X145.768 Y128.567 E.04077
G1 X123.967 Y115.093 E.80358
G1 X122.968 Y114.014 E.04612
G1 X122.661 Y112.75 E.04077
G1 X122.661 Y108 E.14893
G1 X123.038 Y106.64 E.04424
M204 S1000
G1 X123.412 Y106.752 F10800
M204 S800
G1 F1200
G1 X123.43 Y106.693 E.00195
G1 X124.475 Y105.817 E.04278
G1 X125.415 Y105.623 E.03008
G1 X143.415 Y105.623 E.56438
G1 X144.722 Y106.015 E.04278
G1 X145.541 Y106.937 E.03868
G1 X153.591 Y123.037 E.56438
G1 X153.825 Y124.381 E.04278
G1 X153.282 Y125.632 E.04278
G1 X152.528 Y126.226 E.03008
G1 X148.279 Y128.35 E.14893
G1 X146.935 Y128.584 E.04278
G1 X145.967 Y128.246 E.03217
G1 X124.165 Y114.772 E.80358
G1 X123.259 Y113.752 E.04278
G1 X123.038 Y112.75 E.03217
G1 X123.038 Y108 E.14893
G1 X123.395 Y106.81 E.03895
M204 S1000
; printing object Edge Rib.stl id:0 copy 0
;WIPE_START
G1 F8640
G1 X123.43 Y106.693 E-.0282
G1 X124.475 Y105.817 E-.31505
G1 X125.415 Y105.623 E-.22155
G1 X126.26 Y105.623 E-.1952
;WIPE_END
G1 E-.04 F2100
G1 Z.6 F720
G1 X128.968 Y113.509 F10800
G1 Z.2 F720
G1 E.8 F2100
M204 S800
;TYPE:Perimeter
;WIDTH:0.373654
G1 F1200
G1 X128.739 Y113.909 E.01268
G1 X128.041 Y113.495 E.02233
G1 X128.908 Y113.509 E.02385
M204 S1000
;WIPE_START
G1 F8640
G1 X128.739 Y113.909 E-.10034
G1 X128.041 Y113.495 E-.18745
G1 X128.908 Y113.509 E-.20028
;WIPE_END
G1 E-.31193 F2100
G1 Z.6 F720
G1 X141.237 Y114.931 F10800
G1 Z.2 F720
G1 E.8 F2100
M204 S800
;WIDTH:0.419999
G1 F1200
G1 X141.097 Y115.048 E.00573
G1 X140.987 Y115.333 E.00957
G1 X141.044 Y115.64 E.00978
G1 X144.433 Y122.408 E.23731
G1 X130.073 Y113.533 E.52927
G1 X137.642 Y113.537 E.23731
G1 X137.942 Y113.451 E.00978
G1 X138.148 Y113.226 E.00957
G1 X138.208 Y112.971 E.0082
G1 X138.208 Y109.279 E.11579
G1 X137.717 Y108.787 E.02179
G1 X142.929 Y108.787 E.16342
G1 X145.224 Y113.378 E.16095
G1 X144.6 Y113.229 E.02012
G1 X141.283 Y114.893 E.11636
M204 S1000
;WIPE_START
G1 F8640
G1 X141.097 Y115.048 E-.05603
G1 X140.987 Y115.333 E-.07045
G1 X141.044 Y115.64 E-.07205
G1 X142.133 Y117.814 E-.56148
;WIPE_END
G1 E-.04 F2100
G1 Z.6 F720
G1 X144.82 Y123.17 F10800
G1 Z.2 F720
G1 E.8 F2100
M204 S800
;WIDTH:0.411091
G1 F1200
G1 X145.33 Y124.154 E.03393
G1 X144.601 Y123.69 E.02646
G1 X144.82 Y123.23 E.0156
M204 S1000
;WIPE_START
G1 F8640
G1 X145.33 Y124.154 E-.24373
G1 X144.601 Y123.69 E-.19959
G1 X144.82 Y123.23 E-.11763
;WIPE_END
G1 E-.23906 F2100
G1 Z.6 F720
G1 X141.466 Y115.218 F10800
G1 Z.2 F720
G1 E.8 F2100
M204 S800
;TYPE:External perimeter
;WIDTH:0.419999
G1 F1200
G1 X141.382 Y115.302 E.00372
G1 X141.381 Y115.471 E.0053
;WIDTH:0.469883
G1 X144.844 Y122.441 E.27631
;WIDTH:0.510123
G1 X144.944 Y122.688 E.01033
G1 X145.141 Y123.03 E.01536
;WIDTH:0.465061
G1 X145.338 Y123.373 E.01388
;WIDTH:0.419999
G1 X145.575 Y123.845 E.01656
G1 X145.865 Y124.302 E.01695
G1 X146.394 Y125.048 E.02868
G1 X146.698 Y125.657 E.02134
G1 X146.131 Y125.306 E.0209
G1 X145.423 Y124.677 E.02969
G1 X145.007 Y124.383 E.01597
G1 X144.116 Y123.827 E.03295
G1 X144.486 Y123.086 E.02598
;WIDTH:0.465061
G1 X144.506 Y122.991 E.00339
;WIDTH:0.510123
G1 X144.527 Y122.897 E.00375
G1 X144.43 Y122.82 E.0048
;WIDTH:0.469883
G1 X137.796 Y118.749 E.27631
;WIDTH:0.419999
G1 X136.314 Y117.833 E.05465
;WIDTH:0.433408
G1 X129.51 Y113.62 E.25984
;WIDTH:0.452462
M73 Q1 S37
G1 X129.407 Y113.581 E.00373
M73 P1 R37
G1 X129.238 Y113.702 E.00706
;WIDTH:0.419999
G1 X128.883 Y114.413 E.02492
G1 X128.05 Y113.903 E.03064
G1 X127.601 Y113.662 E.01597
G1 X126.721 Y113.311 E.02969
G1 X126.154 Y112.96 E.0209
G1 X126.853 Y112.963 E.02192
G1 X127.792 Y113.127 E.02988
G1 X128.296 Y113.155 E.01582
G1 X128.901 Y113.155 E.01897
;WIDTH:0.433408
G1 X137.642 Y113.16 E.28383
;WIDTH:0.419999
G1 X137.79 Y113.089 E.00512
G1 X137.831 Y112.971 E.00392
G1 X137.831 Y109.279 E.11579
;WIDTH:0.457865
G1 X137.784 Y109.212 E.0028
;WIDTH:0.49573
G1 X137.737 Y109.146 E.00306
;WIDTH:0.533596
G1 X137.69 Y109.08 E.00331
;WIDTH:0.571461
G1 X137.643 Y109.014 E.00357
G1 X125.901 Y109.014 E.51603
G1 X125.901 Y108.486 E.02323
G1 X137.643 Y108.486 E.51603
G1 X137.907 Y108.467 E.01164
;WIDTH:0.533596
G1 X138.171 Y108.448 E.01081
;WIDTH:0.49573
G1 X138.435 Y108.429 E.00998
;WIDTH:0.457865
G1 X138.7 Y108.41 E.00914
;WIDTH:0.419999
G1 X143.162 Y108.41 E.1399
G1 X145.157 Y112.401 E.1399
;WIDTH:0.457866
G1 X145.258 Y112.646 E.00914
;WIDTH:0.495732
G1 X145.36 Y112.891 E.00998
;WIDTH:0.533598
G1 X145.461 Y113.135 E.01081
;WIDTH:0.571464
G1 X145.562 Y113.38 E.01164
G1 X150.813 Y123.882 E.51603
G1 X150.34 Y124.119 E.02323
G1 X145.089 Y113.617 E.51603
;WIDTH:0.575469
G1 X145.067 Y113.576 E.00204
G1 X144.992 Y113.574 E.0033
;WIDTH:0.536602
G1 X144.918 Y113.571 E.00306
;WIDTH:0.497734
G1 X144.843 Y113.569 E.00282
;WIDTH:0.458867
G1 X144.769 Y113.566 E.00258
;WIDTH:0.419999
G1 X141.519 Y115.191 E.11391
M204 S1000
;WIPE_START
G1 F8640
G1 X141.382 Y115.302 E-.04081
G1 X141.381 Y115.471 E-.03906
G1 X142.692 Y118.109 E-.68013
;WIPE_END
G1 E-.04 F2100
G1 Z.6 F720
G1 X143.652 Y110.487 F10800
G1 Z.2 F720
G1 E.8 F2100
M204 S800
;TYPE:Solid infill
;WIDTH:0.431243
G1 F1200
G1 X142.235 Y109.07 E.0647
G1 X141.686 Y109.07 E.01773
G1 X143.822 Y111.206 E.09753
G1 X144.371 Y112.304 E.03965
G1 X141.137 Y109.07 E.14769
G1 X140.588 Y109.07 E.01773
G1 X144.487 Y112.969 E.17806
G1 X144.121 Y113.152 E.01322
G1 X140.038 Y109.07 E.18642
G1 X139.489 Y109.07 E.01773
G1 X143.755 Y113.335 E.19478
G1 X143.389 Y113.519 E.01322
G1 X138.94 Y109.07 E.20314
G1 X138.391 Y109.07 E.01773
G1 X143.023 Y113.702 E.2115
G1 X142.656 Y113.885 E.01322
G1 X138.491 Y109.719 E.19021
G1 X138.491 Y110.268 E.01773
G1 X142.29 Y114.068 E.1735
G1 X141.924 Y114.251 E.01322
G1 X138.491 Y110.817 E.15678
G1 X138.491 Y111.367 E.01773
G1 X141.558 Y114.434 E.14006
G1 X141.192 Y114.617 E.01322
G1 X138.491 Y111.916 E.12334
G1 X138.491 Y112.465 E.01773
G1 X140.886 Y114.86 E.10937
G1 X140.777 Y115.034 E.00664
G1 X140.721 Y115.244 E.007
G1 X138.486 Y113.009 E.10204
G1 X138.451 Y113.232 E.00728
G1 X138.352 Y113.424 E.00699
G1 X140.889 Y115.961 E.11585
G1 X141.44 Y117.061 E.03972
G1 X138.077 Y113.699 E.15355
G1 X137.896 Y113.782 E.00645
G1 X137.649 Y113.82 E.00806
G1 X141.99 Y118.161 E.19824
G1 X142.541 Y119.261 E.03972
G1 X137.1 Y113.82 E.24848
G1 X136.55 Y113.819 E.01774
G1 X143.092 Y120.361 E.29871
G1 X143.642 Y121.461 E.03972
G1 X136.001 Y113.819 E.34895
G1 X135.451 Y113.819 E.01774
G1 X142.534 Y120.902 E.32344
G1 X141.097 Y120.013 E.05457
G1 X134.902 Y113.818 E.28288
G1 X134.352 Y113.818 E.01774
G1 X139.659 Y119.125 E.24232
G1 X138.221 Y118.236 E.05457
G1 X133.803 Y113.818 E.20175
G1 X133.253 Y113.817 E.01774
G1 X136.783 Y117.347 E.16119
G1 X135.346 Y116.459 E.05457
G1 X132.704 Y113.817 E.12063
G1 X132.154 Y113.817 E.01774
G1 X133.908 Y115.57 E.08007
G1 X132.47 Y114.682 E.05457
G1 X131.435 Y113.647 E.04726
M204 S1000
; stop printing object Edge Rib.stl id:0 copy 0
M106 S84.15
;LAYER_CHANGE
;Z:0.35
;HEIGHT:0.15
;BEFORE_LAYER_CHANGE
G92 E0.0
;0.35


;WIPE_START
G1 F8640
G1 X132.47 Y114.682 E-.33795
G1 X133.908 Y115.57 E-.39027
G1 X133.811 Y115.473 E-.03178
;WIPE_END
G1 E-.04 F2100
G1 Z.6 F720
;AFTER_LAYER_CHANGE
;0.35
M73 P1 R36
G1 X131.26 Y119.6 F10800
G1 Z.35 F720
G1 E.8 F2100
;TYPE:Skirt/Brim
;WIDTH:0.42
G1 F3000
G1 X123.967 Y115.093 E.20734
G1 X122.968 Y114.014 E.03557
G1 X122.661 Y112.75 E.03145
G1 X122.661 Y108 E.11488
G1 X123.054 Y106.583 E.03557
G1 X124.12 Y105.569 E.03557
G1 X125.415 Y105.246 E.03229
G1 X143.415 Y105.246 E.43533
G1 X144.832 Y105.639 E.03557
M73 Q1 S36
G1 X145.878 Y106.768 E.03723
G1 X153.928 Y122.868 E.43533
G1 X154.211 Y124.311 E.03557
G1 X153.71 Y125.694 E.03557
G1 X152.697 Y126.563 E.03229
G1 X148.448 Y128.687 E.11488
G1 X147.005 Y128.97 E.03557
G1 X145.768 Y128.567 E.03145
G1 X131.311 Y119.632 E.41104
G1 X131.509 Y119.311 F10800
G1 F3000
G1 X124.165 Y114.772 E.20879
G1 X123.259 Y113.752 E.033
G1 X123.038 Y112.75 E.02481
G1 X123.038 Y108 E.11488
G1 X123.43 Y106.693 E.033
G1 X124.475 Y105.817 E.033
G1 X125.415 Y105.623 E.02321
G1 X143.415 Y105.623 E.43533
G1 X144.722 Y106.015 E.033
G1 X145.541 Y106.937 E.02983
G1 X153.591 Y123.037 E.43533
G1 X153.825 Y124.381 E.033
G1 X153.282 Y125.632 E.033
G1 X152.528 Y126.226 E.02321
G1 X148.279 Y128.35 E.11488
G1 X146.935 Y128.584 E.033
G1 X145.967 Y128.246 E.02481
G1 X131.56 Y119.342 E.40959
; printing object Edge Rib.stl id:0 copy 0
;WIPE_START
G1 F8640
G1 X128.76 Y117.612 E-.76
;WIPE_END
G1 E-.04 F2100
G1 Z.75 F720
G1 X144.68 Y122.762 F10800
G1 Z.35 F720
G1 E.8 F2100
M204 S800
;TYPE:Perimeter
;WIDTH:0.605318
G1 F1500
G1 X145.014 Y123.383 E.02519
;WIDTH:0.561887
G1 X145.491 Y124.336 E.03523
G1 X144.492 Y123.719 E.03879
G1 X144.661 Y123.383 E.01242
;WIDTH:0.605318
G1 X144.678 Y122.822 E.02004
M204 S1000
;WIPE_START
G1 F8640
G1 X145.014 Y123.383 E-.1509
G1 X145.491 Y124.336 E-.24623
G1 X144.492 Y123.719 E-.27116
G1 X144.661 Y123.383 E-.08685
G1 X144.661 Y123.362 E-.00486
;WIPE_END
G1 E-.04 F2100
G1 Z.75 F720
G1 X129.376 Y113.427 F10800
G1 Z.35 F720
G1 E.8 F2100
M204 S800
;WIDTH:0.524229
G1 F1500
G1 X128.897 Y113.782 E.0183
G1 X128.774 Y114.027 E.0084
G1 X127.809 Y113.43 E.03483
G1 X129.316 Y113.428 E.04626
M204 S1000
;WIPE_START
G1 F8640
G1 X128.897 Y113.782 E-.12679
G1 X128.774 Y114.027 E-.06318
G1 X127.809 Y113.43 E-.26213
G1 X129.142 Y113.428 E-.3079
;WIPE_END
G1 E-.04 F2100
G1 Z.75 F720
G1 X141.494 Y114.95 F10800
G1 Z.35 F720
G1 E.8 F2100
M204 S800
;WIDTH:0.449999
G1 F2700
G1 X141.446 Y114.979 E.00147
G1 X141.267 Y115.194 E.00728
G1 X141.2 Y115.446 E.00681
G1 X141.265 Y115.759 E.00832
;WIDTH:0.498839
G1 X144.549 Y122.381 E.2151
;WIDTH:0.537891
G1 X144.573 Y122.472 E.00298
;WIDTH:0.576943
G1 X144.597 Y122.564 E.00321
;WIDTH:0.615994
G1 X144.62 Y122.655 E.00344
G1 X144.544 Y122.611 E.0032
;WIDTH:0.576943
G1 X144.468 Y122.567 E.00298
;WIDTH:0.537891
G1 X144.392 Y122.523 E.00277
;WIDTH:0.498839
G1 X138.092 Y118.658 E.2151
;WIDTH:0.449999
G1 X136.263 Y117.528 E.05604
;WIDTH:0.45346
G1 X129.821 Y113.544 E.19898
;WIDTH:0.481412
G1 X129.655 Y113.483 E.00493
;WIDTH:0.509364
G1 X129.49 Y113.422 E.00524
G1 X129.677 Y113.409 E.00556
;WIDTH:0.481412
G1 X129.863 Y113.395 E.00524
;WIDTH:0.45346
G1 X137.437 Y113.393 E.19898
;WIDTH:0.449999
G1 X137.654 Y113.354 E.00574
G1 X137.846 Y113.241 E.00582
G1 X137.997 Y113.048 E.00638
G1 X138.064 Y112.766 E.00755
G1 X138.064 Y109.484 E.08552
G1 X137.939 Y109.108 E.01033
G1 X137.771 Y109.041 E.00469
;WIDTH:0.416095
G1 X137.604 Y108.975 E.00431
;WIDTH:0.382191
G1 X137.437 Y108.908 E.00393
;WIDTH:0.348287
G1 X126.007 Y108.908 E.22532
G1 X126.007 Y108.592 E.00623
G1 X137.437 Y108.592 E.22532
;WIDTH:0.382191
G1 X137.682 Y108.609 E.00535
;WIDTH:0.416095
G1 X137.926 Y108.626 E.00587
;WIDTH:0.449999
G1 X138.171 Y108.643 E.00639
G1 X143.018 Y108.643 E.12628
G1 X145.185 Y112.978 E.12628
M73 Q2 S36
G1 X145.31 Y113.189 E.00639
;WIDTH:0.416096
G1 X145.434 Y113.4 E.00587
;WIDTH:0.382193
G1 X145.559 Y113.612 E.00535
;WIDTH:0.348289
G1 X150.671 Y123.835 E.22532
G1 X150.388 Y123.976 E.00623
M73 P2 R36
G1 X145.276 Y113.753 E.22532
;WIDTH:0.353852
G1 X145.226 Y113.666 E.00201
;WIDTH:0.401926
G1 X145.05 Y113.53 E.00514
;WIDTH:0.449999
G1 X144.873 Y113.394 E.00581
G1 X144.481 Y113.45 E.01033
G1 X141.545 Y114.918 E.08553
M204 S1000
G1 X141.732 Y115.291 F10800
M204 S800
;TYPE:External perimeter
G1 F1500
G1 X141.623 Y115.427 E.00454
G1 X141.639 Y115.572 E.00379
G1 X146.661 Y125.616 E.29261
G1 X143.875 Y123.894 E.08533
G1 X144.237 Y123.171 E.02108
G1 X144.237 Y122.984 E.00487
G1 X144.16 Y122.9 E.00297
G1 X129.6 Y113.901 E.44597
G1 X129.49 Y113.87 E.00297
G1 X129.303 Y113.985 E.00572
G1 X128.958 Y114.675 E.0201
G1 X126.207 Y112.975 E.08427
G1 X137.437 Y112.975 E.29261
G1 X137.574 Y112.924 E.00379
G1 X137.646 Y112.766 E.00454
G1 X137.646 Y109.484 E.08552
G1 X137.604 Y109.359 E.00344
G1 X137.437 Y109.275 E.00487
G1 X125.64 Y109.275 E.30738
G1 X125.64 Y108.225 E.02736
G1 X143.276 Y108.225 E.45952
G1 X151.163 Y123.999 E.45952
G1 X150.224 Y124.469 E.02736
G1 X144.948 Y113.917 E.30738
G1 X144.799 Y113.805 E.00487
G1 X144.668 Y113.824 E.00344
G1 X141.786 Y115.265 E.08396
M204 S1000
G1 X141.566 Y115.24 F10800
;WIPE_START
G1 F8640
G1 X141.623 Y115.427 E-.0531
G1 X141.639 Y115.572 E-.03359
G1 X142.943 Y118.18 E-.6733
;WIPE_END
G1 E-.04 F2100
G1 Z.75 F720
G1 X143.459 Y121.828 F10800
G1 Z.35 F720
G1 E.8 F2100
;TYPE:Solid infill
;WIDTH:0.454743
G1 F3908
G1 X143.786 Y121.501 E.01219
G1 X143.587 Y121.102 E.01174
G1 X143.226 Y121.463 E.01344
G1 X142.857 Y121.235 E.01144
G1 X143.387 Y120.704 E.01978
G1 X143.188 Y120.306 E.01174
G1 X142.487 Y121.006 E.02612
G1 X142.118 Y120.778 E.01144
G1 X142.989 Y119.907 E.03246
G1 X142.79 Y119.509 E.01174
G1 X141.749 Y120.55 E.0388
G1 X141.379 Y120.322 E.01144
G1 X142.591 Y119.11 E.04514
G1 X142.391 Y118.712 E.01174
G1 X141.01 Y120.093 E.05148
G1 X140.641 Y119.865 E.01144
G1 X142.192 Y118.314 E.05782
G1 X141.993 Y117.915 E.01174
G1 X140.271 Y119.637 E.06416
G1 X139.902 Y119.409 E.01144
G1 X141.794 Y117.517 E.0705
G1 X141.595 Y117.119 E.01174
G1 X139.533 Y119.18 E.07684
G1 X139.163 Y118.952 E.01144
G1 X141.395 Y116.72 E.08318
G1 X141.196 Y116.322 E.01174
G1 X138.794 Y118.724 E.08952
G1 X138.425 Y118.496 E.01144
G1 X141.143 Y115.777 E.10131
;WIPE_START
G1 F8640
G1 X138.816 Y118.105 E-.76
;WIPE_END
G1 E-.04 F2100
G1 Z.75 F720
G1 X143.936 Y113.582 F10800
G1 Z.35 F720
G1 E.8 F2100
G1 F3908
G1 X144.737 Y112.781 E.02985
G1 X144.538 Y112.383 E.01174
G1 X142.74 Y114.18 E.06697
;WIPE_START
G1 F8640
G1 X144.538 Y112.383 E-.58682
G1 X144.737 Y112.781 E-.10285
G1 X144.521 Y112.997 E-.07034
;WIPE_END
G1 E-.04 F2100
G1 Z.75 F720
G1 X144.478 Y111.844 F10800
G1 Z.35 F720
G1 E.8 F2100
G1 F3908
G1 X141.966 Y114.357 E.09364
G1 X141.401 Y114.64 E.01664
G1 X141.256 Y114.73 E.00451
G1 X141.108 Y114.87 E.00536
G1 X140.988 Y115.051 E.00573
G1 X140.914 Y115.247 E.00552
G1 X140.887 Y115.436 E.00504
G1 X138.056 Y118.267 E.1055
G1 X137.686 Y118.039 E.01144
G1 X144.139 Y111.586 E.24048
G1 X143.94 Y111.188 E.01174
G1 X137.317 Y117.811 E.24682
G1 X136.948 Y117.583 E.01144
G1 X143.741 Y110.789 E.25316
G1 X143.542 Y110.391 E.01174
G1 X136.578 Y117.354 E.2595
