; generated by PrusaSlicer 2.5.2+MacOS-arm64 on 2023-04-23 at 16:43:43 UTC


;
;
; 

; external perimeters extrusion width = 0.45mm
; perimeters extrusion width = 0.45mm
; infill extrusion width = 0.45mm
; solid infill extrusion width = 0.45mm
; top infill extrusion width = 0.40mm
; support material extrusion width = 0.35mm
; first layer extrusion width = 0.42mm

; external perimeters extrusion width = 0.45mm
; perimeters extrusion width = 0.45mm
; infill extrusion width = 0.45mm
; solid infill extrusion width = 0.45mm
; top infill extrusion width = 0.40mm
; support material extrusion width = 0.35mm
; first layer extrusion width = 0.42mm

; external perimeters extrusion width = 0.45mm
; perimeters extrusion width = 0.45mm
; infill extrusion width = 0.45mm
; solid infill extrusion width = 0.45mm
; top infill extrusion width = 0.40mm
; support material extrusion width = 0.35mm
; first layer extrusion width = 0.42mm

; external perimeters extrusion width = 0.45mm
; perimeters extrusion width = 0.45mm
; infill extrusion width = 0.45mm
; solid infill extrusion width = 0.45mm
; top infill extrusion width = 0.40mm
; support material extrusion width = 0.35mm
; first layer extrusion width = 0.42mm

; external perimeters extrusion width = 0.45mm
; perimeters extrusion width = 0.45mm
; infill extrusion width = 0.45mm
; solid infill extrusion width = 0.45mm
; top infill extrusion width = 0.40mm
; support material extrusion width = 0.35mm
; first layer extrusion width = 0.42mm

M73 P0 R169
M73 Q0 S171
M201 X1000 Y1000 Z200 E5000 ; sets maximum accelerations, mm/sec^2
M203 X200 Y200 Z12 E120 ; sets maximum feedrates, mm / sec
M204 P1250 R1250 T1250 ; sets acceleration (P, T) and retract acceleration (R), mm/sec^2
M205 X8.00 Y8.00 Z0.40 E4.50 ; sets the jerk limits, mm/sec
M205 S0 T0 ; sets the minimum extruding and travel feed rate, mm/sec
M107
;TYPE:Custom
M862.3 P "MK3S" ; printer model check
M862.1 P0.4 ; nozzle diameter check
M115 U3.11.0 ; tell printer latest fw version
G90 ; use absolute coordinates
M83 ; extruder relative mode
M104 S215 ; set extruder temp
M140 S60 ; set bed temp
M190 S60 ; wait for bed temp
M109 S215 ; wait for extruder temp
G28 W ; home all without mesh bed level
G80 ; mesh bed leveling

G1 Z0.2 F720
G1 Y-3 F1000 ; go outside print area
G92 E0
G1 X60 E9 F1000 ; intro line
G1 X100 E12.5 F1000 ; intro line

G92 E0
M221 S95

; Don't change E values below. Excessive value can damage the printer.
M907 E430 ; set extruder motor current
G21 ; set units to millimeters
G90 ; use absolute coordinates
M83 ; use relative distances for extrusion
M900 K0.05 ; Filament gcode LA 1.5
M900 K30 ; Filament gcode LA 1.0
M107
;LAYER_CHANGE
;Z:0.2
;HEIGHT:0.2
;BEFORE_LAYER_CHANGE
G92 E0.0
;0.2


G1 E-.8 F2100
G1 Z.4 F720
;AFTER_LAYER_CHANGE
;0.2
G1 X68.482 Y30.611 F10800
G1 Z.2 F720
G1 E.8 F2100
M204 S800
;TYPE:Skirt/Brim
;WIDTH:0.42
G1 F1200
G1 X69.594 Y28.429 E.07678
G1 X70.294 Y27.6 E.03403
G1 X85.84 Y16.063 E.60699
G1 X89.162 Y14.248 E.1187
G1 X90.283 Y13.966 E.03625
G1 X174.283 Y13.966 E2.63376
G1 X175.363 Y14.226 E.03481
G1 X180.11 Y16.645 E.16704
G1 X181.096 Y17.587 E.04278
G1 X181.385 Y18.439 E.02819
G1 X181.873 Y22.352 E.12365
G1 X181.873 Y187.648 E5.18274
G1 X181.385 Y191.561 E.12365
M73 Q0 S170
G1 X180.819 Y192.803 E.04278
G1 X180.11 Y193.355 E.02819
G1 X175.363 Y195.774 E.16704
G1 X174.283 Y196.034 E.03481
G1 X90.283 Y196.034 E2.63376
G1 X89.162 Y195.752 E.03625
G1 X85.697 Y193.84 E.12408
G1 X70.294 Y182.4 E.60159
G1 X69.594 Y181.571 E.03403
G1 X68.482 Y179.389 E.07678
G1 X68.223 Y178.31 E.0348
G1 X68.223 Y31.69 E4.59715
G1 X68.468 Y30.669 E.03292
M204 S1000
;WIPE_START
G1 F8640
G1 X69.594 Y28.429 E-.57892
G1 X70.1 Y27.83 E-.18108
;WIPE_END
G1 E-.04 F2100
G1 Z.6 F720
G1 X71.192 Y31.327 F10800
G1 Z.2 F720
G1 E.8 F2100
M204 S800
G1 F1200
G1 X71.259 Y31.047 E.00901
G1 X71.823 Y30.053 E.03586
G1 X72.657 Y29.176 E.03792
G1 X85.603 Y19.769 E.50175
G1 X85.879 Y19.545 E.01116
G1 X86.547 Y18.843 E.03039
G1 X87.403 Y18.227 E.03305
G1 X88.708 Y17.551 E.04611
G1 X89.736 Y17.299 E.03316
G1 X91.039 Y17.311 E.04087
G1 X92.028 Y17.573 E.03207
G1 X92.961 Y18.038 E.0327
G1 X94.029 Y18.969 E.04443
G1 X94.577 Y19.763 E.03025
G1 X94.939 Y20.608 E.02881
G1 X95.21 Y22.375 E.05605
G1 X95.192 Y23.358 E.03083
G1 X95.017 Y24.319 E.03063
G1 X95.012 Y28.191 E.12142
G1 X106.603 Y19.769 E.44922
G1 X106.879 Y19.545 E.01116
G1 X107.543 Y18.847 E.0302
G1 X108.3 Y18.291 E.02945
G1 X109.906 Y17.48 E.05643
G1 X110.875 Y17.284 E.03098
G1 X111.851 Y17.286 E.03061
G1 X113.113 Y17.606 E.04081
G1 X114.127 Y18.151 E.03609
G1 X114.966 Y18.898 E.03524
G1 X115.556 Y19.727 E.03189
G1 X115.954 Y20.658 E.03175
G1 X116.21 Y22.375 E.05444
G1 X116.192 Y23.358 E.03081
G1 X116.017 Y24.319 E.03063
G1 X116.012 Y28.191 E.12142
G1 X127.603 Y19.769 E.44922
G1 X127.879 Y19.545 E.01116
G1 X128.543 Y18.847 E.0302
G1 X129.299 Y18.291 E.02943
G1 X130.902 Y17.481 E.05632
G1 X131.916 Y17.28 E.03241
G1 X132.996 Y17.306 E.03385
G1 X134.163 Y17.626 E.03796
G1 X135.169 Y18.18 E.036
G1 X136.023 Y18.961 E.03628
G1 X136.557 Y19.728 E.02932
G1 X136.928 Y20.568 E.02878
G1 X137.21 Y22.376 E.05738
G1 X137.192 Y23.358 E.03078
G1 X137.017 Y24.319 E.03063
G1 X137.012 Y28.191 E.12142
G1 X148.603 Y19.769 E.44922
G1 X148.879 Y19.545 E.01116
G1 X149.543 Y18.847 E.0302
G1 X150.3 Y18.29 E.02948
G1 X151.966 Y17.459 E.05837
G1 X152.887 Y17.282 E.02939
G1 X153.858 Y17.287 E.03046
G1 X155.076 Y17.592 E.03936
G1 X156.176 Y18.186 E.0392
G1 X157.097 Y19.047 E.03954
G1 X157.604 Y19.813 E.0288
G1 X157.946 Y20.63 E.02776
G1 X158.21 Y22.377 E.05541
G1 X158.192 Y23.358 E.03075
G1 X158.017 Y24.319 E.03063
G1 X158.012 Y28.191 E.12142
G1 X169.603 Y19.769 E.44922
G1 X169.879 Y19.545 E.01116
G1 X170.543 Y18.847 E.0302
G1 X171.3 Y18.291 E.02945
G1 X172.907 Y17.479 E.05646
G1 X173.918 Y17.28 E.03231
G1 X174.988 Y17.304 E.03356
G1 X176.11 Y17.605 E.03641
G1 X177.124 Y18.149 E.0361
G1 X177.968 Y18.9 E.03541
G1 X178.598 Y19.803 E.03451
G1 X178.969 Y20.709 E.03071
G1 X179.202 Y22.248 E.04881
G1 X179.196 Y23.319 E.03356
G1 X179.016 Y24.323 E.03201
G1 X179.008 Y25.007 E.02144
G1 X179.008 Y184.993 E5.01624
G1 X179.016 Y185.677 E.02143
G1 X179.196 Y186.678 E.0319
G1 X179.21 Y187.626 E.02973
G1 X178.929 Y189.428 E.0572
G1 X178.539 Y190.303 E.03004
G1 X177.943 Y191.128 E.03191
G1 X177.107 Y191.864 E.0349
G1 X176.154 Y192.379 E.03399
G1 X174.703 Y192.728 E.04679
G1 X173.806 Y192.709 E.02814
G1 X172.879 Y192.511 E.02969
G1 X171.482 Y191.822 E.04884
M73 P0 R168
G1 X170.558 Y191.166 E.03555
G1 X169.88 Y190.456 E.03076
G1 X169.603 Y190.231 E.01122
G1 X158.012 Y181.809 E.44922
G1 X158.017 Y185.681 E.12142
G1 X158.192 Y186.642 E.03063
G1 X158.21 Y187.625 E.03081
G1 X157.954 Y189.343 E.05445
G1 X157.574 Y190.241 E.03057
G1 X156.971 Y191.097 E.03285
G1 X156.184 Y191.809 E.03327
G1 X155.209 Y192.357 E.03509
G1 X153.696 Y192.728 E.04883
G1 X152.847 Y192.713 E.02662
G1 X152.035 Y192.563 E.02589
G1 X150.344 Y191.738 E.05901
G1 X149.553 Y191.162 E.03069
G1 X148.88 Y190.456 E.03056
G1 X148.603 Y190.231 E.01122
G1 X137.012 Y181.809 E.44922
G1 X137.017 Y185.681 E.12142
G1 X137.192 Y186.642 E.03063
G1 X137.21 Y187.625 E.03083
G1 X136.939 Y189.392 E.05605
G1 X136.577 Y190.237 E.02881
G1 X136.037 Y191.022 E.02986
G1 X135.147 Y191.836 E.03783
G1 X134.057 Y192.416 E.03873
G1 X132.888 Y192.707 E.03775
G1 X131.759 Y192.703 E.0354
G1 X130.816 Y192.489 E.03032
G1 X129.342 Y191.737 E.0519
G1 X128.553 Y191.162 E.0306
G1 X127.88 Y190.456 E.03056
G1 X127.603 Y190.231 E.01122
G1 X116.012 Y181.809 E.44922
G1 X116.017 Y185.681 E.12142
G1 X116.192 Y186.642 E.03063
G1 X116.21 Y187.625 E.03083
G1 X115.925 Y189.441 E.05763
G1 X115.576 Y190.238 E.02728
G1 X115.066 Y190.988 E.02844
G1 X114.066 Y191.892 E.04226
G1 X112.97 Y192.449 E.03854
G1 X111.888 Y192.707 E.03489
G1 X110.877 Y192.716 E.03169
G1 X109.816 Y192.489 E.03401
G1 X108.342 Y191.737 E.05191
G1 X107.553 Y191.162 E.0306
G1 X106.88 Y190.456 E.03056
G1 X106.603 Y190.231 E.01122
G1 X95.012 Y181.809 E.44922
G1 X95.017 Y185.681 E.12142
G1 X95.192 Y186.642 E.03063
G1 X95.21 Y187.625 E.03081
G1 X94.954 Y189.342 E.05444
G1 X94.555 Y190.275 E.03179
G1 X93.944 Y191.128 E.03291
G1 X93.185 Y191.809 E.03197
G1 X92.162 Y192.376 E.03667
G1 X90.642 Y192.734 E.04895
G1 X89.755 Y192.703 E.02783
G1 X88.816 Y192.489 E.03019
G1 X87.342 Y191.737 E.0519
G1 X86.553 Y191.162 E.0306
G1 X85.88 Y190.456 E.03056
G1 X85.603 Y190.231 E.01122
G1 X72.658 Y180.825 E.50171
G1 X71.911 Y180.062 E.03348
G1 X71.351 Y179.171 E.03299
G1 X70.887 Y177.409 E.05714
G1 X70.887 Y32.593 E4.54061
G1 X71.178 Y31.385 E.03895
M204 S1000
G1 X71.543 Y31.474 F10800
M204 S800
G1 F1200
G1 X71.619 Y31.164 E.01002
G1 X72.139 Y30.261 E.03266
G1 X72.892 Y29.471 E.03422
G1 X85.832 Y20.069 E.50154
G1 X86.136 Y19.822 E.01227
G1 X86.783 Y19.139 E.02949
G1 X87.612 Y18.541 E.03204
G1 X88.86 Y17.896 E.04407
G1 X89.801 Y17.671 E.03031
G1 X90.965 Y17.682 E.03652
G1 X91.912 Y17.932 E.03071
G1 X92.77 Y18.363 E.0301
G1 X93.762 Y19.236 E.04143
G1 X94.239 Y19.931 E.02642
G1 X94.571 Y20.69 E.02598
G1 X94.833 Y22.384 E.05375
G1 X94.816 Y23.335 E.02982
G1 X94.64 Y24.284 E.03024
G1 X94.634 Y28.932 E.14575
G1 X106.832 Y20.068 E.47278
G1 X107.136 Y19.822 E.01227
G1 X107.78 Y19.141 E.02939
G1 X108.511 Y18.604 E.02843
G1 X110.008 Y17.844 E.05265
G1 X110.893 Y17.661 E.02835
G1 X111.827 Y17.663 E.02926
G1 X112.956 Y17.95 E.03654
G1 X113.893 Y18.447 E.03327
G1 X114.699 Y19.165 E.03383
G1 X115.236 Y19.928 E.02925
G1 X115.585 Y20.738 E.02767
G1 X115.833 Y22.384 E.05219
G1 X115.816 Y23.335 E.02982
G1 X115.64 Y24.284 E.03024
G1 X115.634 Y28.932 E.14575
G1 X127.832 Y20.068 E.47278
G1 X128.136 Y19.822 E.01227
G1 X128.78 Y19.141 E.02939
G1 X129.51 Y18.604 E.02842
G1 X131.003 Y17.845 E.0525
G1 X131.931 Y17.657 E.02968
G1 X132.92 Y17.676 E.03104
G1 X134.003 Y17.968 E.03516
G1 X134.933 Y18.475 E.0332
G1 X135.727 Y19.196 E.03362
G1 X136.22 Y19.898 E.02691
G1 X136.573 Y20.698 E.0274
G1 X136.833 Y22.386 E.05355
G1 X136.816 Y23.335 E.02978
G1 X136.64 Y24.284 E.03024
G1 X136.634 Y28.932 E.14575
G1 X148.832 Y20.068 E.47278
G1 X149.136 Y19.822 E.01227
G1 X149.78 Y19.141 E.02939
G1 X150.511 Y18.603 E.02845
G1 X152.063 Y17.825 E.05445
G1 X152.939 Y17.656 E.02797
G1 X153.832 Y17.664 E.028
G1 X154.919 Y17.936 E.03513
G1 X155.938 Y18.479 E.0362
G1 X156.796 Y19.276 E.0367
G1 X157.263 Y19.976 E.02641
G1 X157.589 Y20.754 E.02644
G1 X157.833 Y22.386 E.05174
G1 X157.816 Y23.335 E.02977
G1 X157.64 Y24.284 E.03024
M73 Q0 S169
G1 X157.634 Y28.932 E.14575
G1 X169.832 Y20.068 E.47278
G1 X170.136 Y19.822 E.01227
G1 X170.78 Y19.141 E.02939
G1 X171.511 Y18.604 E.02843
G1 X173.007 Y17.844 E.05263
G1 X173.933 Y17.657 E.0296
G1 X174.915 Y17.675 E.0308
G1 X175.953 Y17.948 E.03366
G1 X176.891 Y18.446 E.03329
G1 X177.701 Y19.167 E.03399
G1 X178.258 Y19.966 E.03055
G1 X178.599 Y20.789 E.02792
G1 X178.827 Y22.29 E.0476
G1 X178.819 Y23.299 E.03164
G1 X178.639 Y24.287 E.03149
G1 X178.631 Y25.005 E.02252
G1 X178.631 Y184.995 E5.01636
G1 X178.639 Y185.713 E.02251
G1 X178.819 Y186.699 E.03144
G1 X178.833 Y187.616 E.02874
G1 X178.574 Y189.299 E.05341
G1 X178.221 Y190.1 E.02745
G1 X177.676 Y190.861 E.02933
G1 X176.909 Y191.542 E.03219
G1 X175.996 Y192.036 E.03253
G1 X174.685 Y192.35 E.04226
G1 X173.864 Y192.336 E.02576
G1 X173.024 Y192.162 E.02688
G1 X171.663 Y191.491 E.04759
G1 X170.792 Y190.87 E.03354
G1 X170.137 Y190.179 E.02983
G1 X169.832 Y189.931 E.01232
G1 X157.634 Y181.068 E.47278
G1 X157.64 Y185.716 E.14575
G1 X157.816 Y186.665 E.03024
G1 X157.833 Y187.616 E.02982
G1 X157.585 Y189.262 E.05219
G1 X157.236 Y190.073 E.02768
G1 X156.676 Y190.861 E.03032
G1 X155.949 Y191.514 E.03065
G1 X155.048 Y192.015 E.03231
G1 X153.632 Y192.356 E.04567
G1 X152.898 Y192.34 E.02303
G1 X152.176 Y192.212 E.023
G1 X150.552 Y191.424 E.05658
G1 X149.789 Y190.867 E.02961
G1 X149.137 Y190.179 E.02972
G1 X148.832 Y189.931 E.01232
G1 X136.634 Y181.068 E.47278
G1 X136.64 Y185.716 E.14575
G1 X136.816 Y186.665 E.03024
G1 X136.833 Y187.616 E.02982
G1 X136.571 Y189.31 E.05375
G1 X136.239 Y190.069 E.02598
G1 X135.767 Y190.758 E.02619
G1 X134.91 Y191.541 E.03637
G1 X133.902 Y192.072 E.03573
G1 X132.822 Y192.335 E.03487
G1 X131.821 Y192.331 E.03139
G1 X130.965 Y192.142 E.02747
G1 X129.551 Y191.423 E.04973
G1 X128.789 Y190.867 E.02958
G1 X128.137 Y190.179 E.02972
G1 X127.832 Y189.931 E.01232
G1 X115.634 Y181.068 E.47278
G1 X115.64 Y185.716 E.14575
G1 X115.816 Y186.665 E.03024
G1 X115.833 Y187.615 E.02981
G1 X115.557 Y189.357 E.05528
G1 X115.239 Y190.069 E.02445
G1 X114.795 Y190.725 E.02484
G1 X113.871 Y191.568 E.03922
G1 X112.86 Y192.087 E.03562
G1 X111.822 Y192.335 E.03348
G1 X110.896 Y192.339 E.02903
G1 X109.965 Y192.141 E.02984
G1 X108.551 Y191.423 E.04971
G1 X107.789 Y190.867 E.02958
G1 X107.137 Y190.179 E.02972
G1 X106.832 Y189.931 E.01232
G1 X94.634 Y181.068 E.47278
G1 X94.64 Y185.716 E.14575
G1 X94.816 Y186.665 E.03024
G1 X94.833 Y187.616 E.02982
G1 X94.585 Y189.262 E.05219
G1 X94.236 Y190.073 E.02768
G1 X93.676 Y190.861 E.03032
G1 X92.949 Y191.514 E.03065
G1 X92.049 Y192.015 E.03231
G1 X90.628 Y192.356 E.04579
G1 X89.819 Y192.331 E.0254
G1 X88.965 Y192.142 E.02741
G1 X87.551 Y191.423 E.04973
G1 X86.789 Y190.867 E.02958
G1 X86.137 Y190.179 E.02972
G1 X85.832 Y189.931 E.01232
G1 X72.892 Y180.529 E.50154
G1 X72.219 Y179.844 E.0301
G1 X71.686 Y178.995 E.03144
G1 X71.264 Y177.385 E.0522
G1 X71.264 Y32.615 E4.53913
G1 X71.529 Y31.533 E.03495
M204 S1000
G1 X71.893 Y31.623 F10800
M204 S800
G1 F1200
G1 X71.978 Y31.282 E.01103
G1 X72.452 Y30.471 E.02946
G1 X73.127 Y29.766 E.03059
G1 X86.062 Y20.368 E.50133
G1 X86.394 Y20.098 E.01339
G1 X87.019 Y19.433 E.02861
G1 X87.797 Y18.87 E.03014
G1 X89.012 Y18.242 E.04287
G1 X89.864 Y18.043 E.02742
G1 X90.893 Y18.052 E.03227
G1 X91.761 Y18.279 E.02812
G1 X92.578 Y18.689 E.02868
G1 X93.494 Y19.502 E.03839
G1 X93.901 Y20.101 E.0227
G1 X94.202 Y20.774 E.02313
G1 X94.456 Y22.394 E.05141
G1 X94.439 Y23.312 E.02879
G1 X94.263 Y24.248 E.02985
G1 X94.256 Y29.673 E.17009
G1 X107.062 Y20.368 E.49634
M73 P1 R168
G1 X107.394 Y20.098 E.01339
M73 Q1 S169
G1 X108.017 Y19.434 E.02856
G1 X108.722 Y18.916 E.02741
G1 X110.109 Y18.208 E.04885
G1 X110.95 Y18.034 E.02691
G1 X111.801 Y18.04 E.02668
G1 X112.801 Y18.294 E.03236
G1 X113.66 Y18.745 E.03042
G1 X114.432 Y19.432 E.0324
G1 X114.899 Y20.096 E.02547
G1 X115.216 Y20.82 E.02478
G1 X115.456 Y22.394 E.0499
G1 X115.439 Y23.312 E.02881
G1 X115.263 Y24.248 E.02985
G1 X115.256 Y29.673 E.17009
G1 X128.062 Y20.368 E.49634
G1 X128.394 Y20.098 E.01339
G1 X129.017 Y19.434 E.02856
G1 X129.721 Y18.917 E.02739
G1 X131.105 Y18.209 E.04872
G1 X131.947 Y18.034 E.02697
G1 X132.847 Y18.046 E.02822
G1 X133.844 Y18.311 E.03235
G1 X134.698 Y18.771 E.0304
G1 X135.431 Y19.43 E.0309
G1 X135.9 Y20.099 E.02562
G1 X136.217 Y20.825 E.02485
G1 X136.456 Y22.395 E.04977
G1 X136.439 Y23.312 E.02878
G1 X136.263 Y24.248 E.02985
G1 X136.256 Y29.673 E.17009
G1 X149.062 Y20.368 E.49634
G1 X149.394 Y20.098 E.01339
G1 X150.017 Y19.434 E.02856
G1 X150.722 Y18.916 E.02741
G1 X152.16 Y18.19 E.05053
G1 X152.991 Y18.03 E.02653
G1 X153.804 Y18.041 E.02549
G1 X154.804 Y18.295 E.03234
G1 X155.701 Y18.773 E.03187
G1 X156.495 Y19.504 E.03384
G1 X156.939 Y20.17 E.0251
G1 X157.232 Y20.876 E.02398
G1 X157.456 Y22.394 E.04811
G1 X157.439 Y23.312 E.02878
G1 X157.263 Y24.248 E.02985
G1 X157.256 Y29.673 E.17009
G1 X170.062 Y20.368 E.49634
G1 X170.394 Y20.098 E.01339
G1 X171.017 Y19.434 E.02856
G1 X171.722 Y18.916 E.02741
G1 X173.109 Y18.208 E.04885
G1 X173.949 Y18.034 E.0269
G1 X174.843 Y18.046 E.02803
G1 X175.798 Y18.293 E.03092
G1 X176.658 Y18.743 E.03044
G1 X177.433 Y19.433 E.03255
G1 X177.918 Y20.132 E.02665
G1 X178.23 Y20.869 E.02511
G1 X178.451 Y22.331 E.04637
G1 X178.442 Y23.279 E.0297
G1 X178.262 Y24.25 E.03098
G1 X178.254 Y25.003 E.02361
G1 X178.254 Y184.997 E5.01649
G1 X178.262 Y185.75 E.02361
M73 P1 R167
G1 X178.442 Y186.721 E.03097
G1 X178.456 Y187.606 E.02775
G1 X178.218 Y189.172 E.04966
G1 X177.901 Y189.899 E.02487
G1 X177.41 Y190.594 E.02668
G1 X176.675 Y191.245 E.03079
G1 X175.84 Y191.692 E.0297
