; generated by PrusaSlicer 2.5.0+MacOS-arm64 on 2023-04-09 at 15:19:10 UTC


;
;
; 

; external perimeters extrusion width = 0.45mm
; perimeters extrusion width = 0.45mm
; infill extrusion width = 0.45mm
; solid infill extrusion width = 0.45mm
; top infill extrusion width = 0.40mm
; first layer extrusion width = 0.42mm

M73 P0 R5
M73 Q0 S5
M201 X1000 Y1000 Z200 E5000 ; sets maximum accelerations, mm/sec^2
M203 X200 Y200 Z12 E120 ; sets maximum feedrates, mm / sec
M204 P1250 R1250 T1250 ; sets acceleration (P, T) and retract acceleration (R), mm/sec^2
M205 X8.00 Y8.00 Z0.40 E4.50 ; sets the jerk limits, mm/sec
M205 S0 T0 ; sets the minimum extruding and travel feed rate, mm/sec
M107
;TYPE:Custom
M862.3 P "MK3S" ; printer model check
M862.1 P0.4 ; nozzle diameter check
M115 U3.11.0 ; tell printer latest fw version
G90 ; use absolute coordinates
M83 ; extruder relative mode
M104 S215 ; set extruder temp
M140 S60 ; set bed temp
M190 S60 ; wait for bed temp
M109 S215 ; wait for extruder temp
G28 W ; home all without mesh bed level
G80 ; mesh bed leveling

G1 Z0.2 F720
G1 Y-3 F1000 ; go outside print area
G92 E0
G1 X60 E9 F1000 ; intro line
G1 X100 E12.5 F1000 ; intro line

G92 E0
M221 S95

; Don't change E values below. Excessive value can damage the printer.
M907 E430 ; set extruder motor current
G21 ; set units to millimeters
G90 ; use absolute coordinates
M83 ; use relative distances for extrusion
M900 K0.05 ; Filament gcode LA 1.5
M900 K30 ; Filament gcode LA 1.0
M107
;LAYER_CHANGE
;Z:0.2
;HEIGHT:0.2
;BEFORE_LAYER_CHANGE
G92 E0.0
;0.2


M73 P1 R5
M73 Q1 S5
G1 E-.8 F2100
G1 Z.4 F720
;AFTER_LAYER_CHANGE
;0.2
G1 X118.391 Y96.389 F10800
G1 Z.2 F720
M73 P2 R5
M73 Q2 S5
G1 E.8 F2100
M204 S800
;TYPE:Skirt/Brim
;WIDTH:0.42
G1 F1200
G1 X119.376 Y95.297 E.04612
G1 X120.854 Y94.867 E.04827
G1 X135.854 Y94.867 E.47031
G1 X137.272 Y95.26 E.04612
G1 X138.285 Y96.326 E.04612
G1 X138.608 Y97.621 E.04186
G1 X138.608 Y101.621 E.12542
G1 X138.216 Y103.038 E.04612
G1 X137.21 Y104.018 E.04403
G1 X118.185 Y114.776 E.68528
G1 X116.758 Y115.132 E.04612
M73 Q3 S5
G1 X115.597 Y114.842 E.0375
G1 X112.914 Y113.501 E.09406
G1 X111.822 Y112.516 E.04612
M73 P3 R5
G1 X111.393 Y111.109 E.04612
G1 X111.683 Y109.806 E.04186
G1 X118.364 Y96.443 E.46843
M204 S1000
G1 X118.701 Y96.612 F10800
M204 S800
G1 F1200
G1 X118.728 Y96.558 E.00188
G1 X119.663 Y95.564 E.04278
G1 X120.854 Y95.244 E.03868
G1 X135.854 Y95.244 E.47031
G1 X137.161 Y95.635 E.04278
G1 X138.038 Y96.681 E.04278
G1 X138.231 Y97.621 E.03008
G1 X138.231 Y101.621 E.12542
G1 X137.84 Y102.928 E.04278
G1 X137.024 Y103.69 E.035
G1 X117.999 Y114.448 E.68528
G1 X116.669 Y114.751 E.04278
M73 P4 R5
M73 Q4 S5
G1 X115.766 Y114.505 E.02933
G1 X113.083 Y113.163 E.09406
G1 X112.089 Y112.229 E.04278
G1 X111.773 Y110.901 E.04278
G1 X112.02 Y109.974 E.03008
G1 X118.674 Y96.665 E.46655
M204 S1000
; printing object Edge Rib.stl id:0 copy 0
;WIPE_START
G1 F8640
G1 X118.728 Y96.558 E-.02771
G1 X119.663 Y95.564 E-.31505
G1 X120.854 Y95.244 E-.28484
G1 X121.427 Y95.244 E-.1324
;WIPE_END
G1 E-.04 F2100
G1 Z.6 F720
G1 X119.553 Y101.882 F10800
G1 Z.2 F720
G1 E.8 F2100
M204 S800
;TYPE:Perimeter
;WIDTH:0.419999
G1 F1200
G1 X119.75 Y101.557 E.01189
G1 X119.991 Y101.103 E.01613
G1 X121.34 Y98.408 E.09451
G1 X124.501 Y98.402 E.09911
G1 X125.234 Y98.364 E.023
G1 X125.171 Y98.437 E.00301
G1 X125.101 Y99.088 E.02056
G1 X125.072 Y99.619 E.01666
G1 X125.067 Y101.841 E.06967
G1 X125.087 Y101.992 E.00477
G1 X125.176 Y102.177 E.00644
G1 X125.382 Y102.349 E.0084
G1 X125.633 Y102.408 E.0081
G1 X132.931 Y102.399 E.22883
G1 X132.008 Y102.892 E.03283
G1 X119.054 Y110.22 E.46664
M73 Q5 S5
G1 X118.626 Y110.503 E.01609
M73 P5 R5
G1 X118.872 Y110.047 E.01624
G1 X122.104 Y103.589 E.22644
G1 X122.153 Y103.446 E.00473
G1 X122.144 Y103.186 E.00815
G1 X122.027 Y102.966 E.00781
G1 X121.849 Y102.829 E.00705
G1 X120.728 Y102.275 E.03921
G1 X120.239 Y102.064 E.0167
G1 X119.653 Y101.847 E.01959
G1 X119.61 Y101.862 E.00143
M204 S1000
G1 X119.522 Y102.201 F10800
M204 S800
;TYPE:External perimeter
;WIDTH:0.420001
G1 F1200
G1 X119.298 Y102.281 E.00745
G1 X119.226 Y102.416 E.0048
G1 X115.023 Y110.823 E.29472
G1 X114.924 Y110.99 E.00606
G1 X114.616 Y110.827 E.01093
G1 X114.654 Y110.717 E.00363
G1 X118.889 Y102.247 E.29691
G1 X119.417 Y101.381 E.03181
G1 X119.653 Y100.934 E.01585
G1 X121.107 Y98.031 E.10181
G1 X124.492 Y98.025 E.10613
G1 X125.079 Y97.998 E.01841
G1 X125.863 Y97.932 E.02467
G1 X135.281 Y97.932 E.29531
G1 X135.47 Y97.949 E.00594
M73 Q6 S5
G1 X135.47 Y98.293 E.01076
G1 X135.34 Y98.31 E.00409
G1 X125.718 Y98.313 E.30171
G1 X125.546 Y98.478 E.00745
M73 P6 R5
G1 X125.477 Y99.109 E.01991
G1 X125.449 Y99.62 E.01605
G1 X125.444 Y101.842 E.06967
G1 X125.516 Y101.991 E.00519
G1 X125.633 Y102.031 E.00386
G1 X132.866 Y102.025 E.22679
G1 X133.387 Y101.993 E.01637
G1 X134.371 Y101.831 E.03127
G1 X135.056 Y101.831 E.02147
G1 X134.446 Y102.171 E.0219
G1 X133.514 Y102.515 E.03113
G1 X132.193 Y103.22 E.04695
G1 X119.24 Y110.548 E.46664
G1 X118.379 Y111.122 E.03243
G1 X117.994 Y111.459 E.01606
G1 X117.334 Y111.848 E.02401
G1 X117.695 Y111.161 E.02432
G1 X118.012 Y110.758 E.01609
G1 X118.294 Y110.325 E.01621
G1 X118.535 Y109.878 E.01591
G1 X121.767 Y103.42 E.22644
G1 X121.78 Y103.286 E.00423
G1 X121.682 Y103.167 E.00484
G1 X120.578 Y102.621 E.03862
G1 X120.108 Y102.418 E.01606
G1 X119.578 Y102.221 E.01771
M204 S1000
G1 X119.383 Y102.008 F10800
;WIPE_START
G1 F8640
G1 X119.298 Y102.281 E-.06608
G1 X119.226 Y102.416 E-.03535
G1 X117.951 Y104.967 E-.65857
;WIPE_END
G1 E-.04 F2100
G1 Z.6 F720
G1 X124.987 Y99.097 F10800
G1 Z.2 F720
G1 E.8 F2100
M204 S800
;TYPE:Solid infill
;WIDTH:0.424947
M73 Q7 S5
G1 F1200
G1 X124.572 Y98.682 E.01865
G1 X124.038 Y98.689 E.01695
G1 X124.798 Y99.449 E.03414
G1 X124.789 Y99.979 E.01686
G1 X123.498 Y98.689 E.05796
G1 X122.958 Y98.69 E.01715
G1 X124.787 Y100.518 E.08216
M73 P7 R5
G1 X124.786 Y101.057 E.01712
G1 X122.419 Y98.69 E.10636
G1 X121.879 Y98.69 E.01715
G1 X124.954 Y101.766 E.13816
M204 S1000
;WIPE_START
G1 F8640
G1 X122.627 Y99.438 E-.76
;WIPE_END
G1 E-.04 F2100
G1 Z.6 F720
G1 X131.108 Y102.517 F10800
G1 Z.2 F720
G1 E.8 F2100
M204 S800
G1 F1200
G1 X131.47 Y102.879 E.01626
G1 X131.125 Y103.074 E.0126
G1 X130.738 Y102.687 E.01738
G1 X130.198 Y102.687 E.01715
G1 X130.779 Y103.269 E.02613
G1 X130.434 Y103.464 E.0126
G1 X129.658 Y102.688 E.03487
G1 X129.118 Y102.688 E.01715
G1 X130.089 Y103.659 E.04362
G1 X129.744 Y103.854 E.0126
G1 X128.578 Y102.689 E.05236
G1 X128.038 Y102.689 E.01715
G1 X129.399 Y104.049 E.0611
G1 X129.053 Y104.244 E.0126
G1 X127.499 Y102.689 E.06985
G1 X126.959 Y102.69 E.01715
G1 X128.708 Y104.439 E.07859
G1 X128.363 Y104.634 E.0126
G1 X126.419 Y102.69 E.08734
G1 X125.879 Y102.691 E.01715
G1 X128.018 Y104.829 E.09608
G1 X127.673 Y105.024 E.0126
G1 X121.456 Y98.808 E.27926
G1 X121.276 Y99.168 E.01279
G1 X127.327 Y105.22 E.27185
G1 X126.982 Y105.415 E.0126
M73 P8 R5
M73 Q8 S5
G1 X121.096 Y99.528 E.26445
G1 X120.915 Y99.888 E.01279
G1 X126.637 Y105.61 E.25704
G1 X126.292 Y105.805 E.0126
G1 X120.735 Y100.248 E.24963
G1 X120.555 Y100.608 E.01279
G1 X125.947 Y106 E.24222
G1 X125.601 Y106.195 E.0126
G1 X120.375 Y100.968 E.23481
G1 X120.192 Y101.326 E.01276
G1 X121.295 Y102.429 E.04958
M204 S1000
;WIPE_START
G1 F8640
G1 X120.192 Y101.326 E-.36037
G1 X120.375 Y100.968 E-.09272
G1 X121.314 Y101.908 E-.30691
;WIPE_END
G1 E-.04 F2100
G1 Z.6 F720
G1 X122.267 Y103.401 F10800
G1 Z.2 F720
G1 E.8 F2100
M204 S800
G1 F1200
G1 X125.256 Y106.39 E.13427
G1 X124.911 Y106.585 E.0126
G1 X122.252 Y103.926 E.11946
G1 X122.072 Y104.286 E.01279
M73 Q9 S5
G1 X124.566 Y106.78 E.11205
G1 X124.221 Y106.975 E.0126
M73 P9 R5
G1 X121.891 Y104.646 E.10464
G1 X121.711 Y105.006 E.01279
G1 X123.875 Y107.17 E.09722
G1 X123.53 Y107.365 E.0126
G1 X121.531 Y105.366 E.08981
G1 X121.351 Y105.726 E.01279
G1 X123.185 Y107.56 E.0824
G1 X122.84 Y107.755 E.0126
G1 X121.171 Y106.086 E.07499
G1 X120.99 Y106.446 E.01279
G1 X122.495 Y107.951 E.06757
G1 X122.149 Y108.146 E.0126
G1 X120.81 Y106.806 E.06016
G1 X120.63 Y107.167 E.01279
G1 X121.804 Y108.341 E.05275
G1 X121.459 Y108.536 E.0126
M73 P9 R4
G1 X120.45 Y107.527 E.04534
G1 X120.27 Y107.887 E.01279
M73 Q9 S4
G1 X121.114 Y108.731 E.03792
G1 X120.769 Y108.926 E.0126
G1 X120.09 Y108.247 E.03051
G1 X119.909 Y108.607 E.01279
G1 X120.423 Y109.121 E.0231
G1 X120.078 Y109.316 E.0126
G1 X119.729 Y108.967 E.01569
G1 X119.549 Y109.327 E.01279
G1 X119.858 Y109.636 E.01387
M204 S1000
; stop printing object Edge Rib.stl id:0 copy 0
M106 S84.15
;LAYER_CHANGE
;Z:0.35
;HEIGHT:0.15
;BEFORE_LAYER_CHANGE
G92 E0.0
;0.35


;WIPE_START
G1 F8640
G1 X119.549 Y109.327 E-.1008
G1 X119.729 Y108.967 E-.09297
G1 X120.078 Y109.316 E-.11402
G1 X120.423 Y109.121 E-.09155
G1 X119.909 Y108.607 E-.1679
G1 X120.09 Y108.247 E-.09297
G1 X120.395 Y108.552 E-.09978
;WIPE_END
G1 E-.04 F2100
G1 Z.6 F720
;AFTER_LAYER_CHANGE
;0.35
G1 X122.526 Y112.321 F10800
G1 Z.35 F720
G1 E.8 F2100
;TYPE:Skirt/Brim
;WIDTH:0.42
G1 F1943
G1 X118.185 Y114.776 E.12062
G1 X116.758 Y115.132 E.03557
G1 X115.597 Y114.842 E.02892
G1 X112.914 Y113.501 E.07256
G1 X111.822 Y112.516 E.03557
G1 X111.393 Y111.109 E.03557
G1 X111.683 Y109.806 E.03229
G1 X118.391 Y96.389 E.36277
G1 X119.376 Y95.297 E.03557
M73 Q10 S4
G1 X120.854 Y94.867 E.03723
G1 X135.854 Y94.867 E.36277
G1 X137.272 Y95.26 E.03557
M73 P10 R4
G1 X138.285 Y96.326 E.03557
G1 X138.608 Y97.621 E.03229
G1 X138.608 Y101.621 E.09674
G1 X138.216 Y103.038 E.03557
G1 X137.21 Y104.018 E.03396
G1 X122.579 Y112.292 E.40651
G1 X122.393 Y111.964 F10800
G1 F1943
G1 X117.999 Y114.448 E.12208
G1 X116.669 Y114.751 E.033
G1 X115.766 Y114.505 E.02262
G1 X113.083 Y113.163 E.07255
G1 X112.089 Y112.229 E.033
G1 X111.773 Y110.901 E.033
G1 X112.02 Y109.974 E.0232
G1 X118.728 Y96.558 E.36277
G1 X119.663 Y95.564 E.033
G1 X120.854 Y95.244 E.02983
G1 X135.854 Y95.244 E.36277
G1 X137.161 Y95.635 E.033
G1 X138.038 Y96.681 E.033
G1 X138.231 Y97.621 E.02321
G1 X138.231 Y101.621 E.09674
G1 X137.84 Y102.928 E.033
M73 Q11 S4
G1 X137.024 Y103.69 E.02699
G1 X122.445 Y111.934 E.40506
; printing object Edge Rib.stl id:0 copy 0
;WIPE_START
G1 F8640
M73 P11 R4
G1 X119.58 Y113.554 E-.76
;WIPE_END
G1 E-.04 F2100
G1 Z.75 F720
G1 X119.328 Y102.111 F10800
G1 Z.35 F720
G1 E.8 F2100
M204 S800
;TYPE:Perimeter
;WIDTH:0.449999
G1 F1943
G1 X121.251 Y98.264 E.11207
G1 X125.498 Y98.264 E.11064
G1 X125.211 Y98.605 E.01161
G1 X125.211 Y100.712 E.0549
G1 X125.238 Y101.816 E.02879
G1 X125.321 Y101.991 E.00504
G1 X125.544 Y102.19 E.00779
G1 X125.838 Y102.264 E.0079
G1 X133.411 Y102.264 E.19733
G1 X118.346 Y110.783 E.45095
G1 X121.883 Y103.708 E.2061
G1 X121.945 Y103.5 E.00564
G1 X121.923 Y103.248 E.00659
G1 X121.779 Y102.998 E.00752
G1 X121.603 Y102.867 E.00572
G1 X119.786 Y101.958 E.05295
G1 X119.385 Y102.092 E.01101
M204 S1000
G1 X119.599 Y102.332 F10800
M204 S800
;TYPE:External perimeter
;WIDTH:0.483048
G1 F1500
G1 X119.444 Y102.371 E.00449
;WIDTH:0.516096
G1 X119.289 Y102.411 E.00482
G1 X114.925 Y111.138 E.29448
G1 X114.492 Y110.922 E.0146
G1 X118.856 Y102.194 E.29448
M73 Q12 S4
G1 X119.058 Y101.754 E.01461
;WIDTH:0.483048
M73 P12 R4
G1 X119.259 Y101.314 E.01361
;WIDTH:0.449999
G1 X120.993 Y97.846 E.10102
G1 X124.87 Y97.846 E.10102
;WIDTH:0.483047
G1 X125.354 Y97.863 E.01361
;WIDTH:0.516095
G1 X125.838 Y97.879 E.01461
G1 X135.596 Y97.879 E.29447
G1 X135.596 Y98.363 E.0146
G1 X125.838 Y98.363 E.29447
;WIDTH:0.519761
G1 X125.796 Y98.365 E.00128
G1 X125.712 Y98.485 E.00444
;WIDTH:0.48488
G1 X125.629 Y98.605 E.00413
;WIDTH:0.449999
G1 X125.629 Y101.637 E.07901
G1 X125.704 Y101.797 E.00459
G1 X125.838 Y101.846 E.00373
G1 X134.999 Y101.846 E.2387
G1 X117.36 Y111.82 E.52799
G1 X121.51 Y103.521 E.24177
G1 X121.523 Y103.368 E.00401
M73 Q13 S4
G1 X121.416 Y103.241 E.00432
G1 X119.652 Y102.359 E.05139
M204 S1000
G1 X119.519 Y102.194 F10800
;WIPE_START
G1 F8640
G1 X119.444 Y102.371 E-.04825
G1 X119.289 Y102.411 E-.03691
G1 X117.982 Y105.025 E-.67485
;WIPE_END
G1 E-.04 F2100
M73 P13 R4
G1 Z.75 F720
G1 X130.414 Y103.815 F10800
G1 Z.35 F720
G1 E.8 F2100
;TYPE:Solid infill
;WIDTH:0.451973
G1 F1943
G1 X131.652 Y102.577 E.04581
G1 X131.058 Y102.577 E.01554
G1 X129.545 Y104.09 E.05601
G1 X128.179 Y104.863 E.04109
G1 X130.464 Y102.577 E.08461
G1 X129.871 Y102.577 E.01554
G1 X126.813 Y105.635 E.11322
G1 X125.446 Y106.408 E.04109
G1 X129.277 Y102.577 E.14182
G1 X128.683 Y102.577 E.01554
G1 X124.08 Y107.18 E.17042
G1 X122.714 Y107.953 E.04109
G1 X128.09 Y102.577 E.19902
G1 X127.496 Y102.577 E.01554
G1 X121.348 Y108.725 E.22762
G1 X119.982 Y109.498 E.04109
G1 X126.902 Y102.577 E.25623
G1 X126.309 Y102.577 E.01554
G1 X119.29 Y109.596 E.25987
G1 X119.883 Y108.409 E.03475
G1 X125.728 Y102.564 E.2164
G1 X125.6 Y102.547 E.00339
M73 Q14 S4
G1 X125.397 Y102.468 E.00571
G1 X125.298 Y102.401 E.00313
G1 X120.477 Y107.222 E.17848
G1 X121.07 Y106.034 E.03475
M73 P14 R4
G1 X125.021 Y102.084 E.14625
G1 X124.937 Y101.909 E.00508
G1 X124.898 Y101.613 E.00781
G1 X121.664 Y104.847 E.11972
G1 X122.168 Y103.84 E.02948
G1 X122.206 Y103.712 E.00351
G1 X124.898 Y101.02 E.09966
G1 X124.898 Y100.426 E.01554
G1 X122.202 Y103.122 E.09982
G1 X122.165 Y103.006 E.00319
G1 X121.974 Y102.756 E.00823
G1 X124.898 Y99.832 E.10825
G1 X124.898 Y99.239 E.01554
G1 X121.614 Y102.522 E.12157
G1 X121.218 Y102.324 E.01158
G1 X124.898 Y98.645 E.13622
G1 X124.898 Y98.577 E.00178
G1 X124.372 Y98.577 E.01376
G1 X120.823 Y102.127 E.13141
G1 X120.427 Y101.929 E.01158
G1 X123.778 Y98.577 E.12408
G1 X123.185 Y98.577 E.01554
G1 X120.031 Y101.731 E.11675
G1 X119.901 Y101.665 E.00382
G1 X120.299 Y100.869 E.0233
G1 X122.591 Y98.577 E.08486
G1 X121.997 Y98.577 E.01554
G1 X120.472 Y100.102 E.05647
; stop printing object Edge Rib.stl id:0 copy 0
M106 S170.85
;LAYER_CHANGE
;Z:0.5
;HEIGHT:0.15
;BEFORE_LAYER_CHANGE
G92 E0.0
;0.5


;WIPE_START
G1 F8640
G1 X121.997 Y98.577 E-.49808
G1 X122.591 Y98.577 E-.13708
G1 X122.209 Y98.959 E-.12484
;WIPE_END
G1 E-.04 F2100
G1 Z.75 F720
;AFTER_LAYER_CHANGE
;0.5
G1 X122.209 Y94.867 F10800
G1 Z.5 F720
G1 E.8 F2100
;TYPE:Skirt/Brim
;WIDTH:0.42
G1 F1992
G1 X135.854 Y94.867 E.33001
G1 X137.272 Y95.26 E.03557
M73 Q15 S4
G1 X138.285 Y96.326 E.03557
G1 X138.608 Y97.621 E.03229
G1 X138.608 Y101.621 E.09674
G1 X138.216 Y103.038 E.03557
M73 P15 R4
G1 X137.21 Y104.018 E.03396
G1 X118.185 Y114.776 E.52858
G1 X116.758 Y115.132 E.03557
G1 X115.597 Y114.842 E.02892
G1 X112.914 Y113.501 E.07256
G1 X111.822 Y112.516 E.03557
G1 X111.393 Y111.109 E.03557
G1 X111.683 Y109.806 E.03229
G1 X118.391 Y96.389 E.36277
G1 X119.376 Y95.297 E.03557
G1 X120.854 Y94.867 E.03723
G1 X122.149 Y94.867 E.03131
G1 X122.149 Y95.244 F10800
G1 F1992
G1 X135.854 Y95.244 E.33146
G1 X137.161 Y95.635 E.033
G1 X138.038 Y96.681 E.033
G1 X138.231 Y97.621 E.02321
G1 X138.231 Y101.621 E.09674
G1 X137.84 Y102.928 E.033
G1 X137.024 Y103.69 E.02699
G1 X117.999 Y114.448 E.52858
G1 X116.669 Y114.751 E.033
M73 Q16 S4
G1 X115.766 Y114.505 E.02262
G1 X113.083 Y113.163 E.07255
G1 X112.089 Y112.229 E.033
G1 X111.773 Y110.901 E.033
M73 P16 R4
G1 X112.02 Y109.974 E.0232
G1 X118.728 Y96.558 E.36277
G1 X119.663 Y95.564 E.033
G1 X120.854 Y95.244 E.02983
G1 X122.089 Y95.244 E.02986
; printing object Edge Rib.stl id:0 copy 0
;WIPE_START
G1 F8640
G1 X125.38 Y95.244 E-.76
;WIPE_END
G1 E-.04 F2100
G1 Z.9 F720
G1 X119.328 Y102.111 F10800
G1 Z.5 F720
G1 E.8 F2100
M204 S800
;TYPE:Perimeter
;WIDTH:0.449999
G1 F1992
G1 X121.251 Y98.264 E.11207
G1 X125.498 Y98.264 E.11064
G1 X125.211 Y98.605 E.01161
G1 X125.211 Y100.712 E.0549
G1 X125.238 Y101.816 E.02879
G1 X125.321 Y101.991 E.00504
G1 X125.544 Y102.19 E.00779
G1 X125.838 Y102.264 E.0079
G1 X133.411 Y102.264 E.19733
G1 X118.346 Y110.783 E.45095
G1 X121.883 Y103.708 E.2061
G1 X121.945 Y103.5 E.00564
G1 X121.923 Y103.248 E.00659
G1 X121.779 Y102.998 E.00752
G1 X121.603 Y102.867 E.00572
G1 X119.786 Y101.958 E.05295
G1 X119.385 Y102.092 E.01101
M204 S1000
G1 X119.599 Y102.332 F10800
M204 S800
;TYPE:External perimeter
;WIDTH:0.483048
G1 F1500
G1 X119.444 Y102.371 E.00449
;WIDTH:0.516096
G1 X119.289 Y102.411 E.00482
